!!!!SEGMENT: pl-wumfc--n18053--001-014_noskowski-zygmunt--livia-quintilla-akt-drugi-scena-ii.krn
!!!cenid: 18xx:4230
!!!COM: Noskowski, Zygmunt
!!!COM-rismID: pe106604
!!!CDT: 1846/05/02-1909/07/23
!!!CNT: Polish
!!!OPR: Livia Quintilla
!!!OTL: Akt drugi - Scena II
!!!OMV: 014
!!!PDT: 1898
!!!AGN:
!!!YEC: Copyright 2022 Narodowy Instytut Fryderyka Chopina (https://polishscores.org)
!!!YEM: License CC-BY-4.0 (https://creativecommons.org/licenses/by/4.0)
!!!SMS-siglum: PL-Wumfc
!!!SMS-shelfmark: N18053
!!!SMS-shelfwork: 001-014 M
!!!SMS-variant:
!!!SMS-altvar:
!!!NIFC-rismSourceID: 1001161204
!!!NIFC-rismChildID: 1001161204
!!!NIFC-islandoraID: pl-wumfc:1491
!!!URL-pdf-islandora: https://repozytorium.nifc.pl/islandora/object/pl-wumfc:1491/datastream/PDF/view
!!!URL-scan: https://polish.musicsources.pl/pl/lokalizacje/galeria/druki-muzyczne/11843/49 @EN{Scan on Polish Music Sources Website} @PL{Skany w portalu Dziedzictwo Muzyki Polskiej w otwartym dostępie}
!!!IIIF:
!!!ONB-nifc: Skany 0049-0052
!!!AIN: 1 bass 2 piano 1 tenor 4 vox
!!!key:
**kern	**kern	**dynam	**kern	**dynam	**kern	**text	**dynam	**kern	**text	**dynam	**kern	**text	**dynam	**kern	**text	**dynam	**kern	**text	**dynam
*part8	*part7	*	*part6	*	*part5	*	*	*part4	*	*	*part3	*	*	*part2	*	*	*part1	*	*
*staff8	*staff7	*	*staff6	*	*staff5	*	*	*staff4	*	*	*staff3	*	*	*staff2	*	*	*staff1	*	*
*I"[PIANO.]	*I"[PIANO.]	*	*I"Bas.	*	*I"Ten.	*	*	*I"Sopr.\nAlt.	*	*	*I"Silva	*	*	*I"Selene	*	*	*I"Livia Quintilla	*	*
*I'[pf]	*I'[pf]	*	*I'[B]	*	*I'[T]	*	*	*I'[S A]	*	*	*I'S.	*	*	*I'S.	*	*	*I'L.	*	*
*ICklav	*ICklav	*	*ICvox	*	*ICvox	*	*	*ICvox	*	*	*ICvox	*	*	*ICvox	*	*	*ICvox	*	*
*Ipiano	*Ipiano	*	*Ibass	*	*Itenor	*	*	*Ivox	*	*	*Ivox	*	*	*Ivox	*	*	*Ivox	*	*
*clefF4	*clefG2	*	*clefF4	*	*clefGv2	*	*	*clefG2	*	*	*clefF4	*	*	*clefG2	*	*	*clefG2	*	*
*k[f#c#g#d#]	*k[f#c#g#d#]	*	*k[f#c#g#d#]	*	*k[f#c#g#d#]	*	*	*k[f#c#g#d#]	*	*	*k[f#c#g#d#]	*	*	*k[f#c#g#d#]	*	*	*k[f#c#g#d#]	*	*
*E:	*E:	*	*E:	*	*E:	*	*	*E:	*	*	*E:	*	*	*E:	*	*	*E:	*	*
*M3/4	*M3/4	*	*M3/4	*	*M3/4	*	*	*M3/4	*	*	*M3/4	*	*	*M3/4	*	*	*M3/4	*	*
=1	=1	=1	=1	=1	=1	=1	=1	=1	=1	=1	=1	=1	=1	=1	=1	=1	=1	=1	=1
*	*clefF4	*	*	*	*	*	*	*	*	*	*	*	*	*	*	*	*	*	*
!	!LO:TX:a:B:t=Moderato assai.	!	!	!	!	!	!	!	!	!	!	!	!	!	!	!	!	!	!
8EE/L 8BB	8r	.	2.ryy	.	2.ryy	.	.	2.ryy	.	.	2.ryy	.	.	2.ryy	.	.	2.ryy	.	.
8EE/J 8BB	8D#'\	p	.	.	.	.	.	.	.	.	.	.	.	.	.	.	.	.	.
2EE/ 2BB	8E'\L	.	.	.	.	.	.	.	.	.	.	.	.	.	.	.	.	.	.
.	8D#'\	.	.	.	.	.	.	.	.	.	.	.	.	.	.	.	.	.	.
.	8E'\	.	.	.	.	.	.	.	.	.	.	.	.	.	.	.	.	.	.
.	8D#\J 8F##X	.	.	.	.	.	.	.	.	.	.	.	.	.	.	.	.	.	.
=2	=2	=2	=2	=2	=2	=2	=2	=2	=2	=2	=2	=2	=2	=2	=2	=2	=2	=2	=2
*tremolo	*	*	*	*	*	*	*	*	*	*	*	*	*	*	*	*	*	*	*
8EE/L 8BB	8E'\L 8G#	.	2.ryy	.	2.ryy	.	.	2.ryy	.	.	2.ryy	.	.	2.ryy	.	.	2.ryy	.	.
!	!LO:N:n=1:acc=n#	!	!	!	!	!	!	!	!	!	!	!	!	!	!	!	!	!	!
8EE/ 8BB	(16F#X\L 16A#X	.	.	.	.	.	.	.	.	.	.	.	.	.	.	.	.	.	.
.	16E\JJ)	.	.	.	.	.	.	.	.	.	.	.	.	.	.	.	.	.	.
8EE/ 8BB	(16G#\LL 16B	.	.	.	.	.	.	.	.	.	.	.	.	.	.	.	.	.	.
.	16e\	.	.	.	.	.	.	.	.	.	.	.	.	.	.	.	.	.	.
8EE/ 8BB	16G#\ 16d#	.	.	.	.	.	.	.	.	.	.	.	.	.	.	.	.	.	.
.	16c#\JJ)	.	.	.	.	.	.	.	.	.	.	.	.	.	.	.	.	.	.
8EE/ 8BB	8F#'\L 8d#	.	.	.	.	.	.	.	.	.	.	.	.	.	.	.	.	.	.
8EE/J 8BB	8An'\J 8B	.	.	.	.	.	.	.	.	.	.	.	.	.	.	.	.	.	.
=3	=3	=3	=3	=3	=3	=3	=3	=3	=3	=3	=3	=3	=3	=3	=3	=3	=3	=3	=3
8EE/L 8BB	8G#'\L 8e	.	2.ryy	.	2.ryy	.	.	2.ryy	.	.	2.ryy	.	.	2.ryy	.	.	2.ryy	.	.
8EE/ 8BB	8B'\ 8d#	.	.	.	.	.	.	.	.	.	.	.	.	.	.	.	.	.	.
8EE/ 8BB	8A'\ 8c#	<	.	.	.	.	.	.	.	.	.	.	.	.	.	.	.	.	.
8EE/ 8BB	8F#'\J 8B 8d#	.	.	.	.	.	.	.	.	.	.	.	.	.	.	.	.	.	.
*	*clefG2	*	*	*	*	*	*	*	*	*	*	*	*	*	*	*	*	*	*
8EE/ 8BB	8A'/L 8c# 8e	.	.	.	.	.	.	.	.	.	.	.	.	.	.	.	.	.	.
8EE/J 8BB	8d#'/J 8f##X	.	.	.	.	.	.	.	.	.	.	.	.	.	.	.	.	.	.
=4	=4	=4	=4	=4	=4	=4	=4	=4	=4	=4	=4	=4	=4	=4	=4	=4	=4	=4	=4
8EE/L 8BB	8e'/L 8g#	.	2.ryy	.	2.ryy	.	.	2.ryy	.	.	2.ryy	.	.	2.ryy	.	.	2.ryy	.	.
!	!LO:N:n=1:acc=n#	!	!	!	!	!	!	!	!	!	!	!	!	!	!	!	!	!	!
8EE/ 8BB	(16f#X/L 16a#X	.	.	.	.	.	.	.	.	.	.	.	.	.	.	.	.	.	.
.	16e/JJ)	.	.	.	.	.	.	.	.	.	.	.	.	.	.	.	.	.	.
8EE/ 8BB	(16g#\LL 16b	.	.	.	.	.	.	.	.	.	.	.	.	.	.	.	.	.	.
.	16ee\	.	.	.	.	.	.	.	.	.	.	.	.	.	.	.	.	.	.
8EE/ 8BB	16g#\ 16dd#	.	.	.	.	.	.	.	.	.	.	.	.	.	.	.	.	.	.
.	16cc#\JJ)	.	.	.	.	.	.	.	.	.	.	.	.	.	.	.	.	.	.
8EE/ 8BB	8f#'\L 8b 8dd#	.	.	.	.	.	.	.	.	.	.	.	.	.	.	.	.	.	.
8EE/J 8BB	8an'\J 8dd# 8ff#	.	.	.	.	.	.	.	.	.	.	.	.	.	.	.	.	.	.
=5	=5	=5	=5	=5	=5	=5	=5	=5	=5	=5	=5	=5	=5	=5	=5	=5	=5	=5	=5
8BB/L 8G#	(16ee\LL 16gg# 16bb	f	2.ryy	.	2.ryy	.	.	2.ryy	.	.	2.ryy	.	.	2.ryy	.	.	2.ryy	.	.
.	16ccc#\	.	.	.	.	.	.	.	.	.	.	.	.	.	.	.	.	.	.
8EE/J	16bb\	.	.	.	.	.	.	.	.	.	.	.	.	.	.	.	.	.	.
.	16gg#\JJ)	.	.	.	.	.	.	.	.	.	.	.	.	.	.	.	.	.	.
8C#/L 8A	8a'\L 8cc# 8aa	.	.	.	.	.	.	.	.	.	.	.	.	.	.	.	.	.	.
8EE/J	8cc#'\J	.	.	.	.	.	.	.	.	.	.	.	.	.	.	.	.	.	.
8BB/L 8A	(16a\LL 16dd#	.	.	.	.	.	.	.	.	.	.	.	.	.	.	.	.	.	.
.	16ee\J	.	.	.	.	.	.	.	.	.	.	.	.	.	.	.	.	.	.
8EE/J	8ff#\J)	.	.	.	.	.	.	.	.	.	.	.	.	.	.	.	.	.	.
!!LO:LB:g=original	!	!	!	!	!	!	!	!	!	!	!	!	!	!	!	!	!	!	!
=6	=6	=6	=6	=6	=6	=6	=6	=6	=6	=6	=6	=6	=6	=6	=6	=6	=6	=6	=6
*	*^	*	*	*	*	*	*	*	*	*	*	*	*	*	*	*	*	*	*
8C#/L 8G#	8e/L 8g# 8ee	4ryy	.	2.ryy	.	2.ryy	.	.	2.ryy	.	.	2.ryy	.	.	2.ryy	.	.	2.ryy	.	.
8EE/J	(16g#/L	.	.	.	.	.	.	.	.	.	.	.	.	.	.	.	.	.	.	.
.	16a/JJ)	.	.	.	.	.	.	.	.	.	.	.	.	.	.	.	.	.	.	.
8D#/L 8B	2b/	4d#\ 4a	.	.	.	.	.	.	.	.	.	.	.	.	.	.	.	.	.	.
8EE/J	.	.	.	.	.	.	.	.	.	.	.	.	.	.	.	.	.	.	.	.
8BB/L 8G#	.	4e\ 4g#	.	.	.	.	.	.	.	.	.	.	.	.	.	.	.	.	.	.
8EE/J	.	.	.	.	.	.	.	.	.	.	.	.	.	.	.	.	.	.	.	.
*	*v	*v	*	*	*	*	*	*	*	*	*	*	*	*	*	*	*	*	*	*
=7	=7	=7	=7	=7	=7	=7	=7	=7	=7	=7	=7	=7	=7	=7	=7	=7	=7	=7	=7
8BB/L 8F#	(16a\LL 16dd# 16ff#	.	2.ryy	.	2.ryy	.	.	2.ryy	.	.	2.ryy	.	.	2.ryy	.	.	2.ryy	.	.
.	16gg#\	.	.	.	.	.	.	.	.	.	.	.	.	.	.	.	.	.	.
8EE/J	16ff#\	.	.	.	.	.	.	.	.	.	.	.	.	.	.	.	.	.	.
.	16dd#\JJ)	.	.	.	.	.	.	.	.	.	.	.	.	.	.	.	.	.	.
8C#/L 8E	8e/L 8a 8cc# 8ee	.	.	.	.	.	.	.	.	.	.	.	.	.	.	.	.	.	.
8EE/J	8c#/J 8f#	.	.	.	.	.	.	.	.	.	.	.	.	.	.	.	.	.	.
8C#/L 8E	(16c#/LL 16f# 16a	.	.	.	.	.	.	.	.	.	.	.	.	.	.	.	.	.	.
.	16b/J	.	.	.	.	.	.	.	.	.	.	.	.	.	.	.	.	.	.
8EE/J	8cc#/J)	.	.	.	.	.	.	.	.	.	.	.	.	.	.	.	.	.	.
=8	=8	=8	=8	=8	=8	=8	=8	=8	=8	=8	=8	=8	=8	=8	=8	=8	=8	=8	=8
8BB/L 8F#	4d#/ 4a 4dd#	.	2.ryy	.	2.ryy	.	.	2.ryy	.	.	2.ryy	.	.	2.ryy	.	.	2.ryy	.	.
8EE/J	.	.	.	.	.	.	.	.	.	.	.	.	.	.	.	.	.	.	.
*Xtremolo	*	*	*	*	*	*	*	*	*	*	*	*	*	*	*	*	*	*	*
8BB/L 8F#	2a^^\ 2b 2dd# 2aa	.	.	.	.	.	.	.	.	.	.	.	.	.	.	.	.	.	.
8EE/	.	.	.	.	.	.	.	.	.	.	.	.	.	.	.	.	.	.	.
8BB/ 8F#	.	.	.	.	.	.	.	.	.	.	.	.	.	.	.	.	.	.	.
8EE/J	.	.	.	.	.	.	.	.	.	.	.	.	.	.	.	.	.	.	.
=9	=9	=9	=9	=9	=9	=9	=9	=9	=9	=9	=9	=9	=9	=9	=9	=9	=9	=9	=9
8C#/L 8G#	(16cc#\LL 16ee 16gg#	.	2.ryy	.	2.ryy	.	.	2.ryy	.	.	2.ryy	.	.	2.ryy	.	.	2.ryy	.	.
.	16aa#X\	.	.	.	.	.	.	.	.	.	.	.	.	.	.	.	.	.	.
8EE/J	16gg#\	.	.	.	.	.	.	.	.	.	.	.	.	.	.	.	.	.	.
.	16aa#\JJ)	.	.	.	.	.	.	.	.	.	.	.	.	.	.	.	.	.	.
8C#/L 8G#	(16cc#\LL 16ee 16gg#	.	.	.	.	.	.	.	.	.	.	.	.	.	.	.	.	.	.
.	16ccc#\)	.	.	.	.	.	.	.	.	.	.	.	.	.	.	.	.	.	.
8EE/J	(16ccc#\	.	.	.	.	.	.	.	.	.	.	.	.	.	.	.	.	.	.
.	16gg#\JJ)	.	.	.	.	.	.	.	.	.	.	.	.	.	.	.	.	.	.
8C#/L 8G#	4cc#^^\ 4ee 4gg#	.	.	.	.	.	.	.	.	.	.	.	.	.	.	.	.	.	.
8EE/J	.	.	.	.	.	.	.	.	.	.	.	.	.	.	.	.	.	.	.
=10	=10	=10	=10	=10	=10	=10	=10	=10	=10	=10	=10	=10	=10	=10	=10	=10	=10	=10	=10
8AA#X/L 8C# 8F#	(16a#X\LL 16cc# 16ff#	.	2.ryy	.	2.ryy	.	.	2.ryy	.	.	2.ryy	.	.	2.ryy	.	.	2.ryy	.	.
.	16gg#\	.	.	.	.	.	.	.	.	.	.	.	.	.	.	.	.	.	.
8EE/J	16ff#\	.	.	.	.	.	.	.	.	.	.	.	.	.	.	.	.	.	.
.	16gg#\JJ)	.	.	.	.	.	.	.	.	.	.	.	.	.	.	.	.	.	.
8AA#/L 8C# 8F#	(16a#\LL 16cc# 16ff#	.	.	.	.	.	.	.	.	.	.	.	.	.	.	.	.	.	.
.	16ccc#\)	.	.	.	.	.	.	.	.	.	.	.	.	.	.	.	.	.	.
8EE/J	(16ccc#\	.	.	.	.	.	.	.	.	.	.	.	.	.	.	.	.	.	.
.	16ff#\JJ)	.	.	.	.	.	.	.	.	.	.	.	.	.	.	.	.	.	.
8AA#/L 8C# 8F#	4a#^^\ 4cc# 4ff#	.	.	.	.	.	.	.	.	.	.	.	.	.	.	.	.	.	.
8EE/J	.	.	.	.	.	.	.	.	.	.	.	.	.	.	.	.	.	.	.
!!LO:LB:g=original	!	!	!	!	!	!	!	!	!	!	!	!	!	!	!	!	!	!	!
=11	=11	=11	=11	=11	=11	=11	=11	=11	=11	=11	=11	=11	=11	=11	=11	=11	=11	=11	=11
*	*^	*	*	*	*	*	*	*	*	*	*	*	*	*	*	*	*	*	*
8AAn/L 8BB 8F#	(16b\LL 16ff#	4ryy	.	2.r	.	2.r	.	.	2.r	.	.	2.ryy	.	.	2.ryy	.	.	2.ryy	.	.
.	16gg#\	.	.	.	.	.	.	.	.	.	.	.	.	.	.	.	.	.	.	.
8DD#/J	16bb\	.	.	.	.	.	.	.	.	.	.	.	.	.	.	.	.	.	.	.
.	16gg#\JJ)	.	.	.	.	.	.	.	.	.	.	.	.	.	.	.	.	.	.	.
8AA/L 8C# 8F#	(16ff#/LL	4a\	.	.	.	.	.	.	.	.	.	.	.	.	.	.	.	.	.	.
.	16cc#/	.	.	.	.	.	.	.	.	.	.	.	.	.	.	.	.	.	.	.
8CC#/J	16ff#/	.	.	.	.	.	.	.	.	.	.	.	.	.	.	.	.	.	.	.
.	16cc#/JJ)	.	.	.	.	.	.	.	.	.	.	.	.	.	.	.	.	.	.	.
8AA/L 8D# 8F#	(16aa/LL	4a\ 4dd#	.	.	.	.	.	.	.	.	.	.	.	.	.	.	.	.	.	.
.	16gg#/J	.	.	.	.	.	.	.	.	.	.	.	.	.	.	.	.	.	.	.
8BBB/J	8ff#/J)	.	.	.	.	.	.	.	.	.	.	.	.	.	.	.	.	.	.	.
*	*v	*v	*	*	*	*	*	*	*	*	*	*	*	*	*	*	*	*	*	*
=12	=12	=12	=12	=12	=12	=12	=12	=12	=12	=12	=12	=12	=12	=12	=12	=12	=12	=12	=12
*	*	*	*	*	*	*	*	*^	*	*	*	*	*	*	*	*	*	*	*
8BB/L 8G#	2g#\ 2b 2ee	.	4r	.	4r	.	.	4r	2ryy	.	.	2.ryy	.	.	2.ryy	.	.	2.ryy	.	.
8EE/J	.	.	.	.	.	.	.	.	.	.	.	.	.	.	.	.	.	.	.	.
8BB/L 8G#	.	.	4r	.	4r	.	.	4r	.	.	.	.	.	.	.	.	.	.	.	.
8EE/J	.	.	.	.	.	.	.	.	.	.	.	.	.	.	.	.	.	.	.	.
!	!	!	!	!	!	!	!LO:DY:a	!	!	!	!LO:DY:a	!	!	!	!	!	!	!	!	!
8BB/L 8G#	4e/ 4g# 4b	.	4E\	f	4B\	By	f	4b/	4g#\	By	f	.	.	.	.	.	.	.	.	.
8EE/J	.	.	.	.	.	.	.	.	.	.	.	.	.	.	.	.	.	.	.	.
=13	=13	=13	=13	=13	=13	=13	=13	=13	=13	=13	=13	=13	=13	=13	=13	=13	=13	=13	=13	=13
8BB/L 8G#	(16ee\LL 16gg# 16bb	.	4E\	.	4B\	wdzię-	.	4ee/	4g#\	wdzię-	.	2.ryy	.	.	2.ryy	.	.	2.ryy	.	.
.	16ccc#\	.	.	.	.	.	.	.	.	.	.	.	.	.	.	.	.	.	.	.
8EE/J	16bb\	.	.	.	.	.	.	.	.	.	.	.	.	.	.	.	.	.	.	.
.	16gg#\JJ)	.	.	.	.	.	.	.	.	.	.	.	.	.	.	.	.	.	.	.
8C#/L 8A	8a'\L 8cc# 8aa	.	4E\	.	4c#\	-kiem	.	(8dd#/L	4a\	-kiem	.	.	.	.	.	.	.	.	.	.
8EE/J	8cc#'\J	.	.	.	.	.	.	8cc#/J)	.	.	.	.	.	.	.	.	.	.	.	.
8BB/L 8A	(16a\LL 16dd#	.	4E\	.	4d#\	o-	.	4b/	4a\	o-	.	.	.	.	.	.	.	.	.	.
.	16ee\J	.	.	.	.	.	.	.	.	.	.	.	.	.	.	.	.	.	.	.
8EE/J	8ff#\J)	.	.	.	.	.	.	.	.	.	.	.	.	.	.	.	.	.	.	.
=14	=14	=14	=14	=14	=14	=14	=14	=14	=14	=14	=14	=14	=14	=14	=14	=14	=14	=14	=14	=14
8C#/L 8G#	8e/L 8g# 8ee	.	4E\	.	4e\	-to-	.	(8cc#/L	4g#\	-to-	.	2.ryy	.	.	2.ryy	.	.	2.ryy	.	.
8EE/J	(16g#/L	.	.	.	.	.	.	8dd#/J)	.	.	.	.	.	.	.	.	.	.	.	.
.	16a/JJ)	.	.	.	.	.	.	.	.	.	.	.	.	.	.	.	.	.	.	.
8BB/L 8F#	4d#/ 4f# 4b	.	4E\	.	(8d#\L	-czyć	.	4b/	4f#\	-czyć	.	.	.	.	.	.	.	.	.	.
8EE/J	.	.	.	.	8c#\J)	.	.	.	.	.	.	.	.	.	.	.	.	.	.	.
8BB/L 8F#	4d#/ 4a 4b	.	4E\	.	4B\	to	.	4b/	4a\	to	.	.	.	.	.	.	.	.	.	.
8EE/J	.	.	.	.	.	.	.	.	.	.	.	.	.	.	.	.	.	.	.	.
=15	=15	=15	=15	=15	=15	=15	=15	=15	=15	=15	=15	=15	=15	=15	=15	=15	=15	=15	=15	=15
8BB/L 8G#	(16e\LL 16g# 16cc#	.	4E\	.	(8c#\L	ziem-	.	4ee/	4g#\	ziem-	.	2.ryy	.	.	2.ryy	.	.	2.ryy	.	.
.	16dd#\	.	.	.	.	.	.	.	.	.	.	.	.	.	.	.	.	.	.	.
8EE/J	16ee\	.	.	.	8d#\J)	.	.	.	.	.	.	.	.	.	.	.	.	.	.	.
.	16gg#\JJ)	.	.	.	.	.	.	.	.	.	.	.	.	.	.	.	.	.	.	.
8BB/L 8G#	8b\L 8gg# 8bb	.	4E\	.	4B\	-skie	.	(8dd#/L	4g#\	-skie	.	.	.	.	.	.	.	.	.	.
8EE/J	(16cc#\L	.	.	.	.	.	.	8cc#/J)	.	.	.	.	.	.	.	.	.	.	.	.
.	16ee\JJ)	.	.	.	.	.	.	.	.	.	.	.	.	.	.	.	.	.	.	.
8BB/L 8G#	(16g#\LL 16b 16gg#	.	4E\	.	4B\	i-	.	(8dd#/L	4g#\	i-	.	.	.	.	.	.	.	.	.	.
.	16ff#\J	.	.	.	.	.	.	.	.	.	.	.	.	.	.	.	.	.	.	.
8EE/J	8ee\J)	.	.	.	.	.	.	8ee/J)	.	.	.	.	.	.	.	.	.	.	.	.
!!LO:LB:g=original	!	!	!	!	!	!	!	!	!	!	!	!	!	!	!	!	!	!	!	!
=16	=16	=16	=16	=16	=16	=16	=16	=16	=16	=16	=16	=16	=16	=16	=16	=16	=16	=16	=16	=16
8BB/L 8A	4d#/ 4a 4dd#	.	4E\	.	4d#\	-stnie-	.	4ff#/	4a\	-stnie-	.	2.ryy	.	.	2.ryy	.	.	2.ryy	.	.
8EE/J	.	.	.	.	.	.	.	.	.	.	.	.	.	.	.	.	.	.	.	.
8BB/L 8A	2a^^\ 2dd# 2aa	.	4E\	.	(8d#\L	-nie	.	4b/	4a\	-nie	.	.	.	.	.	.	.	.	.	.
8EE/J	.	.	.	.	8c#\J)	.	.	.	.	.	.	.	.	.	.	.	.	.	.	.
8BB/L 8A	.	.	4E\	.	4d#\	Po-	.	4b/	4a\	Po-	.	.	.	.	.	.	.	.	.	.
8EE/J	.	.	.	.	.	.	.	.	.	.	.	.	.	.	.	.	.	.	.	.
=17	=17	=17	=17	=17	=17	=17	=17	=17	=17	=17	=17	=17	=17	=17	=17	=17	=17	=17	=17	=17
8BB/L 8G#	(16b\LL 16ee 16gg#	.	2E\ 2B	.	2e\	-tęż-	.	2gg#/	2g#\	-tęż-	.	2.ryy	.	.	2.ryy	.	.	2.ryy	.	.
.	16aa\	.	.	.	.	.	.	.	.	.	.	.	.	.	.	.	.	.	.	.
8EE/J	16bb\	.	.	.	.	.	.	.	.	.	.	.	.	.	.	.	.	.	.	.
.	16ccc#\JJ)	.	.	.	.	.	.	.	.	.	.	.	.	.	.	.	.	.	.	.
8BB/L 8G#	(16ee\LL 16gg# 16bb	.	.	.	.	.	.	.	.	.	.	.	.	.	.	.	.	.	.	.
.	16eee\)	.	.	.	.	.	.	.	.	.	.	.	.	.	.	.	.	.	.	.
8EE/J	(16eee\	.	.	.	.	.	.	.	.	.	.	.	.	.	.	.	.	.	.	.
.	16bb\JJ)	.	.	.	.	.	.	.	.	.	.	.	.	.	.	.	.	.	.	.
8BB/L 8G#	4b^^\ 4gg# 4bb	.	4E\ 4B	.	4e\	-ny	.	(8cc#/L	4g#\	-ny	.	.	.	.	.	.	.	.	.	.
8EE/J	.	.	.	.	.	.	.	8dd#/J)	.	.	.	.	.	.	.	.	.	.	.	.
=18	=18	=18	=18	=18	=18	=18	=18	=18	=18	=18	=18	=18	=18	=18	=18	=18	=18	=18	=18	=18
8C#/L 8A	(16cc#\LL 16ee 16aa	.	2E\ 2c#	.	2e\	z De-	.	(4ff#/	2a\	z De-	.	2.ryy	.	.	2.ryy	.	.	2.ryy	.	.
.	16bb\	.	.	.	.	.	.	.	.	.	.	.	.	.	.	.	.	.	.	.
8EE/J	16aa\	.	.	.	.	.	.	.	.	.	.	.	.	.	.	.	.	.	.	.
.	16bb\JJ)	.	.	.	.	.	.	.	.	.	.	.	.	.	.	.	.	.	.	.
8C#/L 8A	(16ee\LL 16aa	.	.	.	.	.	.	4ee/)	.	.	.	.	.	.	.	.	.	.	.	.
.	16eee\)	.	.	.	.	.	.	.	.	.	.	.	.	.	.	.	.	.	.	.
8EE/J	(16eee\	.	.	.	.	.	.	.	.	.	.	.	.	.	.	.	.	.	.	.
.	16aa\JJ)	.	.	.	.	.	.	.	.	.	.	.	.	.	.	.	.	.	.	.
8C#/L 8A	4cc#^^\ 4ee 4aa	.	4E\ 4c#	.	4e\	-los	.	4cc#/	4a\	-los	.	.	.	.	.	.	.	.	.	.
8EE/J	.	.	.	.	.	.	.	.	.	.	.	.	.	.	.	.	.	.	.	.
=19	=19	=19	=19	=19	=19	=19	=19	=19	=19	=19	=19	=19	=19	=19	=19	=19	=19	=19	=19	=19
8BB/L 8F#	(16a\LL 16b 16ff#	.	2.E\ [2.B	.	(2.d#\	pan,	.	(2.ff#/	2.a\	pan,	.	2.ryy	.	.	2.ryy	.	.	2.ryy	.	.
.	16gg#\	.	.	.	.	.	.	.	.	.	.	.	.	.	.	.	.	.	.	.
8EE/J	16bb\	.	.	.	.	.	.	.	.	.	.	.	.	.	.	.	.	.	.	.
.	16gg#\JJ)	.	.	.	.	.	.	.	.	.	.	.	.	.	.	.	.	.	.	.
8BB/L 8F#	(16ff#\LL	.	.	.	.	.	.	.	.	.	.	.	.	.	.	.	.	.	.	.
.	16gg#\	.	.	.	.	.	.	.	.	.	.	.	.	.	.	.	.	.	.	.
8EE/J	16ff#\	.	.	.	.	.	.	.	.	.	.	.	.	.	.	.	.	.	.	.
.	16dd#\JJ)	.	.	.	.	.	.	.	.	.	.	.	.	.	.	.	.	.	.	.
8BB/L 8F#	(16a\LL 16b	.	.	.	.	.	.	.	.	.	.	.	.	.	.	.	.	.	.	.
.	16cc#\J	.	.	.	.	.	.	.	.	.	.	.	.	.	.	.	.	.	.	.
8EE/J	8dd#\J)	.	.	.	.	.	.	.	.	.	.	.	.	.	.	.	.	.	.	.
=20	=20	=20	=20	=20	=20	=20	=20	=20	=20	=20	=20	=20	=20	=20	=20	=20	=20	=20	=20	=20
8BB/L 8G#	(16g#\LL 16b 16ee	.	2E\ 2B]	.	2e\)	.	.	2b/)	2g#\	.	.	2.ryy	.	.	2.ryy	.	.	2.ryy	.	.
.	16dd#\	.	.	.	.	.	.	.	.	.	.	.	.	.	.	.	.	.	.	.
8EE/J	16ee\	.	.	.	.	.	.	.	.	.	.	.	.	.	.	.	.	.	.	.
.	16ff#\JJ)	.	.	.	.	.	.	.	.	.	.	.	.	.	.	.	.	.	.	.
8BB/L 8G#	4gg#\	.	.	.	.	.	.	.	.	.	.	.	.	.	.	.	.	.	.	.
8EE/J	.	.	.	.	.	.	.	.	.	.	.	.	.	.	.	.	.	.	.	.
8C#/L 8B	4e/ 4g# 4ee	.	4C#\ 4B	.	4e\	Dał	.	4ee/	4g#\	Dał	.	.	.	.	.	.	.	.	.	.
8CC#/J	.	.	.	.	.	.	.	.	.	.	.	.	.	.	.	.	.	.	.	.
!!LO:LB:g=original	!	!	!	!	!	!	!	!	!	!	!	!	!	!	!	!	!	!	!	!
=21	=21	=21	=21	=21	=21	=21	=21	=21	=21	=21	=21	=21	=21	=21	=21	=21	=21	=21	=21	=21
8C#/L 8A#X	(16a#X\LL 16ee 16ff#	.	4F#\ 4A#X	.	4e\	blas-	.	4cc#/	4f#\	blas-	.	2.ryy	.	.	2.ryy	.	.	2.ryy	.	.
.	16gg#\	.	.	.	.	.	.	.	.	.	.	.	.	.	.	.	.	.	.	.
8FF#/J	16aa#X\	.	.	.	.	.	.	.	.	.	.	.	.	.	.	.	.	.	.	.
.	16gg#\JJ)	.	.	.	.	.	.	.	.	.	.	.	.	.	.	.	.	.	.	.
8C#/L 8A#	8a#\L 8ff#	.	4F#\	.	4e\	-ki	.	(8dd#/L	4a#X\	-ki	.	.	.	.	.	.	.	.	.	.
8FF#/J	8a#\J 8ee 8aa#	.	.	.	.	.	.	8ee/J)	.	.	.	.	.	.	.	.	.	.	.	.
8D#/L 8B	(16b\LL 16dd# 16bb	.	4F#\	.	4d#\	i	.	4ff#/	4b\	i	.	.	.	.	.	.	.	.	.	.
.	16aa#\J	.	.	.	.	.	.	.	.	.	.	.	.	.	.	.	.	.	.	.
8FF#/J	8gg#\J)	.	.	.	.	.	.	.	.	.	.	.	.	.	.	.	.	.	.	.
=22	=22	=22	=22	=22	=22	=22	=22	=22	=22	=22	=22	=22	=22	=22	=22	=22	=22	=22	=22	=22
8E/L 8A#X	(16dd#\LL 16ff# 16ddd#	.	4F#\	.	(8f#\L	bar-	.	(8dd#/L	(8a#X\L	bar-	.	2.ryy	.	.	2.ryy	.	.	2.ryy	.	.
.	16ccc#\	.	.	.	.	.	.	.	.	.	.	.	.	.	.	.	.	.	.	.
8FF#/J	16ee\ 16gg#	.	.	.	8e\J)	.	.	8cc#/J)	8g#\J)	.	.	.	.	.	.	.	.	.	.	.
.	16aa#X\JJ)	.	.	.	.	.	.	.	.	.	.	.	.	.	.	.	.	.	.	.
8D#\L 8B	2b^^\ 2dd# 2bb	.	4B\	.	4d#\	-wy	.	4b/	4f#\	-wy	.	.	.	.	.	.	.	.	.	.
8BB\J	.	.	.	.	.	.	.	.	.	.	.	.	.	.	.	.	.	.	.	.
8D#\L 8B	.	.	4BB/	.	4d#\	i	.	4g#/	4f#\	i	.	.	.	.	.	.	.	.	.	.
8BB\J	.	.	.	.	.	.	.	.	.	.	.	.	.	.	.	.	.	.	.	.
=23	=23	=23	=23	=23	=23	=23	=23	=23	=23	=23	=23	=23	=23	=23	=23	=23	=23	=23	=23	=23
8C#/L 8F#	(16g#\LL 16b 16ee	.	4F#\	.	4c#\	słoń-	.	4b/	4e\	słoń-	.	2.ryy	.	.	2.ryy	.	.	2.ryy	.	.
.	16dd#\	.	.	.	.	.	.	.	.	.	.	.	.	.	.	.	.	.	.	.
8FF#/J	16ee\	.	.	.	.	.	.	.	.	.	.	.	.	.	.	.	.	.	.	.
.	16ff#\JJ)	.	.	.	.	.	.	.	.	.	.	.	.	.	.	.	.	.	.	.
8C#/L 8F#	8g#\L 8ee 8gg#	.	4F#\	.	4c#\	-ca	.	(8g#/L	4e\	-ca	.	.	.	.	.	.	.	.	.	.
8FF#/J	(16ee\L	.	.	.	.	.	.	8a#X/J)	.	.	.	.	.	.	.	.	.	.	.	.
.	16dd#\JJ)	.	.	.	.	.	.	.	.	.	.	.	.	.	.	.	.	.	.	.
8C#/L 8F#	8e\L 8a#X 8cc#	.	4F#\	.	4c#\	pro-	.	(8cc#/L	4a#X\	pro-	.	.	.	.	.	.	.	.	.	.
8FF#/J	8gg#\J	.	.	.	.	.	.	8ee/J)	.	.	.	.	.	.	.	.	.	.	.	.
=24	=24	=24	=24	=24	=24	=24	=24	=24	=24	=24	=24	=24	=24	=24	=24	=24	=24	=24	=24	=24
8E/L 8A#X	8a#X\L 8ee 8gg#	.	4F#\	.	4c#\	-mie-	.	4ee/	4a#X\	-mie-	.	2.ryy	.	.	2.ryy	.	.	2.ryy	.	.
8FF#/J	(16aa#X\L	.	.	.	.	.	.	.	.	.	.	.	.	.	.	.	.	.	.	.
.	16gg#\JJ)	.	.	.	.	.	.	.	.	.	.	.	.	.	.	.	.	.	.	.
8F#\L 8B	2b^^\ 2dd# 2ff#	.	4B\	.	4d#\	-nie,	.	4dd#/	4b\	-nie,	.	.	.	.	.	.	.	.	.	.
8BB\J	.	.	.	.	.	.	.	.	.	.	.	.	.	.	.	.	.	.	.	.
8F#\L 8B	.	.	4B\	.	4d#\	i	.	4b/	4f#\	i	.	.	.	.	.	.	.	.	.	.
8BB\J	.	.	.	.	.	.	.	.	.	.	.	.	.	.	.	.	.	.	.	.
!!LO:LB:g=original	!	!	!	!	!	!	!	!	!	!	!	!	!	!	!	!	!	!	!	!
=25	=25	=25	=25	=25	=25	=25	=25	=25	=25	=25	=25	=25	=25	=25	=25	=25	=25	=25	=25	=25
8BB/L 8F#	(16b\LL 16ff#	.	(2.D#\	.	[2.B\	pieś-	.	(2ff#/	(2.f#\	pieś-	.	2.ryy	.	.	2.ryy	.	.	2.ryy	.	.
.	16gg#\	.	.	.	.	.	.	.	.	.	.	.	.	.	.	.	.	.	.	.
8DD#/J	16bb\	.	.	.	.	.	.	.	.	.	.	.	.	.	.	.	.	.	.	.
.	16gg#\JJ)	.	.	.	.	.	.	.	.	.	.	.	.	.	.	.	.	.	.	.
8BB/L 8F#	(16ff#\LL	.	.	.	.	.	.	.	.	.	.	.	.	.	.	.	.	.	.	.
.	16gg#\	.	.	.	.	.	.	.	.	.	.	.	.	.	.	.	.	.	.	.
8DD#/J	16ff#\	.	.	.	.	.	.	.	.	.	.	.	.	.	.	.	.	.	.	.
.	16gg#\JJ)	.	.	.	.	.	.	.	.	.	.	.	.	.	.	.	.	.	.	.
8BB/L 8F#	4b^^\ 4ff# 4bb	.	.	.	.	.	.	8ee/L	.	.	.	.	.	.	.	.	.	.	.	.
8DD#/J	.	.	.	.	.	.	.	8dd#/J	.	.	.	.	.	.	.	.	.	.	.	.
=26	=26	=26	=26	=26	=26	=26	=26	=26	=26	=26	=26	=26	=26	=26	=26	=26	=26	=26	=26	=26
8BB/L 8G#	(16g#\LL 16b 16ee	.	4C#/)	.	4B\]	.	.	4ff#/)	4g#\)	.	.	2.ryy	.	.	2.ryy	.	.	2.ryy	.	.
.	16dd#\	.	.	.	.	.	.	.	.	.	.	.	.	.	.	.	.	.	.	.
8CC#/J	16ee\	.	.	.	.	.	.	.	.	.	.	.	.	.	.	.	.	.	.	.
.	16ff#\JJ)	.	.	.	.	.	.	.	.	.	.	.	.	.	.	.	.	.	.	.
!	!	!	!	!	!	!	!	!LO:TX:a:t=(Silva wchodzi na scenę i staje na uboczu ale na przodzie sceny)	!	!	!	!	!	!	!	!	!	!	!	!
8BB/L 8G#	(16gg#\LL	.	4C#/	.	4B\	-ni	.	4g#/	4e\	-ni	.	.	.	.	.	.	.	.	.	.
.	16ff#\	.	.	.	.	.	.	.	.	.	.	.	.	.	.	.	.	.	.	.
8CC#/J	16ee\	.	.	.	.	.	.	.	.	.	.	.	.	.	.	.	.	.	.	.
.	16dd#\JJ)	.	.	.	.	.	.	.	.	.	.	.	.	.	.	.	.	.	.	.
8E/L 8A#X	8cc#'\L	.	4F#\	.	4c#\	i	.	4a#X/	4e\	i	.	.	.	.	.	.	.	.	.	.
8FF#/J	8a#X'\J	.	.	.	.	.	.	.	.	.	.	.	.	.	.	.	.	.	.	.
=27	=27	=27	=27	=27	=27	=27	=27	=27	=27	=27	=27	=27	=27	=27	=27	=27	=27	=27	=27	=27
*	*^	*	*	*	*	*	*	*	*	*	*	*	*	*	*	*	*	*	*	*
8F#\L 8B	(>16d#/LL 16f#	4ryy	.	[2.BB\ [2.F#	.	[2.B\	tan.-	.	[2.b/	[2.d#\	tan.	.	2.ryy	.	.	2.ryy	.	.	2.ryy	.	.
.	16g#/	.	.	.	.	.	.	.	.	.	.	.	.	.	.	.	.	.	.	.	.
8BB\J	16f#/	.	.	.	.	.	.	.	.	.	.	.	.	.	.	.	.	.	.	.	.
.	16g#/JJ)	.	.	.	.	.	.	.	.	.	.	.	.	.	.	.	.	.	.	.	.
8F#\L 8B	(16dd#\LL	4ryy	.	.	.	.	.	.	.	.	.	.	.	.	.	.	.	.	.	.	.
.	16cc#\J	.	.	.	.	.	.	.	.	.	.	.	.	.	.	.	.	.	.	.	.
8BB\J	8b\J)	.	.	.	.	.	.	.	.	.	.	.	.	.	.	.	.	.	.	.	.
8F#\L 8B	(16f#/LL	4d#\	.	.	.	.	.	.	.	.	.	.	.	.	.	.	.	.	.	.	.
.	16g#/	.	.	.	.	.	.	.	.	.	.	.	.	.	.	.	.	.	.	.	.
8BB\J	16f#/	.	.	.	.	.	.	.	.	.	.	.	.	.	.	.	.	.	.	.	.
.	16g#/JJ)	.	.	.	.	.	.	.	.	.	.	.	.	.	.	.	.	.	.	.	.
=28	=28	=28	=28	=28	=28	=28	=28	=28	=28	=28	=28	=28	=28	=28	=28	=28	=28	=28	=28	=28	=28
8F#\L 8B	(16dd#\LL	4ryy	>	4BB\] 4F#]	.	4B\]	.	.	4b/]	4d#\]	.	.	2.ryy	.	.	2.ryy	.	.	2.ryy	.	.
.	16cc#\J	.	.	.	.	.	.	.	.	.	.	.	.	.	.	.	.	.	.	.	.
8BB\J	8b\J)	.	.	.	.	.	.	.	.	.	.	.	.	.	.	.	.	.	.	.	.
8F#\L 8c#	(16g#/LL	4e\	.	4r	.	4r	.	.	4r	4ryy	.	.	.	.	.	.	.	.	.	.	.
.	16f#/	.	.	.	.	.	.	.	.	.	.	.	.	.	.	.	.	.	.	.	.
8BB\J	16g#/	.	.	.	.	.	.	.	.	.	.	.	.	.	.	.	.	.	.	.	.
.	16a#X/JJ	.	]	.	.	.	.	.	.	.	.	.	.	.	.	.	.	.	.	.	.
8F#\L 8e	16b\LL	4ryy	.	4r	.	4r	.	.	4r	4ryy	.	.	.	.	.	.	.	.	.	.	.
.	16cc#\	.	.	.	.	.	.	.	.	.	.	.	.	.	.	.	.	.	.	.	.
8BB\J	16dd#\	.	.	.	.	.	.	.	.	.	.	.	.	.	.	.	.	.	.	.	.
.	16ee\JJ)	.	.	.	.	.	.	.	.	.	.	.	.	.	.	.	.	.	.	.	.
*	*v	*v	*	*	*	*	*	*	*v	*v	*	*	*	*	*	*	*	*	*	*	*
!!LO:LB:g=original	!	!	!	!	!	!	!	!	!	!	!	!	!	!	!	!	!	!	!
=29	=29	=29	=29	=29	=29	=29	=29	=29	=29	=29	=29	=29	=29	=29	=29	=29	=29	=29	=29
!	!	!	!	!	!	!	!	!	!	!	!LO:TX:a:t=Silva.	!	!	!	!	!	!	!	!
8F#\L 8d#	(16b\LL 16dd# 16ff#	mp	2.ryy	.	2.ryy	.	.	2.ryy	.	.	4B\	Ha!	f	2.ryy	.	.	2.ryy	.	.
.	16gg#\	.	.	.	.	.	.	.	.	.	.	.	.	.	.	.	.	.	.
8BB\J	16ff#\	.	.	.	.	.	.	.	.	.	.	.	.	.	.	.	.	.	.
.	16bb\JJ)	.	.	.	.	.	.	.	.	.	.	.	.	.	.	.	.	.	.
8F#\L 8c#	8a#X\L 8ee 8aa#X	.	.	.	.	.	.	.	.	.	4r	.	.	.	.	.	.	.	.
8BB\J	8cc#\J	.	.	.	.	.	.	.	.	.	.	.	.	.	.	.	.	.	.
8F#\L 8c#	(16ee\LL	.	.	.	.	.	.	.	.	.	4r	.	.	.	.	.	.	.	.
.	16ff#\J	.	.	.	.	.	.	.	.	.	.	.	.	.	.	.	.	.	.
8BB\J	8gg#\J)	.	.	.	.	.	.	.	.	.	.	.	.	.	.	.	.	.	.
=30	=30	=30	=30	=30	=30	=30	=30	=30	=30	=30	=30	=30	=30	=30	=30	=30	=30	=30	=30
8F#\L 8d#	8ff#\L	.	2.ryy	.	2.ryy	.	.	2.ryy	.	.	8r	.	.	2.ryy	.	.	2.ryy	.	.
8BB\J	(16a#X\L	.	.	.	.	.	.	.	.	.	16F#\	nie	.	.	.	.	.	.	.
.	16b\JJ)	.	.	.	.	.	.	.	.	.	16F#\	u-	.	.	.	.	.	.	.
8E\L 8c#	2e/ 2gn 2cc#	.	.	.	.	.	.	.	.	.	4Gn\	-mar-	.	.	.	.	.	.	.
8BB\J	.	.	.	.	.	.	.	.	.	.	.	.	.	.	.	.	.	.	.
8E\L 8c#	.	.	.	.	.	.	.	.	.	.	4E\	-ła!	.	.	.	.	.	.	.
8BB\J	.	.	.	.	.	.	.	.	.	.	.	.	.	.	.	.	.	.	.
=31	=31	=31	=31	=31	=31	=31	=31	=31	=31	=31	=31	=31	=31	=31	=31	=31	=31	=31	=31
8F#\L 8d#	(16b\LL 16dd# 16ff#	.	2.ryy	.	2.ryy	.	.	2.ryy	.	.	4r	.	.	2.ryy	.	.	2.ryy	.	.
.	16gg#\	.	.	.	.	.	.	.	.	.	.	.	.	.	.	.	.	.	.
8BB\J	16ff#\	.	.	.	.	.	.	.	.	.	.	.	.	.	.	.	.	.	.
.	16bb\JJ)	.	.	.	.	.	.	.	.	.	.	.	.	.	.	.	.	.	.
8F#\L 8d#	8ddd#\L	.	.	.	.	.	.	.	.	.	4F#\	Cios	.	.	.	.	.	.	.
8BB\J	8aa#X\J	.	.	.	.	.	.	.	.	.	.	.	.	.	.	.	.	.	.
8G#\L 8B 8d#	(16bb\LL	.	.	.	.	.	.	.	.	.	4G#X\	za	.	.	.	.	.	.	.
.	16ccc#\J	.	.	.	.	.	.	.	.	.	.	.	.	.	.	.	.	.	.
8GG#\J	8ddd#\J)	.	.	.	.	.	.	.	.	.	.	.	.	.	.	.	.	.	.
=32	=32	=32	=32	=32	=32	=32	=32	=32	=32	=32	=32	=32	=32	=32	=32	=32	=32	=32	=32
8A-X\L 8dn	8b-X\L 8ddn 8bb-X	.	2.ryy	.	2.ryy	.	.	2.ryy	.	.	(4.A#X\	sła-	.	2.ryy	.	.	2.ryy	.	.
8BB-X\J	(16ffn\L	.	.	.	.	.	.	.	.	.	.	.	.	.	.	.	.	.	.
.	16ggn\JJ)	.	.	.	.	.	.	.	.	.	.	.	.	.	.	.	.	.	.
8A-\L 8d	2b-^^\ 2dd 2bb-	.	.	.	.	.	.	.	.	.	.	.	.	.	.	.	.	.	.
8BB-\J	.	.	.	.	.	.	.	.	.	.	8Bn\)	.	.	.	.	.	.	.	.
8A-\L 8d	.	.	.	.	.	.	.	.	.	.	4B-X\	-by	.	.	.	.	.	.	.
8BB-\J	.	.	.	.	.	.	.	.	.	.	.	.	.	.	.	.	.	.	.
!!LO:LB:g=original	!	!	!	!	!	!	!	!	!	!	!	!	!	!	!	!	!	!	!
*kcancel	*kcancel	*	*kcancel	*	*kcancel	*	*	*kcancel	*	*	*kcancel	*	*	*kcancel	*	*	*kcancel	*	*
=33||	=33||	=33||	=33||	=33||	=33||	=33||	=33||	=33||	=33||	=33||	=33||	=33||	=33||	=33||	=33||	=33||	=33||	=33||	=33||
*k[b-e-a-d-]	*k[b-e-a-d-]	*	*k[b-e-a-d-]	*	*k[b-e-a-d-]	*	*	*k[b-e-a-d-]	*	*	*k[b-e-a-d-]	*	*	*yyk[b-e-a-d-]	*	*	*yyk[b-e-a-d-]	*	*
8G\L 8e-	(16ee-\LL 16gg 16bb-	.	2.ryy	.	2.ryy	.	.	2.ryy	.	.	4G\	jesz-	.	2.ryy	.	.	2.ryy	.	.
.	16ccc\	.	.	.	.	.	.	.	.	.	.	.	.	.	.	.	.	.	.
8E-\J	16bb-\	.	.	.	.	.	.	.	.	.	.	.	.	.	.	.	.	.	.
.	16ccc\JJ)	.	.	.	.	.	.	.	.	.	.	.	.	.	.	.	.	.	.
8G\L 8e-	(16bb-\LL	.	.	.	.	.	.	.	.	.	4E-\	-cze!	.	.	.	.	.	.	.
.	16eee-\)	.	.	.	.	.	.	.	.	.	.	.	.	.	.	.	.	.	.
8E-\J	(16eee-\	.	.	.	.	.	.	.	.	.	.	.	.	.	.	.	.	.	.
.	16bb-\JJ)	.	.	.	.	.	.	.	.	.	.	.	.	.	.	.	.	.	.
8G\L 8e-	4bb-\	.	.	.	.	.	.	.	.	.	8r	.	.	.	.	.	.	.	.
8E-\J	.	.	.	.	.	.	.	.	.	.	8B-\	Tem	.	.	.	.	.	.	.
=34	=34	=34	=34	=34	=34	=34	=34	=34	=34	=34	=34	=34	=34	=34	=34	=34	=34	=34	=34
8E-\L 8c-X	(16ee-\LL 16aa- 16ccc-X	.	2.ryy	.	2.ryy	.	.	2.ryy	.	.	4c-X\	le-	.	2.ryy	.	.	2.ryy	.	.
.	16ddd-X\	.	.	.	.	.	.	.	.	.	.	.	.	.	.	.	.	.	.
8AA-\J	16ccc-\	.	.	.	.	.	.	.	.	.	.	.	.	.	.	.	.	.	.
.	16ddd-\JJ)	.	.	.	.	.	.	.	.	.	.	.	.	.	.	.	.	.	.
8E-\L 8c-	(16ccc-\LL	.	.	.	.	.	.	.	.	.	4A-\	-piej!	.	.	.	.	.	.	.
.	16eee-\)	.	.	.	.	.	.	.	.	.	.	.	.	.	.	.	.	.	.
8AA-\J	(16eee-\	.	.	.	.	.	.	.	.	.	.	.	.	.	.	.	.	.	.
.	16aa-\JJ)	.	.	.	.	.	.	.	.	.	.	.	.	.	.	.	.	.	.
8E-\L 8c-	4aa-\	.	.	.	.	.	.	.	.	.	4r	.	.	.	.	.	.	.	.
8AA-\J	.	.	.	.	.	.	.	.	.	.	.	.	.	.	.	.	.	.	.
=35	=35	=35	=35	=35	=35	=35	=35	=35	=35	=35	=35	=35	=35	=35	=35	=35	=35	=35	=35
8A-\L 8dn	(16ff\LL	.	2.ryy	.	2.ryy	.	.	2.ryy	.	.	2B-\	Mar-	.	2.ryy	.	.	2.ryy	.	.
.	16gg\	.	.	.	.	.	.	.	.	.	.	.	.	.	.	.	.	.	.
8BB-\J	16bb-\	.	.	.	.	.	.	.	.	.	.	.	.	.	.	.	.	.	.
.	16gg\JJ)	.	.	.	.	.	.	.	.	.	.	.	.	.	.	.	.	.	.
8A-\L 8cn	(16ff\LL	.	.	.	.	.	.	.	.	.	.	.	.	.	.	.	.	.	.
.	16ccn\	.	.	.	.	.	.	.	.	.	.	.	.	.	.	.	.	.	.
8BB-\J	16ff\	.	.	.	.	.	.	.	.	.	.	.	.	.	.	.	.	.	.
.	16cc\JJ)	.	.	.	.	.	.	.	.	.	.	.	.	.	.	.	.	.	.
8A-\L 8d	(16aa-\LL	.	.	.	.	.	.	.	.	.	4B-\	-na	.	.	.	.	.	.	.
.	16gg\J	.	.	.	.	.	.	.	.	.	.	.	.	.	.	.	.	.	.
8BB-\J	8ff\J)	.	.	.	.	.	.	.	.	.	.	.	.	.	.	.	.	.	.
!!LO:PB:g=original	!	!	!	!	!	!	!	!	!	!	!	!	!	!	!	!	!	!	!
=36	=36	=36	=36	=36	=36	=36	=36	=36	=36	=36	=36	=36	=36	=36	=36	=36	=36	=36	=36
*	*	*	*	*	*	*	*	*^	*	*	*	*	*	*	*	*	*	*	*
8G\L 8e-	2ee-\	.	4r	.	4r	.	.	4r	4ryy	.	.	[2.e-\	zem-	.	2.ryy	.	.	2.ryy	.	.
8BB-\J	.	.	.	.	.	.	.	.	.	.	.	.	.	.	.	.	.	.	.	.
4EE-/	.	.	4r	.	4r	.	.	4r	4ryy	.	.	.	.	.	.	.	.	.	.	.
!	!	!	!	!LO:DY:a	!	!	!LO:DY:a	!	!	!	!LO:DY:a	!	!	!	!	!	!	!	!	!
*ped	*	*	*	*	*	*	*	*	*	*	*	*	*	*	*	*	*	*	*	*
4r	4e-/ 4ee-	p	4E-\	p	4e-\	Lecz	p	4e-/	4e-\	Lecz	p	.	.	.	.	.	.	.	.	.
*	*	*	*	*	*	*	*	*v	*v	*	*	*	*	*	*	*	*	*	*	*
=37	=37	=37	=37	=37	=37	=37	=37	=37	=37	=37	=37	=37	=37	=37	=37	=37	=37	=37	=37
*	*8va	*	*	*	*	*	*	*	*	*	*	*	*	*	*	*	*	*	*
*	*	*	*	*	*	*	*	*^	*	*	*	*	*	*	*	*	*	*	*
8AAA-/L 8AA-	4ee-/ 4ccc 4eee-	.	4AA-/ 4E-	.	4c\	We-	.	4cc/ 4ee-	4e-\	We-	.	2e-\]	.	.	2.ryy	.	.	2.ryy	.	.
8AA-/J 8E-	.	.	.	.	.	.	.	.	.	.	.	.	.	.	.	.	.	.	.	.
!	!LO:TX:b:i:t=dolce	!	!	!	!	!	!	!	!	!	!	!	!	!	!	!	!	!	!	!
8AA-\L 8E- 8G	4ff\ 4ddd- 4fff	.	4AA-/ 4E-	.	4G/	-nus,	.	4dd-/ 4ff	4e-\	-nus,	.	.	.	.	.	.	.	.	.	.
8E-\J 8G 8d-	.	.	.	.	.	.	.	.	.	.	.	.	.	.	.	.	.	.	.	.
4E-\ 4A- 4c	4ee-/ 4ccc 4eee-	.	4AA-/ 4E-	.	4A-/	co	.	4cc/ 4ee-	4e-\	co	.	4c\	-sta	.	.	.	.	.	.	.
=38	=38	=38	=38	=38	=38	=38	=38	=38	=38	=38	=38	=38	=38	=38	=38	=38	=38	=38	=38	=38
8AAA-/L 8AA-	4dd-/ 4ff 4aa- 4ddd-	.	4AA-\ 4A-	.	4d-\	z mor-	.	4dd-/	4f\ 4a-	z mor-	.	2A-\	jed-	.	2.ryy	.	.	2.ryy	.	.
8AA-/J 8D- 8F	.	.	.	.	.	.	.	.	.	.	.	.	.	.	.	.	.	.	.	.
*	*	*	*	*	*	*	*	*v	*v	*	*	*	*	*	*	*	*	*	*	*
*	*X8va	*	*	*	*	*	*	*	*	*	*	*	*	*	*	*	*	*	*
*	*	*	*	*	*	*	*	*^	*	*	*	*	*	*	*	*	*	*	*
!	!	!	!	!	!	!	!	!	!LO:TX:t=P:problem: 8d- oraz 4d- zapisane oddzielnie	!	!	!	!	!	!	!	!	!	!	!
8D-\L 8F 8A-	8f\L 8dd- 8ff	.	4AA-/ 4F	.	4A-/	-skiej	.	8d-/L 8f	4d-\	-skiej	.	.	.	.	.	.	.	.	.	.
8F\J 8A- 8d-	8g\J 8ee- 8gg	.	.	.	.	.	.	8e-/J 8g	.	.	.	.	.	.	.	.	.	.	.	.
4F\ 4A- 4d-	4a-\ 4ff 4aa-	.	4AA-/ 4F	.	4A-/	zro-	.	4f/ 4a-	4d-\	zro-	.	4d-\	-nej	.	.	.	.	.	.	.
=39	=39	=39	=39	=39	=39	=39	=39	=39	=39	=39	=39	=39	=39	=39	=39	=39	=39	=39	=39	=39
8AAA-/L 8AA-	4cc\ 4aa- 4ccc	.	4AA-/ 4E-	.	4G/	-dzi-	.	4a-/ 4cc	4d-\	-dzi-	.	(2d-\	chwi-	.	2.ryy	.	.	2.ryy	.	.
8AA-/J 8E-	.	.	.	.	.	.	.	.	.	.	.	.	.	.	.	.	.	.	.	.
8E-\L 8G	8b-\L 8gg 8bb-	.	4AA-/ 4E-	.	4B-\	-ła	.	(8g/L 8b-	4d-\	-ła	.	.	.	.	.	.	.	.	.	.
8E-\J 8G 8d-	8cc\J 8aa- 8ccc	.	.	.	.	.	.	8a-/J) 8cc	.	.	.	.	.	.	.	.	.	.	.	.
4E-\ 4G 4d-	8dd-\L 8bb- 8ddd-	.	4AA-/ 4E-	.	4B-\	się	.	(8b-/L 8dd-	4g\	się	.	4G\)	.	.	.	.	.	.	.	.
.	8ff\J 8ddd- 8fff	.	.	.	.	.	.	8dd-/J) 8ff	.	.	.	.	.	.	.	.	.	.	.	.
=40	=40	=40	=40	=40	=40	=40	=40	=40	=40	=40	=40	=40	=40	=40	=40	=40	=40	=40	=40	=40
8AAA-/L 8AA-	4ee-\ 4ccc 4eee-	.	4AA-/ 4E-	.	4c\	pia-	.	4cc/ 4ee-	4a-\	pia-	.	2A-\	-li	.	2.ryy	.	.	2.ryy	.	.
8AA-/J 8E-	.	.	.	.	.	.	.	.	.	.	.	.	.	.	.	.	.	.	.	.
!	!	!	!	!LO:HP:a	!	!	!LO:HP:a	!	!	!	!LO:HP:a	!	!	!	!	!	!	!	!	!
8C\L 8E- 8A-	4cc\ 4aa- 4ccc	<	4AA-/ 4E-	<	4c\	-ny	<	4a-/ 4cc	4e-\	-ny	<	.	.	.	.	.	.	.	.	.
8E-\J 8A- 8c	.	.	.	.	.	.	.	.	.	.	.	.	.	.	.	.	.	.	.	.
4E-\ 4A- 4c	4ee-\ 4ccc 4eee-	[	4A-\	[[	4c\	Pię-	[[	4cc/ 4ee-	4a-\	Pięk-	[	4r	.	.	.	.	.	.	.	.
*	*	*	*	*	*	*	*	*v	*v	*	*	*	*	*	*	*	*	*	*	*
=41	=41	=41	=41	=41	=41	=41	=41	=41	=41	=41	=41	=41	=41	=41	=41	=41	=41	=41	=41
*	*8va	*	*	*	*	*	*	*	*	*	*	*	*	*	*	*	*	*	*
*	*	*	*	*	*	*	*	*^	*	*	*	*	*	*	*	*	*	*	*
*	*	*	*	*	*	*	*	*	*^	*	*	*	*	*	*	*	*	*	*	*
!	!	!	!	!LO:DY:a	!	!	!	!	!	!	!	!	!	!	!	!	!	!	!	!	!
8FFF/L 8FF	4aa-\ 4ccc 4aaa-	mf	(2.F\	mf	(2.c\	-kniej-	mf	(4aa-/	(2.a-\	(<2.cc	-niej-	.	4r	.	.	2.ryy	.	.	2.ryy	.	.
8AA-/J 8C 8F	.	.	.	.	.	.	.	.	.	.	.	.	.	.	.	.	.	.	.	.	.
8C\L 8F 8A-	4gg\ 4ccc 4ggg	.	.	.	.	.	.	4gg/	.	.	.	.	4c\	Nad	.	.	.	.	.	.	.
8F\J 8A- 8c	.	.	.	.	.	.	.	.	.	.	.	.	.	.	.	.	.	.	.	.	.
4A-\ 4c 4f	4ff\ 4ccc 4fff	.	.	.	.	.	.	4ff/	.	.	.	.	4F\	nią	.	.	.	.	.	.	.
!!LO:LB:g=original	!	!	!	!	!	!	!	!	!	!	!	!	!	!	!	!	!	!	!	!	!
*	*	*	*	*	*	*	*	*	*v	*v	*	*	*	*	*	*	*	*	*	*	*
=42	=42	=42	=42	=42	=42	=42	=42	=42	=42	=42	=42	=42	=42	=42	=42	=42	=42	=42	=42	=42
*	*	*	*	*	*	*	*	*	*^	*	*	*	*	*	*	*	*	*	*	*
8BBB-\L 8BB-	8dd-/L 8ff 8aa- 8ddd-	.	4BB-/)	.	4d-\)	.	.	8dd-/L	8f\L	4a-/)	.	.	2.A-\	ja	.	2.ryy	.	.	2.ryy	.	.
8F\J 8A- 8d-	8ff/J 8fff	.	.	.	.	.	.	8ff/J)	8d-\J)	.	.	.	.	.	.	.	.	.	.	.	.
8CC\L 8C	4ee-/ 4aa- 4eee-	.	4C/	.	4c\	-szy	.	4a-/ 4ee-	4e-\	4ryy	-szy	.	.	.	.	.	.	.	.	.	.
8E-\J 8A- 8c	.	.	.	.	.	.	.	.	.	.	.	.	.	.	.	.	.	.	.	.	.
*	*	*	*	*	*	*	*	*v	*v	*v	*	*	*	*	*	*	*	*	*	*	*
*	*X8va	*	*	*	*	*	*	*	*	*	*	*	*	*	*	*	*	*	*
*	*	*	*	*	*	*	*	*^	*	*	*	*	*	*	*	*	*	*	*
*	*	*	*	*	*	*	*	*	*^	*	*	*	*	*	*	*	*	*	*	*
8FF\L 8F	4a-\ 4cc 4aa-	.	4F\	.	4c\	przy-	.	4a-/	4f\	4ryy	przy-	.	.	.	.	.	.	.	.	.	.
8A-\J 8c	.	.	.	.	.	.	.	.	.	.	.	.	.	.	.	.	.	.	.	.	.
*	*	*	*	*	*	*	*	*	*v	*v	*	*	*	*	*	*	*	*	*	*	*
=43	=43	=43	=43	=43	=43	=43	=43	=43	=43	=43	=43	=43	=43	=43	=43	=43	=43	=43	=43	=43
8GG\L 8G	4dd-\ 4bb- 4ddd-	.	4G\	.	4B-\	-nio-	.	4dd-/	4e-\	-nio-	.	4B-\	chmu-	.	2.ryy	.	.	2.ryy	.	.
8B-\J 8e-	.	.	.	.	.	.	.	.	.	.	.	.	.	.	.	.	.	.	.	.
8AA-\L 8A-	8cc\L 8aa- 8ccc	.	4A-\	.	4c\	-sła	.	(8cc/L	4e-\	-sła	.	4A-\	-ry	.	.	.	.	.	.	.
8c\J 8e-	8a-\J 8aa-	.	.	.	.	.	.	8a-/J)	.	.	.	.	.	.	.	.	.	.	.	.
8DDn\L 8Dn	4ff\ 4aa- 4fff	.	4Dn\	.	4B-\	nam	.	4ff/	4a-\	nam	.	4F\	gro-	.	.	.	.	.	.	.
8A-\J 8B- 8f	.	.	.	.	.	.	.	.	.	.	.	.	.	.	.	.	.	.	.	.
=44	=44	=44	=44	=44	=44	=44	=44	=44	=44	=44	=44	=44	=44	=44	=44	=44	=44	=44	=44	=44
!	!	!	!	!LO:HP:a	!	!	!LO:HP:a	!	!	!	!LO:HP:a	!	!	!	!	!	!	!	!	!
8EE-/L 8E-	2ee-\ 2gg 2eee-	>	2E-\	>	2B-\	dar.	>	2ee-/	2g\	dar.	>	4G\	-ma-	.	2.ryy	.	.	2.ryy	.	.
8E-/J 8G	.	.	.	.	.	.	.	.	.	.	.	.	.	.	.	.	.	.	.	.
8G\L 8B-	.	.	.	.	.	.	.	.	.	.	.	4E-\	-dzę	.	.	.	.	.	.	.
8G\J 8B- 8e-	.	.	.	.	.	.	.	.	.	.	.	.	.	.	.	.	.	.	.	.
!	!	!	!	!LO:DY:a	!	!	!LO:DY:a	!	!	!	!LO:DY:a	!	!	!	!	!	!	!	!	!
4G\ 4B- 4e-	4b-\ 4bb-	] p	4E-\	] p	4G/	Bo	] p	4b-/	4e-\	Bo	] p	4B-\	zło-	.	.	.	.	.	.	.
=45	=45	=45	=45	=45	=45	=45	=45	=45	=45	=45	=45	=45	=45	=45	=45	=45	=45	=45	=45	=45
8EE-/L 8E-	4dd-\ 4ff-X 4ddd-	.	4E-\	.	4G/	zie-	.	4dd-/	4f-X\	zie-	.	4B-\	-wiesz-	.	2.ryy	.	.	2.ryy	.	.
8E-/J 8G	.	.	.	.	.	.	.	.	.	.	.	.	.	.	.	.	.	.	.	.
8G\L 8B-	8cc\L 8ee- 8ccc	.	4E-\	.	4G/	-mię	.	(8cc/L	(8e-\L	-mię	.	4E-\	-cze.	.	.	.	.	.	.	.
8G\J 8d-	8b-\J 8dd- 8bb-	.	.	.	.	.	.	8b-/J)	8d-\J)	.	.	.	.	.	.	.	.	.	.	.
4E-\ 4G 4d-	4ff-X\ 4fff-X	.	4E-\	.	4d-\	zmie-	.	4ff-X/	4g\	zmie-	.	4r	.	.	.	.	.	.	.	.
=46	=46	=46	=46	=46	=46	=46	=46	=46	=46	=46	=46	=46	=46	=46	=46	=46	=46	=46	=46	=46
*	*^	*	*	*	*	*	*	*	*	*	*	*	*	*	*	*	*	*	*	*
8AAA-/L 8AA-	8ee-\L 8eee-	4ryy	.	4A-\	.	4c\	-ni-	.	(8ee-/L	4a-\	-ni-	.	2.r	.	.	2.ryy	.	.	2.ryy	.	.
8C/J 8E- 8A-	8cc\J 8ccc	.	.	.	.	.	.	.	8cc/J)	.	.	.	.	.	.	.	.	.	.	.	.
8E-\L 8A- 8c	4a-\ 4aa-	4ryy	.	4A-\	.	4c\	-ła	.	4a-/	4e-\	-ła	.	.	.	.	.	.	.	.	.	.
8A-\J 8c 8e-	.	.	.	.	.	.	.	.	.	.	.	.	.	.	.	.	.	.	.	.	.
4A-\ 4c 4e-	4eee-/	8ee-\L	.	4A-\	.	4c\	w raj	.	4ee-/	(>8e-\L	w raj	.	.	.	.	.	.	.	.	.	.
.	.	8ff\J	.	.	.	.	.	.	.	8f\J)	.	.	.	.	.	.	.	.	.	.	.
*	*v	*v	*	*	*	*	*	*	*	*	*	*	*	*	*	*	*	*	*	*	*
!!LO:LB:g=original	!	!	!	!	!	!	!	!	!	!	!	!	!	!	!	!	!	!	!	!
=47	=47	=47	=47	=47	=47	=47	=47	=47	=47	=47	=47	=47	=47	=47	=47	=47	=47	=47	=47	=47
8AA-\L	4ee-\ 4gg-X 4eee-	.	4A-\	.	4c\	szczęś-	.	4ee-/	4g-X\	szczęś-	.	2.r	.	.	2.ryy	.	.	2.ryy	.	.
8G-X\J 8c	.	<	.	.	.	.	.	.	.	.	.	.	.	.	.	.	.	.	.	.
!	!	!	!	!LO:HP:a	!	!	!LO:HP:a	!	!	!	!LO:HP:a	!	!	!	!	!	!	!	!	!
8BB-\L	8dd-\L 8ddd-	.	4B-\	<	4d-\	-ciem	<	(<8dd-/L	4g-\	-ciem	<	.	.	.	.	.	.	.	.	.
8G-\J 8d-	8cc\J 8ccc	[	.	.	.	.	.	8cc/J)	.	.	[	.	.	.	.	.	.	.	.	.
8C\L	4gg-X\ 4ggg-X	.	4c\	[	4e-\	o-	[	4gg-X/	4a-\	o-	.	.	.	.	.	.	.	.	.	.
8G-\J 8A- 8e-	.	.	.	.	.	.	.	.	.	.	.	.	.	.	.	.	.	.	.	.
=48	=48	=48	=48	=48	=48	=48	=48	=48	=48	=48	=48	=48	=48	=48	=48	=48	=48	=48	=48	=48
!	!	!	!	!LO:DY:a	!	!	!LO:DY:a	!	!	!	!LO:DY:a	!	!	!	!	!	!	!	!	!
8DD-/L 8D-	8gg-X\L 8ggg-X	mf	4d-\	mf	4f\	-wia-	mf	(8gg-X/L	4a-\	-wia-	mf	2.r	.	.	2.ryy	.	.	2.ryy	.	.
8D-/J 8F 8A-	8ff\J 8fff	.	.	.	.	.	.	8ff/J)	.	.	.	.	.	.	.	.	.	.	.	.
4F\ 4A- 4d-	4dd-\ 4ddd-	.	4d-\	.	4f\	-ny	.	4dd-/	4a-\	-ny	.	.	.	.	.	.	.	.	.	.
4r	8dd-\L 8ddd-	.	4F\	.	4d-\	Mi-	.	8dd-/L	4a-\	Mi-	.	.	.	.	.	.	.	.	.	.
.	8ee-\J 8eee-	.	.	.	.	.	.	8ee-/J	.	.	.	.	.	.	.	.	.	.	.	.
=49	=49	=49	=49	=49	=49	=49	=49	=49	=49	=49	=49	=49	=49	=49	=49	=49	=49	=49	=49	=49
8EE-/L 8E-	4ff-X\ 4fff-X	.	2E-\	.	2d-\	-łoś-	.	(4ff-X/	2g\	-łoś-	.	2.r	.	.	2.ryy	.	.	2.ryy	.	.
8E-/J 8B-	.	.	.	.	.	.	.	.	.	.	.	.	.	.	.	.	.	.	.	.
4E-\ 4B- 4d-	4g\ 4gg	.	.	.	.	.	.	4g/)	.	.	.	.	.	.	.	.	.	.	.	.
4BBB-/ 4BB-	8dd-\L 8aa- 8ddd-	.	4BB-/	.	4d-\	-ci	.	(8dd-/L	4a-\	-ci	.	.	.	.	.	.	.	.	.	.
.	8ee-\J 8eee-	.	.	.	.	.	.	8ee-/J)	.	.	.	.	.	.	.	.	.	.	.	.
=50	=50	=50	=50	=50	=50	=50	=50	=50	=50	=50	=50	=50	=50	=50	=50	=50	=50	=50	=50	=50
8EE-/L 8E-	4ffn\ 4fffn	.	4E-\	.	4d-\	da-	.	4ffn/	4g\	da-	.	2.r	.	.	2.ryy	.	.	2.ryy	.	.
8E-/J 8G	.	.	.	.	.	.	.	.	.	.	.	.	.	.	.	.	.	.	.	.
4E-\ 4G 4d-	4g\ 4gg	.	4E-\	.	4d-\	-ła	.	4g/	4e-\	-ła	.	.	.	.	.	.	.	.	.	.
4EE-/ 4E-	8dd-\L 8gg 8ddd-	.	4E-\	.	4B-\	nam	.	(8dd-/L	4g\	nam	.	.	.	.	.	.	.	.	.	.
.	8cc\J 8ccc	.	.	.	.	.	.	8cc/J)	.	.	.	.	.	.	.	.	.	.	.	.
=51	=51	=51	=51	=51	=51	=51	=51	=51	=51	=51	=51	=51	=51	=51	=51	=51	=51	=51	=51	=51
!LO:TX:t=P:problem:mixed beam	!	!	!	!	!	!	!	!	!	!	!	!	!	!	!	!	!	!	!	!
8AAA-/L 8AA-	4a-\ 4cc 4aa-	.	[2.A-\	.	(4c\	czar.	.	(4a-/	[2.e-\	czar.	.	2.r	.	.	2.ryy	.	.	2.ryy	.	.
8A-\J 8c 8e-	.	.	.	.	.	.	.	.	.	.	.	.	.	.	.	.	.	.	.	.
8A-\L 8d- 8e-	2ee-\ 2gg 2eee-	>]	.	.	2d-\	.	.	2ee-/	.	.	.	.	.	.	.	.	.	.	.	.
8A-\J 8d- 8e- 8g	.	.	.	.	.	.	.	.	.	.	.	.	.	.	.	.	.	.	.	.
4A-\ 4d- 4e-	.	.	.	.	.	.	.	.	.	.	.	.	.	.	.	.	.	.	.	.
=52	=52	=52	=52	=52	=52	=52	=52	=52	=52	=52	=52	=52	=52	=52	=52	=52	=52	=52	=52	=52
!LO:TX:t=P:problem:mixed beam	!	!	!	!	!	!	!	!	!	!	!	!	!	!	!	!	!	!	!	!
8AAA-/L 8AA-	2a-\ 2cc 2aa-	p	2A-\]	.	2c\)	.	.	2a-/)	2e-\]	.	.	4r	.	.	2.ryy	.	.	2.ryy	.	.
8E-\J 8A- 8c	.	.	.	.	.	.	.	.	.	.	.	.	.	.	.	.	.	.	.	.
8A-\L 8c 8e-	.	.	.	.	.	.	.	.	.	.	.	4r	.	.	.	.	.	.	.	.
8A-\J 8c 8f	.	.	.	.	.	.	.	.	.	.	.	.	.	.	.	.	.	.	.	.
4A-\ 4c 4f	4r	.	4r	.	4r	.	.	4r	4ryy	.	.	4E-\	Niech	.	.	.	.	.	.	.
*	*	*	*	*	*	*	*	*v	*v	*	*	*	*	*	*	*	*	*	*	*
!!LO:PB:g=original	!	!	!	!	!	!	!	!	!	!	!	!	!	!	!	!	!	!	!
=53	=53	=53	=53	=53	=53	=53	=53	=53	=53	=53	=53	=53	=53	=53	=53	=53	=53	=53	=53
8E-\L 8d-	(16g\LL 16dd- 16ee-	.	2.ryy	.	2.ryy	.	.	2.ryy	.	.	2B-\	kie-	.	2.ryy	.	.	2.ryy	.	.
.	16ff\	.	.	.	.	.	.	.	.	.	.	.	.	.	.	.	.	.	.
8AA-\J	16ee-\	.	.	.	.	.	.	.	.	.	.	.	.	.	.	.	.	.	.
.	16ccc\JJ)	.	.	.	.	.	.	.	.	.	.	.	.	.	.	.	.	.	.
8E-\L 8d-	8bb-\L	.	.	.	.	.	.	.	.	.	.	.	.	.	.	.	.	.	.
8AA-\J	8dd-\J	.	.	.	.	.	.	.	.	.	.	.	.	.	.	.	.	.	.
8E-\L 8d-	16ee-\LL	.	.	.	.	.	.	.	.	.	4B-\	-lich	.	.	.	.	.	.	.
.	(16ff\J	.	.	.	.	.	.	.	.	.	.	.	.	.	.	.	.	.	.
8AA-\J	8gg\J)	.	.	.	.	.	.	.	.	.	.	.	.	.	.	.	.	.	.
=54	=54	=54	=54	=54	=54	=54	=54	=54	=54	=54	=54	=54	=54	=54	=54	=54	=54	=54	=54
8E-\L 8c	8a-\L 8cc 8aa-	.	2.ryy	.	2.ryy	.	.	2.ryy	.	.	(8A-\L	cier-	.	2.ryy	.	.	2.ryy	.	.
8AA-\J	(16cc\L	.	.	.	.	.	.	.	.	.	8E-\J)	.	.	.	.	.	.	.	.
.	16dd-\JJ	.	.	.	.	.	.	.	.	.	.	.	.	.	.	.	.	.	.
8E-\L 8c	2ee-\)	.	.	.	.	.	.	.	.	.	4C/	-pień	.	.	.	.	.	.	.
8AA-\J	.	.	.	.	.	.	.	.	.	.	.	.	.	.	.	.	.	.	.
8E-\L 8c	.	.	.	.	.	.	.	.	.	.	8C/	aż	.	.	.	.	.	.	.
8AA-\J	.	.	.	.	.	.	.	.	.	.	8D-\	do	.	.	.	.	.	.	.
=55	=55	=55	=55	=55	=55	=55	=55	=55	=55	=55	=55	=55	=55	=55	=55	=55	=55	=55	=55
8E-\L 8c	(16a-\LL 16cc 16ff	.	2.ryy	.	2.ryy	.	.	2.ryy	.	.	2E-\	dna	.	2.ryy	.	.	2.ryy	.	.
.	16gg\	.	.	.	.	.	.	.	.	.	.	.	.	.	.	.	.	.	.
8AA-\J	16aa-\	.	.	.	.	.	.	.	.	.	.	.	.	.	.	.	.	.	.
.	16eee-\JJ)	.	.	.	.	.	.	.	.	.	.	.	.	.	.	.	.	.	.
8E-\L 8B-	8ddd-\L	.	.	.	.	.	.	.	.	.	.	.	.	.	.	.	.	.	.
8AA-\J	8ff\J	.	.	.	.	.	.	.	.	.	.	.	.	.	.	.	.	.	.
8E-\L 8B-	(16gg\LL	.	.	.	.	.	.	.	.	.	4E-\	wy-	.	.	.	.	.	.	.
.	16aa-\J	.	.	.	.	.	.	.	.	.	.	.	.	.	.	.	.	.	.
8AA-\J	8bb-\J)	.	.	.	.	.	.	.	.	.	.	.	.	.	.	.	.	.	.
=56	=56	=56	=56	=56	=56	=56	=56	=56	=56	=56	=56	=56	=56	=56	=56	=56	=56	=56	=56
8E-\L 8c	(8ccc\L	.	2.ryy	.	2.ryy	.	.	2.ryy	.	.	2.C/	-chy-	.	2.ryy	.	.	2.ryy	.	.
8AA-\J	16bb-\L	.	.	.	.	.	.	.	.	.	.	.	.	.	.	.	.	.	.
.	16aa-\JJ)	<	.	.	.	.	.	.	.	.	.	.	.	.	.	.	.	.	.
8E-\L 8c	4.eee-\	.	.	.	.	.	.	.	.	.	.	.	.	.	.	.	.	.	.
8AA-\J	.	.	.	.	.	.	.	.	.	.	.	.	.	.	.	.	.	.	.
8G-X\L 8c	.	.	.	.	.	.	.	.	.	.	.	.	.	.	.	.	.	.	.
8AA-\J	8ee-\	[	.	.	.	.	.	.	.	.	.	.	.	.	.	.	.	.	.
*kcancel	*kcancel	*	*kcancel	*	*kcancel	*	*	*kcancel	*	*	*kcancel	*	*	*kcancel	*	*	*kcancel	*	*
=57||	=57||	=57||	=57||	=57||	=57||	=57||	=57||	=57||	=57||	=57||	=57||	=57||	=57||	=57||	=57||	=57||	=57||	=57||	=57||
*k[f#c#g#d#]	*k[f#c#g#d#]	*	*k[f#c#g#d#]	*	*k[f#c#g#d#]	*	*	*k[f#c#g#d#]	*	*	*k[f#c#g#d#]	*	*	*yyk[f#c#g#d#]	*	*	*yyk[f#c#g#d#]	*	*
8G#\L 8e	(16g#\LL 16ee	mf	2.ryy	.	2.ryy	.	.	2.ryy	.	.	2AA-X/	-li	.	2.ryy	.	.	2.ryy	.	.
.	16ff#\	.	.	.	.	.	.	.	.	.	.	.	.	.	.	.	.	.	.
8C#\J	16ee\	.	.	.	.	.	.	.	.	.	.	.	.	.	.	.	.	.	.
.	16ff#\JJ)	.	.	.	.	.	.	.	.	.	.	.	.	.	.	.	.	.	.
8G#\L 8e	(16ee\LL	.	.	.	.	.	.	.	.	.	.	.	.	.	.	.	.	.	.
.	16gg#\)	.	.	.	.	.	.	.	.	.	.	.	.	.	.	.	.	.	.
8C#\J	(16gg#\	.	.	.	.	.	.	.	.	.	.	.	.	.	.	.	.	.	.
.	16cc#\JJ)	.	.	.	.	.	.	.	.	.	.	.	.	.	.	.	.	.	.
8G#\L 8e	4cc#^^\	.	.	.	.	.	.	.	.	.	4r	.	.	.	.	.	.	.	.
8C#\J	.	.	.	.	.	.	.	.	.	.	.	.	.	.	.	.	.	.	.
!!LO:LB:g=original	!	!	!	!	!	!	!	!	!	!	!	!	!	!	!	!	!	!	!
=58	=58	=58	=58	=58	=58	=58	=58	=58	=58	=58	=58	=58	=58	=58	=58	=58	=58	=58	=58
8G#\L 8A#X 8e	(16g#\LL 16ee	.	2.r	.	2.r	.	.	2.r	.	.	2.ryy	.	.	2.ryy	.	.	2.ryy	.	.
.	16ff#\	.	.	.	.	.	.	.	.	.	.	.	.	.	.	.	.	.	.
8FF#\J	16ee\	.	.	.	.	.	.	.	.	.	.	.	.	.	.	.	.	.	.
.	16ff#\JJ)	.	.	.	.	.	.	.	.	.	.	.	.	.	.	.	.	.	.
8G#\L 8A# 8e	(16ee\LL	.	.	.	.	.	.	.	.	.	.	.	.	.	.	.	.	.	.
.	16gg#\)	.	.	.	.	.	.	.	.	.	.	.	.	.	.	.	.	.	.
8FF#\J	(16gg#\	.	.	.	.	.	.	.	.	.	.	.	.	.	.	.	.	.	.
.	16a#X\JJ)	.	.	.	.	.	.	.	.	.	.	.	.	.	.	.	.	.	.
8F#\L 8c#	4e^^/ 4a#	.	.	.	.	.	.	.	.	.	.	.	.	.	.	.	.	.	.
8FF#\J	.	.	.	.	.	.	.	.	.	.	.	.	.	.	.	.	.	.	.
=59	=59	=59	=59	=59	=59	=59	=59	=59	=59	=59	=59	=59	=59	=59	=59	=59	=59	=59	=59
*	*^	*	*	*	*	*	*	*	*	*	*	*	*	*	*	*	*	*	*
8A\L 8B	4d#\ 4a	(16bn/LL	.	2.r	.	2.r	.	.	2.r	.	.	2.ryy	.	.	2.ryy	.	.	2.ryy	.	.
.	.	16cc#/	.	.	.	.	.	.	.	.	.	.	.	.	.	.	.	.	.	.
8BB\J	.	16b/	.	.	.	.	.	.	.	.	.	.	.	.	.	.	.	.	.	.
.	.	16cc#/JJ	.	.	.	.	.	.	.	.	.	.	.	.	.	.	.	.	.	.
8F#\L 8B	4ryy	16ee\LL	.	.	.	.	.	.	.	.	.	.	.	.	.	.	.	.	.	.
.	.	16dd#\	.	.	.	.	.	.	.	.	.	.	.	.	.	.	.	.	.	.
8BB\J	.	16b\	<	.	.	.	.	.	.	.	.	.	.	.	.	.	.	.	.	.
.	.	16cc#\JJ	.	.	.	.	.	.	.	.	.	.	.	.	.	.	.	.	.	.
8F#\L 8A 8B	4ryy	16dd#\LL	.	.	.	.	.	.	.	.	.	.	.	.	.	.	.	.	.	.
.	.	16ee\	.	.	.	.	.	.	.	.	.	.	.	.	.	.	.	.	.	.
8BB\J	.	16dd#\	.	.	.	.	.	.	.	.	.	.	.	.	.	.	.	.	.	.
.	.	16ee\JJ)	.	.	.	.	.	.	.	.	.	.	.	.	.	.	.	.	.	.
*	*v	*v	*	*	*	*	*	*	*	*	*	*	*	*	*	*	*	*	*	*
=60	=60	=60	=60	=60	=60	=60	=60	=60	=60	=60	=60	=60	=60	=60	=60	=60	=60	=60	=60
*	*	*	*	*	*	*	*	*^	*	*	*	*	*	*	*	*	*	*	*
8F#\L 8A 8B	(16gg#\LL	.	4r	.	4r	.	.	4r	4ryy	.	.	2.ryy	.	.	2.ryy	.	.	2.ryy	.	.
.	16ff#\	.	.	.	.	.	.	.	.	.	.	.	.	.	.	.	.	.	.	.
8BB\J	16dd#\	.	.	.	.	.	.	.	.	.	.	.	.	.	.	.	.	.	.	.
.	16ee\JJ	.	.	.	.	.	.	.	.	.	.	.	.	.	.	.	.	.	.	.
8F#\L 8A 8B	16ff#\LL	.	4r	.	4r	.	.	4r	4ryy	.	.	.	.	.	.	.	.	.	.	.
.	16gg#\	.	.	.	.	.	.	.	.	.	.	.	.	.	.	.	.	.	.	.
8BB\J	16aa\	.	.	.	.	.	.	.	.	.	.	.	.	.	.	.	.	.	.	.
.	16ccc#\JJ	.	.	.	.	.	.	.	.	.	.	.	.	.	.	.	.	.	.	.
!	!	!	!	!LO:DY:a	!	!	!LO:DY:a	!	!	!	!LO:DY:a	!	!	!	!	!	!	!	!	!
8F#\L 8A	16bb\LL	.	4B\	f	4B\	By	f	4b/	4b\	By	f	.	.	.	.	.	.	.	.	.
.	16ff#\	.	.	.	.	.	.	.	.	.	.	.	.	.	.	.	.	.	.	.
8BB\J	16gg#\	.	.	.	.	.	.	.	.	.	.	.	.	.	.	.	.	.	.	.
.	16aa\JJ)	.	.	.	.	.	.	.	.	.	.	.	.	.	.	.	.	.	.	.
=61	=61	=61	=61	=61	=61	=61	=61	=61	=61	=61	=61	=61	=61	=61	=61	=61	=61	=61	=61	=61
8BB/L 8G#	(16ee\LL 16gg# 16bb	f	4E\	.	4B\	wdzię-	.	4ee/	4g#\	wdzię-	.	2.ryy	.	.	2.ryy	.	.	2.ryy	.	.
.	16ccc#\	.	.	.	.	.	.	.	.	.	.	.	.	.	.	.	.	.	.	.
8EE/J	16bb\	.	.	.	.	.	.	.	.	.	.	.	.	.	.	.	.	.	.	.
.	16gg#\JJ)	.	.	.	.	.	.	.	.	.	.	.	.	.	.	.	.	.	.	.
8C#/L 8A	8a\L 8cc# 8aa	.	4E\	.	4c#\	-kiem	.	8dd#/L	4a\	-kiem	.	.	.	.	.	.	.	.	.	.
8EE/J	8cc#\J	.	.	.	.	.	.	8cc#/J	.	.	.	.	.	.	.	.	.	.	.	.
8BB/L 8A	(16a\LL 16dd#	.	4E\	.	4d#\	o-	.	4a/	4b\	o-	.	.	.	.	.	.	.	.	.	.
.	16ee\J	.	.	.	.	.	.	.	.	.	.	.	.	.	.	.	.	.	.	.
8EE/J	8ff#\J)	.	.	.	.	.	.	.	.	.	.	.	.	.	.	.	.	.	.	.
=62	=62	=62	=62	=62	=62	=62	=62	=62	=62	=62	=62	=62	=62	=62	=62	=62	=62	=62	=62	=62
8C#/L 8G#	8e/L 8g# 8ee	.	4E\	.	4e\	-to-	.	(8cc#/L	4g#\	-to-	.	2.ryy	.	.	2.ryy	.	.	2.ryy	.	.
8EE/J	(16g#/L	.	.	.	.	.	.	8dd#/J)	.	.	.	.	.	.	.	.	.	.	.	.
.	16a/JJ)	.	.	.	.	.	.	.	.	.	.	.	.	.	.	.	.	.	.	.
8BB/L 8F#	4d#/ 4f# 4b	.	4E\	.	(8d#\L	-czyć	.	4b/	4f#\	-czyć	.	.	.	.	.	.	.	.	.	.
8EE/J	.	.	.	.	8c#\J)	.	.	.	.	.	.	.	.	.	.	.	.	.	.	.
8BB/L 8F#	4d#/ 4a 4b	.	4E\	.	4B\	to	.	4b/	4a\	to	.	.	.	.	.	.	.	.	.	.
8EE/J	.	.	.	.	.	.	.	.	.	.	.	.	.	.	.	.	.	.	.	.
!!LO:LB:g=original	!	!	!	!	!	!	!	!	!	!	!	!	!	!	!	!	!	!	!	!
=63	=63	=63	=63	=63	=63	=63	=63	=63	=63	=63	=63	=63	=63	=63	=63	=63	=63	=63	=63	=63
8BB/L 8G#	(16e\LL 16g# 16cc#	.	4E\	.	(8c#\L	ziem-	.	4ee/	4g#\	ziem-	.	2.ryy	.	.	2.ryy	.	.	2.ryy	.	.
.	16dd#\	.	.	.	.	.	.	.	.	.	.	.	.	.	.	.	.	.	.	.
8EE/J	16ee\	.	.	.	8d#\J)	.	.	.	.	.	.	.	.	.	.	.	.	.	.	.
.	16gg#\JJ)	.	.	.	.	.	.	.	.	.	.	.	.	.	.	.	.	.	.	.
8BB/L 8G#	8b\L 8gg# 8bb	.	4E\	.	4B\	-skie	.	(8dd#/L	4g#\	-skie	.	.	.	.	.	.	.	.	.	.
8EE/J	(16cc#\L	.	.	.	.	.	.	8cc#/J)	.	.	.	.	.	.	.	.	.	.	.	.
.	16ee\JJ)	.	.	.	.	.	.	.	.	.	.	.	.	.	.	.	.	.	.	.
8BB/L 8G#	(16g#\LL 16b 16gg#	.	4E\	.	4B\	ist-	.	(8dd#/L	4g#\	ist-	.	.	.	.	.	.	.	.	.	.
.	16ff#\J	.	.	.	.	.	.	.	.	.	.	.	.	.	.	.	.	.	.	.
8EE/J	8ee\J)	.	.	.	.	.	.	8ee/J)	.	.	.	.	.	.	.	.	.	.	.	.
=64	=64	=64	=64	=64	=64	=64	=64	=64	=64	=64	=64	=64	=64	=64	=64	=64	=64	=64	=64	=64
8BB/L 8A	4d#/ 4a 4dd#	.	4E\	.	4d#\	-nie-	.	4ff#/	4a\	-nie-	.	2.ryy	.	.	2.ryy	.	.	2.ryy	.	.
8EE/J	.	.	.	.	.	.	.	.	.	.	.	.	.	.	.	.	.	.	.	.
8BB/L 8A	2a^^\ 2dd# 2aa	.	4E\	.	(8d#\L	-nie	.	4b/	4a\	-nie	.	.	.	.	.	.	.	.	.	.
8EE/J	.	.	.	.	8c#\J)	.	.	.	.	.	.	.	.	.	.	.	.	.	.	.
8BB/L 8A	.	.	4E\	.	4d#\	Po-	.	4b/	4a\	Po-	.	.	.	.	.	.	.	.	.	.
8EE/J	.	.	.	.	.	.	.	.	.	.	.	.	.	.	.	.	.	.	.	.
=65	=65	=65	=65	=65	=65	=65	=65	=65	=65	=65	=65	=65	=65	=65	=65	=65	=65	=65	=65	=65
8BB/L 8G#	(16b\LL 16ee 16gg#	.	2E\ 2B	.	2e\	-tęż-	.	2gg#/	2g#\	-tęż-	.	2.ryy	.	.	2.ryy	.	.	2.ryy	.	.
.	16aa\	.	.	.	.	.	.	.	.	.	.	.	.	.	.	.	.	.	.	.
8EE/J	16bb\	.	.	.	.	.	.	.	.	.	.	.	.	.	.	.	.	.	.	.
.	16ccc#\JJ)	.	.	.	.	.	.	.	.	.	.	.	.	.	.	.	.	.	.	.
8BB/L 8G#	(16ee\LL 16gg# 16bb	.	.	.	.	.	.	.	.	.	.	.	.	.	.	.	.	.	.	.
.	16eee\)	.	.	.	.	.	.	.	.	.	.	.	.	.	.	.	.	.	.	.
8EE/J	(16eee\	.	.	.	.	.	.	.	.	.	.	.	.	.	.	.	.	.	.	.
.	16bb\JJ)	.	.	.	.	.	.	.	.	.	.	.	.	.	.	.	.	.	.	.
8BB/L 8G#	4b\ 4gg# 4bb	.	4E\ 4B	.	4e\	-ny	.	8cc#/L	4g#\	-ny	.	.	.	.	.	.	.	.	.	.
8EE/J	.	.	.	.	.	.	.	8dd#/J	.	.	.	.	.	.	.	.	.	.	.	.
=66	=66	=66	=66	=66	=66	=66	=66	=66	=66	=66	=66	=66	=66	=66	=66	=66	=66	=66	=66	=66
8C#/L 8A	(16cc#\LL 16ee 16aa	.	2E\ 2c#	.	2e\	z De-	.	(4ff#/	2a\	z De-	.	2.ryy	.	.	2.ryy	.	.	2.ryy	.	.
.	16bb\	.	.	.	.	.	.	.	.	.	.	.	.	.	.	.	.	.	.	.
8EE/J	16aa\	.	.	.	.	.	.	.	.	.	.	.	.	.	.	.	.	.	.	.
.	16bb\JJ)	.	.	.	.	.	.	.	.	.	.	.	.	.	.	.	.	.	.	.
8C#/L 8A	(16ee\LL 16aa	.	.	.	.	.	.	4ee/)	.	.	.	.	.	.	.	.	.	.	.	.
.	16eee\)	.	.	.	.	.	.	.	.	.	.	.	.	.	.	.	.	.	.	.
8EE/J	(16eee\	.	.	.	.	.	.	.	.	.	.	.	.	.	.	.	.	.	.	.
.	16aa\JJ)	.	.	.	.	.	.	.	.	.	.	.	.	.	.	.	.	.	.	.
8C#/L 8A	4cc#\ 4ee 4aa	.	4E\ 4c#	.	4e\	-los	.	4cc#/	4a\	-los	.	.	.	.	.	.	.	.	.	.
8EE/J	.	.	.	.	.	.	.	.	.	.	.	.	.	.	.	.	.	.	.	.
=67	=67	=67	=67	=67	=67	=67	=67	=67	=67	=67	=67	=67	=67	=67	=67	=67	=67	=67	=67	=67
8BB/L 8F#	(16a\LL 16b 16ff#	.	[2.E\ [2.B	.	(2.d#\	pan,	.	(2.ff#/	(2.a\	pan,	.	2.ryy	.	.	2.ryy	.	.	2.ryy	.	.
.	16gg#\	.	.	.	.	.	.	.	.	.	.	.	.	.	.	.	.	.	.	.
8EE/J	16bb\	.	.	.	.	.	.	.	.	.	.	.	.	.	.	.	.	.	.	.
.	16gg#\JJ	.	.	.	.	.	.	.	.	.	.	.	.	.	.	.	.	.	.	.
8BB/L 8F#	16ff#\LL	.	.	.	.	.	.	.	.	.	.	.	.	.	.	.	.	.	.	.
.	16gg#\	.	.	.	.	.	.	.	.	.	.	.	.	.	.	.	.	.	.	.
8EE/J	16ff#\	.	.	.	.	.	.	.	.	.	.	.	.	.	.	.	.	.	.	.
.	16dd#\JJ)	.	.	.	.	.	.	.	.	.	.	.	.	.	.	.	.	.	.	.
8BB/L 8F#	(16a\LL 16b	.	.	.	.	.	.	.	.	.	.	.	.	.	.	.	.	.	.	.
.	16cc#\J	.	.	.	.	.	.	.	.	.	.	.	.	.	.	.	.	.	.	.
8EE/J	8dd#\J)	.	.	.	.	.	.	.	.	.	.	.	.	.	.	.	.	.	.	.
!!LO:LB:g=original	!	!	!	!	!	!	!	!	!	!	!	!	!	!	!	!	!	!	!	!
=68	=68	=68	=68	=68	=68	=68	=68	=68	=68	=68	=68	=68	=68	=68	=68	=68	=68	=68	=68	=68
8BB/L 8G#	(16g#\LL 16b 16ee	.	2E\] 2B]	.	2e\)	.	.	2b/)	2g#\)	.	.	2.ryy	.	.	2.ryy	.	.	2.ryy	.	.
.	16dd#\	.	.	.	.	.	.	.	.	.	.	.	.	.	.	.	.	.	.	.
8EE/J	16ee\	.	.	.	.	.	.	.	.	.	.	.	.	.	.	.	.	.	.	.
.	16ff#\JJ)	.	.	.	.	.	.	.	.	.	.	.	.	.	.	.	.	.	.	.
8BB/L 8G#	4gg#\	.	.	.	.	.	.	.	.	.	.	.	.	.	.	.	.	.	.	.
8EE/J	.	.	.	.	.	.	.	.	.	.	.	.	.	.	.	.	.	.	.	.
8E\L 8B	(16b\LL	.	4G#\	.	4e\	Dał	.	4ee/	4b\	Dał	.	.	.	.	.	.	.	.	.	.
.	16cc#\	.	.	.	.	.	.	.	.	.	.	.	.	.	.	.	.	.	.	.
8GG#\J	16dd#\	.	.	.	.	.	.	.	.	.	.	.	.	.	.	.	.	.	.	.
.	16ee\JJ)	.	.	.	.	.	.	.	.	.	.	.	.	.	.	.	.	.	.	.
=69	=69	=69	=69	=69	=69	=69	=69	=69	=69	=69	=69	=69	=69	=69	=69	=69	=69	=69	=69	=69
8E\L 8c#	(16aa\LL	.	4A\	.	4e\	blas-	.	4cc#/	4a\	blas-	.	2.ryy	.	.	2.ryy	.	.	2.ryy	.	.
.	16bb\	.	.	.	.	.	.	.	.	.	.	.	.	.	.	.	.	.	.	.
8AA\J	16aa\	.	.	.	.	.	.	.	.	.	.	.	.	.	.	.	.	.	.	.
.	16gg#\JJ)	.	.	.	.	.	.	.	.	.	.	.	.	.	.	.	.	.	.	.
8E\L 8A	8aa\L	.	4A\	.	4e\	-ki	.	(8dd#/L	4a\	-ki	.	.	.	.	.	.	.	.	.	.
8AA\J	8cc#\J	.	.	.	.	.	.	8ee/J)	.	.	.	.	.	.	.	.	.	.	.	.
8D#\L 8A	(16dd#\LL	.	4F#\	.	4d#\	i	.	4ff#/	4a\	i	.	.	.	.	.	.	.	.	.	.
.	16ee\J	.	.	.	.	.	.	.	.	.	.	.	.	.	.	.	.	.	.	.
8FF#\J	8ff#\J)	.	.	.	.	.	.	.	.	.	.	.	.	.	.	.	.	.	.	.
=70	=70	=70	=70	=70	=70	=70	=70	=70	=70	=70	=70	=70	=70	=70	=70	=70	=70	=70	=70	=70
*	*^	*	*	*	*	*	*	*	*	*	*	*	*	*	*	*	*	*	*	*
8D#\L 8G#	8b\L 8dd# 8bb	4ryy	.	4G#\	.	4d#\	bar-	.	(8dd#/L	4b\	bar-	.	2.ryy	.	.	2.ryy	.	.	2.ryy	.	.
8GG#\J	(16b\L	.	.	.	.	.	.	.	8ee/J)	.	.	.	.	.	.	.	.	.	.	.	.
.	16cc#\JJ)	.	.	.	.	.	.	.	.	.	.	.	.	.	.	.	.	.	.	.	.
8D#\L 8G#	2dd#/	4b\	.	4G#\	.	4B\	-wy	.	4dd#/	4g#\	-wy	.	.	.	.	.	.	.	.	.	.
8GG#\J	.	.	.	.	.	.	.	.	.	.	.	.	.	.	.	.	.	.	.	.	.
8D#\L 8A	.	4d#\ 4a	.	4F#\	.	4d#\	i	.	4b/	4a\	i	.	.	.	.	.	.	.	.	.	.
8FF#\J	.	.	.	.	.	.	.	.	.	.	.	.	.	.	.	.	.	.	.	.	.
*	*v	*v	*	*	*	*	*	*	*	*	*	*	*	*	*	*	*	*	*	*	*
=71	=71	=71	=71	=71	=71	=71	=71	=71	=71	=71	=71	=71	=71	=71	=71	=71	=71	=71	=71	=71
8C#/L 8G#	(16g#\LL 16cc#	.	4E\	.	4e\	słoń-	.	4cc#/	4g#\	słoń-	.	2.ryy	.	.	2.ryy	.	.	2.ryy	.	.
.	16dd#\	.	.	.	.	.	.	.	.	.	.	.	.	.	.	.	.	.	.	.
8EE/J	16ee\	.	.	.	.	.	.	.	.	.	.	.	.	.	.	.	.	.	.	.
.	16gg#\JJ)	.	.	.	.	.	.	.	.	.	.	.	.	.	.	.	.	.	.	.
8D#/L 8A	8a\L 8dd# 8aa	.	4F#\	.	4B\	-ca	.	(8dd#/L	4a\	-ca	.	.	.	.	.	.	.	.	.	.
8FF#/J	8dd#\J	.	.	.	.	.	.	8ff#/J)	.	.	.	.	.	.	.	.	.	.	.	.
8E\L 8B	(16b\LL 16ee	.	4G#\	.	4B\	pro-	.	4ee/	4b\	pro-	.	.	.	.	.	.	.	.	.	.
.	16ff#\J	.	.	.	.	.	.	.	.	.	.	.	.	.	.	.	.	.	.	.
8GG#\J	8gg#\J)	.	.	.	.	.	.	.	.	.	.	.	.	.	.	.	.	.	.	.
=72	=72	=72	=72	=72	=72	=72	=72	=72	=72	=72	=72	=72	=72	=72	=72	=72	=72	=72	=72	=72
!	!	!	!	!	!	!	!	!	!LO:TX:t=P:problem: dźwięki 8a i 4a zapisane oddzielnie	!	!	!	!	!	!	!	!	!	!	!
8E\L 8c#	(16ee\LL	.	4A\	.	(8c#\L	-mi-	.	(8a/L	4a\	-mie-	.	2.ryy	.	.	2.ryy	.	.	2.ryy	.	.
.	16ff#\	.	.	.	.	.	.	.	.	.	.	.	.	.	.	.	.	.	.	.
8AA\J	16ee\	.	.	.	8dn\J)	.	.	8b/J)	.	.	.	.	.	.	.	.	.	.	.	.
.	16b\JJ)	.	.	.	.	.	.	.	.	.	.	.	.	.	.	.	.	.	.	.
8E\L 8c#	2e/ 2cc# 2ee	.	4A\	.	4e\	-nie	.	4cc#/	4a\	-nie	.	.	.	.	.	.	.	.	.	.
8AA\J	.	.	.	.	.	.	.	.	.	.	.	.	.	.	.	.	.	.	.	.
8E\L 8c#	.	.	4G#\	.	4e\	i	.	(8cc#/L	4a\	i	.	.	.	.	.	.	.	.	.	.
8GG#\J	.	.	.	.	.	.	.	8ee/J)	.	.	.	.	.	.	.	.	.	.	.	.
!!LO:PB:g=original	!	!	!	!	!	!	!	!	!	!	!	!	!	!	!	!	!	!	!	!
=73	=73	=73	=73	=73	=73	=73	=73	=73	=73	=73	=73	=73	=73	=73	=73	=73	=73	=73	=73	=73
*	*	*	*	*	*	*	*	*	*^	*	*	*	*	*	*	*	*	*	*	*
!LO:TX:t=P:problem:mixed beam	!	!	!	!	!	!	!	!	!	!	!	!	!	!	!	!	!	!	!	!	!
8FF#/L	(16a\LL 16cc# 16ee	.	[2.F#\	.	[2.e\	pie-	.	(2aa/	[2.a\	2.cc#/	pie-	.	2.ryy	.	.	2.ryy	.	.	2.ryy	.	.
.	16ff#\	.	.	.	.	.	.	.	.	.	.	.	.	.	.	.	.	.	.	.	.
8F#\J 8A 8c#	16ee\	.	.	.	.	.	.	.	.	.	.	.	.	.	.	.	.	.	.	.	.
.	16ff#\JJ)	.	.	.	.	.	.	.	.	.	.	.	.	.	.	.	.	.	.	.	.
8F#\L 8A 8c# 8e	(16ee\LL	.	.	.	.	.	.	.	.	.	.	.	.	.	.	.	.	.	.	.	.
.	16aa\)	.	.	.	.	.	.	.	.	.	.	.	.	.	.	.	.	.	.	.	.
8F#\J 8A 8c#	(16aa\	.	.	.	.	.	.	.	.	.	.	.	.	.	.	.	.	.	.	.	.
.	16ee\JJ)	.	.	.	.	.	.	.	.	.	.	.	.	.	.	.	.	.	.	.	.
4F#\ 4A 4c# 4e	4ee\	.	.	.	.	.	.	8gg#/L	.	.	.	.	.	.	.	.	.	.	.	.	.
.	.	.	.	.	.	.	.	8ff#/J	.	.	.	.	.	.	.	.	.	.	.	.	.
*	*	*	*	*	*	*	*	*	*v	*v	*	*	*	*	*	*	*	*	*	*	*
=74	=74	=74	=74	=74	=74	=74	=74	=74	=74	=74	=74	=74	=74	=74	=74	=74	=74	=74	=74	=74
!LO:TX:t=P:problem:mixed beam	!	!	!	!	!	!	!	!LO:TX:t=P:problem: dźwięki 4a i 4a zapisane oddzielnie	!	!	!	!	!	!	!	!	!	!	!	!
8FFF#/L 8FF#	(16cc#\LL 16ee 16aa	.	4F#\]	.	4e\]	.	.	4a/) 4cc#	4a\]	.	.	2.ryy	.	.	2.ryy	.	.	2.ryy	.	.
.	16bb\	.	.	.	.	.	.	.	.	.	.	.	.	.	.	.	.	.	.	.
8F#\J 8A 8c#	16aa\	.	.	.	.	.	.	.	.	.	.	.	.	.	.	.	.	.	.	.
.	16bb\JJ)	.	.	.	.	.	.	.	.	.	.	.	.	.	.	.	.	.	.	.
4F#\ 4A 4c# 4e	(16aa\LL	.	4F#\	.	4e\	-śni	.	4cc#/ 4ff#	4a\	-śni	.	.	.	.	.	.	.	.	.	.
.	16ccc#\)	.	.	.	.	.	.	.	.	.	.	.	.	.	.	.	.	.	.	.
.	(16ccc#\	.	.	.	.	.	.	.	.	.	.	.	.	.	.	.	.	.	.	.
.	16ee\JJ)	.	.	.	.	.	.	.	.	.	.	.	.	.	.	.	.	.	.	.
4BB\ 4F# 4A 4d#	(16dd#\LL	.	4BB/	.	4d#\	i	.	4b/ 4gg#	4a\	i	.	.	.	.	.	.	.	.	.	.
.	16ee\	.	.	.	.	.	.	.	.	.	.	.	.	.	.	.	.	.	.	.
.	16ff#\	.	.	.	.	.	.	.	.	.	.	.	.	.	.	.	.	.	.	.
.	16bb\JJ)	.	.	.	.	.	.	.	.	.	.	.	.	.	.	.	.	.	.	.
=75	=75	=75	=75	=75	=75	=75	=75	=75	=75	=75	=75	=75	=75	=75	=75	=75	=75	=75	=75	=75
8G#\L 8B 8e	(16ee\LL 16gg# 16bb	.	[2.E\	.	[2.B\	tan!	.	[2.b/ [2.ee	[2.g#\	tan!	.	2.ryy	.	.	2.ryy	.	.	2.ryy	.	.
.	16ccc#\	.	.	.	.	.	.	.	.	.	.	.	.	.	.	.	.	.	.	.
8E\J	16bb\	.	.	.	.	.	.	.	.	.	.	.	.	.	.	.	.	.	.	.
.	16eee\JJ)	.	.	.	.	.	.	.	.	.	.	.	.	.	.	.	.	.	.	.
8G#\L 8B 8e	(16ggg#\LL	.	.	.	.	.	.	.	.	.	.	.	.	.	.	.	.	.	.	.
.	16fff#\J	.	.	.	.	.	.	.	.	.	.	.	.	.	.	.	.	.	.	.
8E\J	8eee\J)	.	.	.	.	.	.	.	.	.	.	.	.	.	.	.	.	.	.	.
8B\L 8g#	(16gg#\LL	.	.	.	.	.	.	.	.	.	.	.	.	.	.	.	.	.	.	.
.	16aa\	.	.	.	.	.	.	.	.	.	.	.	.	.	.	.	.	.	.	.
8E\J	16gg#\	.	.	.	.	.	.	.	.	.	.	.	.	.	.	.	.	.	.	.
.	16bb\JJ)	.	.	.	.	.	.	.	.	.	.	.	.	.	.	.	.	.	.	.
=76	=76	=76	=76	=76	=76	=76	=76	=76	=76	=76	=76	=76	=76	=76	=76	=76	=76	=76	=76	=76
8B\L 8g#	(16eee\LL	.	4E\]	.	4B\]	.	.	4b/] 4ee]	4g#\]	.	.	2.ryy	.	.	2.ryy	.	.	2.ryy	.	.
.	16ccc#\J	.	.	.	.	.	.	.	.	.	.	.	.	.	.	.	.	.	.	.
8E\J	8bb\J)	.	.	.	.	.	.	.	.	.	.	.	.	.	.	.	.	.	.	.
8B\L 8g#	(16ee\LL	.	4r	.	4r	.	.	4r	4ryy	.	.	.	.	.	.	.	.	.	.	.
.	16ff#\	>	.	.	.	.	.	.	.	.	.	.	.	.	.	.	.	.	.	.
8E\J	16ee\	.	.	.	.	.	.	.	.	.	.	.	.	.	.	.	.	.	.	.
.	16gg#\JJ	.	.	.	.	.	.	.	.	.	.	.	.	.	.	.	.	.	.	.
8B\L 8g#	16bb\LL	.	4r	.	4r	.	.	4r	4r	.	.	.	.	.	.	.	.	.	.	.
.	16gg#\	.	.	.	.	.	.	.	.	.	.	.	.	.	.	.	.	.	.	.
8E\J	16ff#\	.	.	.	.	.	.	.	.	.	.	.	.	.	.	.	.	.	.	.
.	16ee\JJ)	]	.	.	.	.	.	.	.	.	.	.	.	.	.	.	.	.	.	.
=77	=77	=77	=77	=77	=77	=77	=77	=77	=77	=77	=77	=77	=77	=77	=77	=77	=77	=77	=77	=77
!	!	!	!	!LO:DY:a	!	!	!LO:DY:a	!	!	!	!LO:DY:a	!	!	!	!	!	!	!	!	!
8A\L 8c# 8e	(16cc#\LL 16aa	mp	2.E\	mf	2.c#\	Dał	mf	2.a/ 2.ee	2.e\	Dał!	mf	2.ryy	.	.	2.ryy	.	.	2.ryy	.	.
.	16bb\	.	.	.	.	.	.	.	.	.	.	.	.	.	.	.	.	.	.	.
8E\J	16aa\	.	.	.	.	.	.	.	.	.	.	.	.	.	.	.	.	.	.	.
.	16ff#\JJ)	.	.	.	.	.	.	.	.	.	.	.	.	.	.	.	.	.	.	.
8A\L 8c# 8e	8ee\L	.	.	.	.	.	.	.	.	.	.	.	.	.	.	.	.	.	.	.
8E\J	8cc#\J	.	.	.	.	.	.	.	.	.	.	.	.	.	.	.	.	.	.	.
8A\L 8c# 8e	(16a\LL	.	.	.	.	.	.	.	.	.	.	.	.	.	.	.	.	.	.	.
.	16b\J	.	.	.	.	.	.	.	.	.	.	.	.	.	.	.	.	.	.	.
8E\J	8cc#\J)	.	.	.	.	.	.	.	.	.	.	.	.	.	.	.	.	.	.	.
!!LO:LB:g=original	!	!	!	!	!	!	!	!	!	!	!	!	!	!	!	!	!	!	!	!
=78	=78	=78	=78	=78	=78	=78	=78	=78	=78	=78	=78	=78	=78	=78	=78	=78	=78	=78	=78	=78
*	*^	*	*	*	*	*	*	*	*	*	*	*	*	*	*	*	*	*	*	*
8B\L 8dn	(8g#\L 8ee	4ryy	.	4E\	.	4B\	bar-	.	4g#/	4dn\	bar-	.	2.ryy	.	.	2.ryy	.	.	2.ryy	.	.
8E\J	16ddn\L	.	.	.	.	.	.	.	.	.	.	.	.	.	.	.	.	.	.	.	.
.	16b\JJ)	.	.	.	.	.	.	.	.	.	.	.	.	.	.	.	.	.	.	.	.
8A\L 8d	2dd/	(4f#\	.	4E\	.	4A/	-wy	.	4f#/	4d\	-wy	.	.	.	.	.	.	.	.	.	.
8E\J	.	.	.	.	.	.	.	.	.	.	.	.	.	.	.	.	.	.	.	.	.
8G#\L 8d	.	4e\)	.	4E\	.	4G#/	i	.	4e/	4d\	i	.	.	.	.	.	.	.	.	.	.
8E\J	.	.	.	.	.	.	.	.	.	.	.	.	.	.	.	.	.	.	.	.	.
*	*v	*v	*	*	*	*	*	*	*	*	*	*	*	*	*	*	*	*	*	*	*
=79	=79	=79	=79	=79	=79	=79	=79	=79	=79	=79	=79	=79	=79	=79	=79	=79	=79	=79	=79	=79
8A\L 8c#	(16cc#/LL	.	2.E\	.	2.A/	blas-	.	2.cc#/	2.e\	blas-	.	2.ryy	.	.	2.ryy	.	.	2.ryy	.	.
.	16b/	.	.	.	.	.	.	.	.	.	.	.	.	.	.	.	.	.	.	.
8E\J	16a/	.	.	.	.	.	.	.	.	.	.	.	.	.	.	.	.	.	.	.
.	16f#/JJ)	.	.	.	.	.	.	.	.	.	.	.	.	.	.	.	.	.	.	.
8A\L 8c#	8e/L	.	.	.	.	.	.	.	.	.	.	.	.	.	.	.	.	.	.	.
8E\J	8a/J	.	.	.	.	.	.	.	.	.	.	.	.	.	.	.	.	.	.	.
8A\L 8c#	(16cc#\LL	.	.	.	.	.	.	.	.	.	.	.	.	.	.	.	.	.	.	.
.	16ddn\J	.	.	.	.	.	.	.	.	.	.	.	.	.	.	.	.	.	.	.
8E\J	8ee\J)	.	.	.	.	.	.	.	.	.	.	.	.	.	.	.	.	.	.	.
=80	=80	=80	=80	=80	=80	=80	=80	=80	=80	=80	=80	=80	=80	=80	=80	=80	=80	=80	=80	=80
8A\L 8c#	(8a\L 8cc# 8aa	.	4E\	.	4c#\	-ki.	.	4a/	4e\	-ki.	.	2.ryy	.	.	2.ryy	.	.	2.ryy	.	.
8E\J	16gg#\L	.	.	.	.	.	.	.	.	.	.	.	.	.	.	.	.	.	.	.
.	16ff#\JJ)	.	.	.	.	.	.	.	.	.	.	.	.	.	.	.	.	.	.	.
8A\L 8c#	2a\ 2ee	.	4r	.	4r	.	.	4r	4ryy	.	.	.	.	.	.	.	.	.	.	.
8E\J	.	.	.	.	.	.	.	.	.	.	.	.	.	.	.	.	.	.	.	.
8A\L 8e	.	.	4C#/	.	4A/	I	.	4a/	4e\	I	.	.	.	.	.	.	.	.	.	.
8C#\J	.	.	.	.	.	.	.	.	.	.	.	.	.	.	.	.	.	.	.	.
=81	=81	=81	=81	=81	=81	=81	=81	=81	=81	=81	=81	=81	=81	=81	=81	=81	=81	=81	=81	=81
8A\L 8d#X	(16a\LL 16cc#	.	4BB/	.	4A/	słoń-	.	4cc#/	4d#X\	słoń-	.	2.ryy	.	.	2.ryy	.	.	2.ryy	.	.
.	16dd#X\	.	.	.	.	.	.	.	.	.	.	.	.	.	.	.	.	.	.	.
8BB\J	16ff#\	.	.	.	.	.	.	.	.	.	.	.	.	.	.	.	.	.	.	.
.	16dd#\JJ)	.	.	.	.	.	.	.	.	.	.	.	.	.	.	.	.	.	.	.
8A\L 8c#	8a\L 8ff#	.	4BB/	.	4c#\	-ca	.	4a/	4d#\	-ca	.	.	.	.	.	.	.	.	.	.
8BB\J	(16b\L	.	.	.	.	.	.	.	.	.	.	.	.	.	.	.	.	.	.	.
.	16cc#\JJ)	.	.	.	.	.	.	.	.	.	.	.	.	.	.	.	.	.	.	.
8A\L 8B	8dd#\L	.	4BB/	.	4B\	pro-	.	4g#/	4d#\	pro-	.	.	.	.	.	.	.	.	.	.
8BB\J	8gg#\J	.	.	.	.	.	.	.	.	.	.	.	.	.	.	.	.	.	.	.
=82	=82	=82	=82	=82	=82	=82	=82	=82	=82	=82	=82	=82	=82	=82	=82	=82	=82	=82	=82	=82
!	!	!	!	!LO:HP:a	!	!	!LO:HP:a	!	!	!	!LO:HP:a	!	!	!	!	!	!	!	!	!
8F#\L 8A	(8b\L 8dd# 8bb	.	4BB/	>	(8A/L	-mie-	>	(<8f#/L	4d#\	-mie-	>	2.ryy	.	.	2.ryy	.	.	2.ryy	.	.
8BB\J	16aa\L	>	.	.	8G#/J)	.	.	8g#/J)	.	.	.	.	.	.	.	.	.	.	.	.
.	16gg#\JJ)	.	.	.	.	.	.	.	.	.	.	.	.	.	.	.	.	.	.	.
8F#\L 8A 8d#	8ff#\L	.	4BB/	]	4F#/	-nie	]	4a/	4d#\	-nie	]	.	.	.	.	.	.	.	.	.
8BB\J	8ee\J	]	.	.	.	.	.	.	.	.	.	.	.	.	.	.	.	.	.	.
!	!	!	!	!LO:DY:a	!	!	!LO:DY:a	!	!	!	!LO:DY:a	!	!	!	!	!	!	!	!	!
8F#\L 8A	(16dd#\LL	.	4BB/	p	4B\	i	p	4a/ 4dd#	4f#\	i	p	.	.	.	.	.	.	.	.	.
.	16cc#\J	.	.	.	.	.	.	.	.	.	.	.	.	.	.	.	.	.	.	.
8BB\J	8b\J)	p	.	.	.	.	.	.	.	.	.	.	.	.	.	.	.	.	.	.
!!LO:LB:g=original	!	!	!	!	!	!	!	!	!	!	!	!	!	!	!	!	!	!	!	!
=83	=83	=83	=83	=83	=83	=83	=83	=83	=83	=83	=83	=83	=83	=83	=83	=83	=83	=83	=83	=83
8BB/L 8G#	(16e\LL 16b	.	(2E\	.	(2B\	pie-	.	(>2b/ (>2ee	(<2g#\	pie-	.	2.ryy	.	.	2.ryy	.	.	2.ryy	.	.
.	16cc#\	.	.	.	.	.	.	.	.	.	.	.	.	.	.	.	.	.	.	.
8EE/J	16ee\	.	.	.	.	.	.	.	.	.	.	.	.	.	.	.	.	.	.	.
.	16cc#\JJ)	.	.	.	.	.	.	.	.	.	.	.	.	.	.	.	.	.	.	.
8BB/L 8G#	4e/ 4b	.	.	.	.	.	.	.	.	.	.	.	.	.	.	.	.	.	.	.
8EE/J	.	.	.	.	.	.	.	.	.	.	.	.	.	.	.	.	.	.	.	.
8BB/L 8G#	(16g#/LL	.	4G#\)	.	4e\)	.	.	4g#/) 4b)	4e\)	.	.	.	.	.	.	.	.	.	.	.
.	16a/	.	.	.	.	.	.	.	.	.	.	.	.	.	.	.	.	.	.	.
8EE/J	16g#/	.	.	.	.	.	.	.	.	.	.	.	.	.	.	.	.	.	.	.
.	16f#/JJ)	.	.	.	.	.	.	.	.	.	.	.	.	.	.	.	.	.	.	.
=84	=84	=84	=84	=84	=84	=84	=84	=84	=84	=84	=84	=84	=84	=84	=84	=84	=84	=84	=84	=84
8BB/L 8G#	(16e/LL	.	2E\	.	2B\	-śni	.	2b/ 2ee	2g#\	-śni	.	2.ryy	.	.	2.ryy	.	.	2.ryy	.	.
.	16f#/	.	.	.	.	.	.	.	.	.	.	.	.	.	.	.	.	.	.	.
8EE/J	16b/	.	.	.	.	.	.	.	.	.	.	.	.	.	.	.	.	.	.	.
.	16f#/JJ)	.	.	.	.	.	.	.	.	.	.	.	.	.	.	.	.	.	.	.
8BB/L 8G#	4e/	.	.	.	.	.	.	.	.	.	.	.	.	.	.	.	.	.	.	.
8EE/J	.	.	.	.	.	.	.	.	.	.	.	.	.	.	.	.	.	.	.	.
8BB/L 8G#	(16c#/LL	.	4G#\	.	4e\	i	.	4g#/ 4b	4e\	i	.	.	.	.	.	.	.	.	.	.
.	16d#/	.	.	.	.	.	.	.	.	.	.	.	.	.	.	.	.	.	.	.
8EE/J	16c#/	.	.	.	.	.	.	.	.	.	.	.	.	.	.	.	.	.	.	.
.	16B/JJ)	.	.	.	.	.	.	.	.	.	.	.	.	.	.	.	.	.	.	.
=85	=85	=85	=85	=85	=85	=85	=85	=85	=85	=85	=85	=85	=85	=85	=85	=85	=85	=85	=85	=85
8BB/L 8E	(16G#/LL	.	[2.E\	.	[2.B\	tan!-	.	[2.g#/ [2.ee	[2.e\	tan!-	.	2.ryy	.	.	2.ryy	.	.	2.ryy	.	.
.	16B/	.	.	.	.	.	.	.	.	.	.	.	.	.	.	.	.	.	.	.
8EE/J	16c#/	.	.	.	.	.	.	.	.	.	.	.	.	.	.	.	.	.	.	.
.	16G#/JJ)	.	.	.	.	.	.	.	.	.	.	.	.	.	.	.	.	.	.	.
8BB/L 8E	8B/L	.	.	.	.	.	.	.	.	.	.	.	.	.	.	.	.	.	.	.
8EE/J	8d#/J	.	.	.	.	.	.	.	.	.	.	.	.	.	.	.	.	.	.	.
8BB/L 8E	(16e/LL	.	.	.	.	.	.	.	.	.	.	.	.	.	.	.	.	.	.	.
.	16f#/J	.	.	.	.	.	.	.	.	.	.	.	.	.	.	.	.	.	.	.
8EE/J	8g#/J)	.	.	.	.	.	.	.	.	.	.	.	.	.	.	.	.	.	.	.
=86	=86	=86	=86	=86	=86	=86	=86	=86	=86	=86	=86	=86	=86	=86	=86	=86	=86	=86	=86	=86
8BB/L 8G#	(16b\LL	.	2.E\_	.	2.B\_	.	.	2.g#/_ 2.ee_	2.e\_	.	.	2.ryy	.	.	2.ryy	.	.	2.ryy	.	.
.	16cc#\	.	.	.	.	.	.	.	.	.	.	.	.	.	.	.	.	.	.	.
8EE/J	16ee\	.	.	.	.	.	.	.	.	.	.	.	.	.	.	.	.	.	.	.
.	16dd#\JJ)	.	.	.	.	.	.	.	.	.	.	.	.	.	.	.	.	.	.	.
8BB/L 8G#	8b/L	.	.	.	.	.	.	.	.	.	.	.	.	.	.	.	.	.	.	.
8EE/J	8e/J 8g# 8cc#	.	.	.	.	.	.	.	.	.	.	.	.	.	.	.	.	.	.	.
8BB/L 8G#	(16g#\LL 16b 16dd#	.	.	.	.	.	.	.	.	.	.	.	.	.	.	.	.	.	.	.
.	16ee\J	.	.	.	.	.	.	.	.	.	.	.	.	.	.	.	.	.	.	.
8EE/J	8g#\J) 8b 8ff#	.	.	.	.	.	.	.	.	.	.	.	.	.	.	.	.	.	.	.
=87	=87	=87	=87	=87	=87	=87	=87	=87	=87	=87	=87	=87	=87	=87	=87	=87	=87	=87	=87	=87
8BB/L 8G#	(16b\LL 16ee 16gg#	.	4E\]	.	4B\]	.	.	4g#/] 4ee]	4e\]	.	.	2.ryy	.	.	2.ryy	.	.	2.ryy	.	.
.	16bb\	.	.	.	.	.	.	.	.	.	.	.	.	.	.	.	.	.	.	.
8EE/J	16ccc#\	.	.	.	.	.	.	.	.	.	.	.	.	.	.	.	.	.	.	.
.	16gg#\JJ)	.	.	.	.	.	.	.	.	.	.	.	.	.	.	.	.	.	.	.
8BB/L 8G#	8g#\L 8ee 8bb	.	4r	.	4r	.	.	4r	4ryy	.	.	.	.	.	.	.	.	.	.	.
8EE/J	8g#\J 8b 8dd#	.	.	.	.	.	.	.	.	.	.	.	.	.	.	.	.	.	.	.
8BB/L 8G#	(16g#\LL 16b 16ee	.	4r	.	4r	.	.	4r	4ryy	.	.	.	.	.	.	.	.	.	.	.
.	16ff#\J	.	.	.	.	.	.	.	.	.	.	.	.	.	.	.	.	.	.	.
8EE/J	8b\J) 8ee 8gg#	.	.	.	.	.	.	.	.	.	.	.	.	.	.	.	.	.	.	.
*	*	*	*	*	*	*	*	*v	*v	*	*	*	*	*	*	*	*	*	*	*
!!LO:LB:g=original	!	!	!	!	!	!	!	!	!	!	!	!	!	!	!	!	!	!	!
=88	=88	=88	=88	=88	=88	=88	=88	=88	=88	=88	=88	=88	=88	=88	=88	=88	=88	=88	=88
4BB/ 4F#	16a:\LL 16dd#: 16ff#: 16bb:	.	2.ryy	.	2.ryy	.	.	2.ryy	.	.	2.ryy	.	.	2.ryy	.	.	2.ryy	.	.
.	(16ccc#\	.	.	.	.	.	.	.	.	.	.	.	.	.	.	.	.	.	.
.	16eee\	.	.	.	.	.	.	.	.	.	.	.	.	.	.	.	.	.	.
.	16ccc#\JJ	.	.	.	.	.	.	.	.	.	.	.	.	.	.	.	.	.	.
*	*8va	*	*	*	*	*	*	*	*	*	*	*	*	*	*	*	*	*	*
4r	16ddd#\LL	.	.	.	.	.	.	.	.	.	.	.	.	.	.	.	.	.	.
.	16eee\	.	.	.	.	.	.	.	.	.	.	.	.	.	.	.	.	.	.
.	16fff#\	.	.	.	.	.	.	.	.	.	.	.	.	.	.	.	.	.	.
.	16ggg#\JJ	.	.	.	.	.	.	.	.	.	.	.	.	.	.	.	.	.	.
*clefG2	*	*	*	*	*	*	*	*	*	*	*	*	*	*	*	*	*	*	*
4B:/ 4f#: 4a: 4dd#:	16aaa\LL	.	.	.	.	.	.	.	.	.	.	.	.	.	.	.	.	.	.
.	16bbb\	.	.	.	.	.	.	.	.	.	.	.	.	.	.	.	.	.	.
.	16cccc#\	.	.	.	.	.	.	.	.	.	.	.	.	.	.	.	.	.	.
.	16dddd#\JJ)	.	.	.	.	.	.	.	.	.	.	.	.	.	.	.	.	.	.
=89	=89	=89	=89	=89	=89	=89	=89	=89	=89	=89	=89	=89	=89	=89	=89	=89	=89	=89	=89
(16ee\LL	[2.eee\ [2.ggg# [2.eeee	.	2.ryy	.	2.ryy	.	.	2.ryy	.	.	2.ryy	.	.	2.ryy	.	.	2.ryy	.	.
16cc#\	.	.	.	.	.	.	.	.	.	.	.	.	.	.	.	.	.	.	.
16b\	.	.	.	.	.	.	.	.	.	.	.	.	.	.	.	.	.	.	.
16cc#\JJ)	.	.	.	.	.	.	.	.	.	.	.	.	.	.	.	.	.	.	.
8b/L	.	.	.	.	.	.	.	.	.	.	.	.	.	.	.	.	.	.	.
8g#/J	.	.	.	.	.	.	.	.	.	.	.	.	.	.	.	.	.	.	.
(16cc#/LL	.	.	.	.	.	.	.	.	.	.	.	.	.	.	.	.	.	.	.
16b/	.	.	.	.	.	.	.	.	.	.	.	.	.	.	.	.	.	.	.
16g#/	.	.	.	.	.	.	.	.	.	.	.	.	.	.	.	.	.	.	.
16e/JJ)	.	.	.	.	.	.	.	.	.	.	.	.	.	.	.	.	.	.	.
*clefF4	*	*	*	*	*	*	*	*	*	*	*	*	*	*	*	*	*	*	*
=90	=90	=90	=90	=90	=90	=90	=90	=90	=90	=90	=90	=90	=90	=90	=90	=90	=90	=90	=90
(16d#\LL	2.eee\_ 2.ggg#_ 2.eeee_	.	2.ryy	.	2.ryy	.	.	2.ryy	.	.	2.ryy	.	.	2.ryy	.	.	2.ryy	.	.
16B\	.	.	.	.	.	.	.	.	.	.	.	.	.	.	.	.	.	.	.
16d#\	.	.	.	.	.	.	.	.	.	.	.	.	.	.	.	.	.	.	.
16c#\JJ)	.	.	.	.	.	.	.	.	.	.	.	.	.	.	.	.	.	.	.
8B\L	.	.	.	.	.	.	.	.	.	.	.	.	.	.	.	.	.	.	.
8G#\J	.	.	.	.	.	.	.	.	.	.	.	.	.	.	.	.	.	.	.
(16F#\LL	.	.	.	.	.	.	.	.	.	.	.	.	.	.	.	.	.	.	.
16G#\	.	.	.	.	.	.	.	.	.	.	.	.	.	.	.	.	.	.	.
16E\	.	.	.	.	.	.	.	.	.	.	.	.	.	.	.	.	.	.	.
16C#\JJ)	.	.	.	.	.	.	.	.	.	.	.	.	.	.	.	.	.	.	.
=91	=91	=91	=91	=91	=91	=91	=91	=91	=91	=91	=91	=91	=91	=91	=91	=91	=91	=91	=91
(16BB/LL	2.eee\_ 2.ggg#_ 2.eeee_	.	2.ryy	.	2.ryy	.	.	2.ryy	.	.	2.ryy	.	.	2.ryy	.	.	2.ryy	.	.
16D#/	.	.	.	.	.	.	.	.	.	.	.	.	.	.	.	.	.	.	.
16C#/	.	.	.	.	.	.	.	.	.	.	.	.	.	.	.	.	.	.	.
16BB/JJ	.	.	.	.	.	.	.	.	.	.	.	.	.	.	.	.	.	.	.
!LO:TX:a:i:t=poco rall.	!	!	!	!	!	!	!	!	!	!	!	!	!	!	!	!	!	!	!
16GG#/LL	.	.	.	.	.	.	.	.	.	.	.	.	.	.	.	.	.	.	.
16FF#/	.	.	.	.	.	.	.	.	.	.	.	.	.	.	.	.	.	.	.
16EE/	.	.	.	.	.	.	.	.	.	.	.	.	.	.	.	.	.	.	.
16CC#/JJ	.	.	.	.	.	.	.	.	.	.	.	.	.	.	.	.	.	.	.
8BBB/L	.	.	.	.	.	.	.	.	.	.	.	.	.	.	.	.	.	.	.
16GGG#/L	.	.	.	.	.	.	.	.	.	.	.	.	.	.	.	.	.	.	.
16FFF#/JJ	.	.	.	.	.	.	.	.	.	.	.	.	.	.	.	.	.	.	.
=92	=92	=92	=92	=92	=92	=92	=92	=92	=92	=92	=92	=92	=92	=92	=92	=92	=92	=92	=92
2.EEE;/) 2.EE	2.eee;\] 2.ggg#] 2.eeee]	.	2.ryy	.	2.ryy	.	.	2.ryy	.	.	2.ryy	.	.	2.ryy	.	.	2.ryy	.	.
*	*X8va	*	*	*	*	*	*	*	*	*	*	*	*	*	*	*	*	*	*
!!LO:PB:g=original	!	!	!	!	!	!	!	!	!	!	!	!	!	!	!	!	!	!	!
=93||	=93||	=93||	=93||	=93||	=93||	=93||	=93||	=93||	=93||	=93||	=93||	=93||	=93||	=93||	=93||	=93||	=93||	=93||	=93||
*M4/4	*M4/4	*	*yyM4/4	*	*yyM4/4	*	*	*yyM4/4	*	*	*M4/4	*	*	*M4/4	*	*	*M4/4	*	*
*met(c)	*met(c)	*	*yymet(c)	*	*yymet(c)	*	*	*yymet(c)	*	*	*met(c)	*	*	*met(c)	*	*	*met(c)	*	*
!	!LO:TX:a:B:t=Andantino.	!	!	!	!	!	!	!	!	!	!	!	!	!	!	!	!LO:TX:a:t=Livia. (Powstając)	!	!
(<4.EE\	(4.E</	p	1ryy	.	1ryy	.	.	1ryy	.	.	1ryy	.	.	1ryy	.	.	1r	.	.
8DD#\	8D#</	.	.	.	.	.	.	.	.	.	.	.	.	.	.	.	.	.	.
4GGG#\	4GG#</	.	.	.	.	.	.	.	.	.	.	.	.	.	.	.	.	.	.
8BB\L	8B</L	.	.	.	.	.	.	.	.	.	.	.	.	.	.	.	.	.	.
8AA\J)	8A</J)	.	.	.	.	.	.	.	.	.	.	.	.	.	.	.	.	.	.
=94	=94	=94	=94	=94	=94	=94	=94	=94	=94	=94	=94	=94	=94	=94	=94	=94	=94	=94	=94
*^	*	*	*	*	*	*	*	*	*	*	*	*	*	*	*	*	*	*	*
(<8FF##X\	(>8F##X/	4ryy	.	1ryy	.	1ryy	.	.	1ryy	.	.	1ryy	.	.	1ryy	.	.	2r	.	.
4GG#\	4G#/	.	.	.	.	.	.	.	.	.	.	.	.	.	.	.	.	.	.	.
.	.	4ryy	.	.	.	.	.	.	.	.	.	.	.	.	.	.	.	.	.	.
16EE\LL	16E/LL	.	.	.	.	.	.	.	.	.	.	.	.	.	.	.	.	.	.	.
16DD#\JJ	16D#/JJ	.	.	.	.	.	.	.	.	.	.	.	.	.	.	.	.	.	.	.
2BBB/) 2BB)	2ryy	4r	.	.	.	.	.	.	.	.	.	.	.	.	.	.	.	4r	.	.
.	.	4d#/ 4g# 4dd#	.	.	.	.	.	.	.	.	.	.	.	.	.	.	.	8r	.	.
!	!	!	!	!	!	!	!	!	!	!	!	!	!	!	!	!	!	!	!	!LO:DY:a
.	.	.	.	.	.	.	.	.	.	.	.	.	.	.	.	.	.	8dd#\	Dzię-	p
*v	*v	*	*	*	*	*	*	*	*	*	*	*	*	*	*	*	*	*	*	*
=95	=95	=95	=95	=95	=95	=95	=95	=95	=95	=95	=95	=95	=95	=95	=95	=95	=95	=95	=95
[4AAA#X/ [4AA#X	4c#/ 4g# 4ee	.	1ryy	.	1ryy	.	.	1ryy	.	.	1ryy	.	.	1ryy	.	.	4.ee\	-ku-	.
16AAA#/LL] 16AA#]	4c#/ 4e 4g#	.	.	.	.	.	.	.	.	.	.	.	.	.	.	.	.	.	.
(16BBB/ 16BB	.	.	.	.	.	.	.	.	.	.	.	.	.	.	.	.	.	.	.
16CC#/ 16C#	.	.	.	.	.	.	.	.	.	.	.	.	.	.	.	.	8g#/	-ję	.
16DD#/JJ 16D#	.	.	.	.	.	.	.	.	.	.	.	.	.	.	.	.	.	.	.
8EE/L 8E	4c#/ 4g# 4cc#	<	.	.	.	.	.	.	.	.	.	.	.	.	.	.	4cc#\	wam!	.
8DD#/ 8D#	.	.	.	.	.	.	.	.	.	.	.	.	.	.	.	.	.	.	.
8EE/ 8E	4r	.	.	.	.	.	.	.	.	.	.	.	.	.	.	.	4r	.	.
8FF#/J) 8F#	.	[[	.	.	.	.	.	.	.	.	.	.	.	.	.	.	.	.	.
=96	=96	=96	=96	=96	=96	=96	=96	=96	=96	=96	=96	=96	=96	=96	=96	=96	=96	=96	=96
(<4.AAn\ 4.An	1r	.	1ryy	.	1ryy	.	.	1ryy	.	.	1ryy	.	.	1ryy	.	.	1r	.	.
8GG#/ 8G#	.	.	.	.	.	.	.	.	.	.	.	.	.	.	.	.	.	.	.
4CC#/) 4C#	.	.	.	.	.	.	.	.	.	.	.	.	.	.	.	.	.	.	.
(8E\L 8e	.	.	.	.	.	.	.	.	.	.	.	.	.	.	.	.	.	.	.
8D#\J) 8d#	.	.	.	.	.	.	.	.	.	.	.	.	.	.	.	.	.	.	.
=97	=97	=97	=97	=97	=97	=97	=97	=97	=97	=97	=97	=97	=97	=97	=97	=97	=97	=97	=97
(8BB#X\ 8B#X	2r	.	1ryy	.	1ryy	.	.	1ryy	.	.	1ryy	.	.	1ryy	.	.	2r	.	.
4C#\ 4c#	.	.	.	.	.	.	.	.	.	.	.	.	.	.	.	.	.	.	.
16AA\LL 16A	.	.	.	.	.	.	.	.	.	.	.	.	.	.	.	.	.	.	.
16GG#\JJ) 16G#	.	.	.	.	.	.	.	.	.	.	.	.	.	.	.	.	.	.	.
[2EE/ [2E	8c#/L 8g#	p	.	.	.	.	.	.	.	.	.	.	.	.	.	.	8r	.	.
.	8c#/J 8g#	.	.	.	.	.	.	.	.	.	.	.	.	.	.	.	8g#/	Lecz	.
.	8c#/L 8g# 8b	.	.	.	.	.	.	.	.	.	.	.	.	.	.	.	8b\	wa-	.
.	8c#/J 8g# 8a#X	.	.	.	.	.	.	.	.	.	.	.	.	.	.	.	8a#X/	-sza	.
!!LO:LB:g=original	!	!	!	!	!	!	!	!	!	!	!	!	!	!	!	!	!	!	!
=98	=98	=98	=98	=98	=98	=98	=98	=98	=98	=98	=98	=98	=98	=98	=98	=98	=98	=98	=98
4EE/] 4E]	8A#X/L 8c# 8f##X	.	1ryy	.	1ryy	.	.	1ryy	.	.	1ryy	.	.	1ryy	.	.	4.f##X/	pieśń	.
.	8A#/J 8c# 8f##	.	.	.	.	.	.	.	.	.	.	.	.	.	.	.	.	.	.
4DD#/ 4D#	8A#/L 8c# 8f##	.	.	.	.	.	.	.	.	.	.	.	.	.	.	.	.	.	.
.	8A#/J 8c# 8g#	.	.	.	.	.	.	.	.	.	.	.	.	.	.	.	8g#/	we-	.
4CC#/ 4C#	8c#/L 8e 8a#X	.	.	.	.	.	.	.	.	.	.	.	.	.	.	.	4a#X/	-so-	.
.	8c#/J 8e 8a#	.	.	.	.	.	.	.	.	.	.	.	.	.	.	.	.	.	.
4BBB/ 4BB	8d#/L 8g# 8b	.	.	.	.	.	.	.	.	.	.	.	.	.	.	.	4dd#\	-ła	.
.	8d#/J 8g# 8b	.	.	.	.	.	.	.	.	.	.	.	.	.	.	.	.	.	.
=99	=99	=99	=99	=99	=99	=99	=99	=99	=99	=99	=99	=99	=99	=99	=99	=99	=99	=99	=99
2AAA#X/ 2AA#X	8e/L 8g# 8cc#	.	1ryy	.	1ryy	.	.	1ryy	.	.	1ryy	.	.	1ryy	.	.	8r	.	.
.	8e/J 8g# 8cc#	.	.	.	.	.	.	.	.	.	.	.	.	.	.	.	8cc#\	nie	.
.	8e/L 8g# 8dd#	.	.	.	.	.	.	.	.	.	.	.	.	.	.	.	8dd#\	prze-	.
.	8e/J 8g# 8ee	.	.	.	.	.	.	.	.	.	.	.	.	.	.	.	8ee\	-mó-	.
4.AAA#/ 4.AA#	8c#/L 8d# 8f##X	.	.	.	.	.	.	.	.	.	.	.	.	.	.	.	4.f##X/	-wi-	.
.	8c#/ 8d# 8f##	.	.	.	.	.	.	.	.	.	.	.	.	.	.	.	.	.	.
.	8c#/ 8d# 8f##	.	.	.	.	.	.	.	.	.	.	.	.	.	.	.	.	.	.
8BBB/ 8BB	8B/J 8d# 8g#	.	.	.	.	.	.	.	.	.	.	.	.	.	.	.	8g#/	-ła	.
=100	=100	=100	=100	=100	=100	=100	=100	=100	=100	=100	=100	=100	=100	=100	=100	=100	=100	=100	=100
4.CC#/ 4.C#	8B/L 8e 8g# 8b	.	1ryy	.	1ryy	.	.	1ryy	.	.	1ryy	.	.	1ryy	.	.	8b\	dzi-	.
.	8A#X/J 8e 8g# 8a#X	.	.	.	.	.	.	.	.	.	.	.	.	.	.	.	8a#X/	-siaj	.
.	8G#/L 8A# 8e	.	.	.	.	.	.	.	.	.	.	.	.	.	.	.	8e/	do	.
8AAA#X/ 8AA#X	8G#/J 8c##X 8e#X	.	.	.	.	.	.	.	.	.	.	.	.	.	.	.	8b\	mej	.
4.DD#/ 4.D#	8F##X/L 8cn 8d#X 8f##X	.	.	.	.	.	.	.	.	.	.	.	.	.	.	.	4a#/	du-	.
.	8F##/J 8c 8d#X 8f##	.	.	.	.	.	.	.	.	.	.	.	.	.	.	.	.	.	.
.	8F##/L 8A# 8d#	.	.	.	.	.	.	.	.	.	.	.	.	.	.	.	4d#/	-szy	.
8CC#/ 8C#	8F##/J 8A# 8d#	.	.	.	.	.	.	.	.	.	.	.	.	.	.	.	.	.	.
=101	=101	=101	=101	=101	=101	=101	=101	=101	=101	=101	=101	=101	=101	=101	=101	=101	=101	=101	=101
!	!	!	!	!	!	!	!	!	!	!	!LO:TX:a:t=Silva.	!	!	!	!	!	!	!	!
2.BBB/ 2.BB	8G#/L 8d# 8g#	.	1ryy	.	1ryy	.	.	1ryy	.	.	2r	.	.	1ryy	.	.	1ryy	.	.
.	8G#/ 8d#	<	.	.	.	.	.	.	.	.	.	.	.	.	.	.	.	.	.
.	8G#/ 8c##X	.	.	.	.	.	.	.	.	.	.	.	.	.	.	.	.	.	.
.	8G#/J 8c## 8en	.	.	.	.	.	.	.	.	.	.	.	.	.	.	.	.	.	.
.	8G#/L 8d#	[	.	.	.	.	.	.	.	.	8r	.	.	.	.	.	.	.	.
!	!	!	!	!	!	!	!	!	!	!	!LO:TX:a:t=(do siebie)	!	!	!	!	!	!	!	!
.	8G#/ 8d#	.	.	.	.	.	.	.	.	.	8D#\	W jej	.	.	.	.	.	.	.
!	!LO:N:n=3:acc=n#	!	!	!	!	!	!	!	!	!	!	!	!	!	!	!	!	!	!
8BBB#X/L 8BB#X	8G#/ 8d# 8f#X	.	.	.	.	.	.	.	.	.	8F#\	gło-	.	.	.	.	.	.	.
!	!LO:N:n=2:acc=n#	!	!	!	!	!	!	!	!	!	!	!	!	!	!	!	!	!	!
8CC#/J 8C#	8G#/J 8c#X 8e	.	.	.	.	.	.	.	.	.	8E\	-sie	.	.	.	.	.	.	.
!!LO:LB:g=original	!	!	!	!	!	!	!	!	!	!	!	!	!	!	!	!	!	!	!
=102	=102	=102	=102	=102	=102	=102	=102	=102	=102	=102	=102	=102	=102	=102	=102	=102	=102	=102	=102
4.EE/ 4.E	8G#/L 8c#	.	1ryy	.	1ryy	.	.	1ryy	.	.	4.C#/	czu-	.	1ryy	.	.	1ryy	.	.
.	8G#/ 8c#	.	.	.	.	.	.	.	.	.	.	.	.	.	.	.	.	.	.
.	8G#/ 8c#	.	.	.	.	.	.	.	.	.	.	.	.	.	.	.	.	.	.
8DD#/ 8D#	8G#/J 8B#X 8d#	.	.	.	.	.	.	.	.	.	8D#\	-ję	.	.	.	.	.	.	.
2CC#/ 2C#	8G#/L 8c# 8e	.	.	.	.	.	.	.	.	.	(8E\L	drże-	.	.	.	.	.	.	.
.	8G#/ 8c# 8d#	.	.	.	.	.	.	.	.	.	8D#\J)	.	.	.	.	.	.	.	.
.	8G#/ 8c# 8e	.	.	.	.	.	.	.	.	.	8E\	-nie	.	.	.	.	.	.	.
.	8An/J 8e 8an	.	.	.	.	.	.	.	.	.	8An\	ka-	.	.	.	.	.	.	.
=103	=103	=103	=103	=103	=103	=103	=103	=103	=103	=103	=103	=103	=103	=103	=103	=103	=103	=103	=103
2BBBn/ 2BBn	8Bn/L 8dn 8g#	.	1ryy	.	1ryy	.	.	1ryy	.	.	(4G#\	-tu-	.	1ryy	.	.	1ryy	.	.
.	8B/J 8d 8g#	.	.	.	.	.	.	.	.	.	.	.	.	.	.	.	.	.	.
.	8B/L 8d 8a	.	.	.	.	.	.	.	.	.	8A\L	.	.	.	.	.	.	.	.
.	8B/J 8d 8b	.	.	.	.	.	.	.	.	.	8B\J)	.	.	.	.	.	.	.	.
*	*clefF4	*	*	*	*	*	*	*	*	*	*	*	*	*	*	*	*	*	*
4.BBB/ 4.BB	8E#X\L 8G# 8c#	.	.	.	.	.	.	.	.	.	4.C#/	-szy	.	.	.	.	.	.	.
.	8E#\ 8G# 8c#	.	.	.	.	.	.	.	.	.	.	.	.	.	.	.	.	.	.
.	8E#\ 8G# 8c#	.	.	.	.	.	.	.	.	.	.	.	.	.	.	.	.	.	.
8AAA/ 8AA	8F#\J 8A 8dn	.	.	.	.	.	.	.	.	.	8Dn\	A	.	.	.	.	.	.	.
=104	=104	=104	=104	=104	=104	=104	=104	=104	=104	=104	=104	=104	=104	=104	=104	=104	=104	=104	=104
2GGG#/ 2GG#	8B\L 8dn 8a	.	1ryy	.	1ryy	.	.	1ryy	.	.	8A\	o-	.	1ryy	.	.	1ryy	.	.
.	8B\J 8d 8g#	.	.	.	.	.	.	.	.	.	8G#\	-czy	.	.	.	.	.	.	.
.	8F#\L 8B 8d	.	.	.	.	.	.	.	.	.	8Dn\	błę-	.	.	.	.	.	.	.
.	8F#\J 8B#X 8d#X	.	.	.	.	.	.	.	.	.	8A\	-dne	.	.	.	.	.	.	.
2CC#/ 2C#	8E#X\L 8Bn 8e#X	>	.	.	.	.	.	.	.	.	4G#\	to-	.	.	.	.	.	.	.
.	8E#\J 8B 8e#	.	.	.	.	.	.	.	.	.	.	.	.	.	.	.	.	.	.
.	8E#\L 8B 8c#	.	.	.	.	.	.	.	.	.	8.C#/	-czy	.	.	.	.	.	.	.
.	8E#\J 8B 8c#	]	.	.	.	.	.	.	.	.	.	.	.	.	.	.	.	.	.
.	.	.	.	.	.	.	.	.	.	.	16BB/	do	.	.	.	.	.	.	.
=105	=105	=105	=105	=105	=105	=105	=105	=105	=105	=105	=105	=105	=105	=105	=105	=105	=105	=105	=105
4FF#/ 4C#	4F#\ 4A 4c#	.	1ryy	.	1ryy	.	.	1ryy	.	.	(8AA/L	ko-	.	1ryy	.	.	1ryy	.	.
.	.	.	.	.	.	.	.	.	.	.	8EE#X/J)	.	.	.	.	.	.	.	.
4r	4r	.	.	.	.	.	.	.	.	.	2FF#/	-ła.	.	.	.	.	.	.	.
8r	2r	p	.	.	.	.	.	.	.	.	.	.	.	.	.	.	.	.	.
(8EEE#X/L 8EE#X	.	.	.	.	.	.	.	.	.	.	.	.	.	.	.	.	.	.	.
8FFF#/ 8FF#	.	.	.	.	.	.	.	.	.	.	4r	.	.	.	.	.	.	.	.
8AAA/J 8AA	.	.	.	.	.	.	.	.	.	.	.	.	.	.	.	.	.	.	.
!!LO:LB:g=original	!	!	!	!	!	!	!	!	!	!	!	!	!	!	!	!	!	!	!
=106	=106	=106	=106	=106	=106	=106	=106	=106	=106	=106	=106	=106	=106	=106	=106	=106	=106	=106	=106
!	!	!	!	!	!	!	!	!	!	!	!	!	!	!LO:TX:a:t=Selene.	!	!	!	!	!
4.DDn/ 4.Dn	1r	<	1ryy	.	1ryy	.	.	1ryy	.	.	1r	.	.	1r	.	.	1ryy	.	.
8CC#/ 8C#	.	.	.	.	.	.	.	.	.	.	.	.	.	.	.	.	.	.	.
4FFF#/) 4FF#	.	[[	.	.	.	.	.	.	.	.	.	.	.	.	.	.	.	.	.
(8AA/L 8A	.	>	.	.	.	.	.	.	.	.	.	.	.	.	.	.	.	.	.
8GG#/J) 8G#	.	]]	.	.	.	.	.	.	.	.	.	.	.	.	.	.	.	.	.
*	*clefG2	*	*	*	*	*	*	*	*	*	*	*	*	*	*	*	*	*	*
=107	=107	=107	=107	=107	=107	=107	=107	=107	=107	=107	=107	=107	=107	=107	=107	=107	=107	=107	=107
2GGn/ 2Gn	2A/ 2c# 2e	]	1ryy	.	1ryy	.	.	1ryy	.	.	1r	.	.	4r	.	.	1ryy	.	.
!	!	!	!	!	!	!	!	!	!	!	!	!	!	!	!	!LO:DY:a	!	!	!
.	.	.	.	.	.	.	.	.	.	.	.	.	.	2cc#\	Chcesz	p	.	.	.
2EE/ 2E	2B/ 2dn 2gn	.	.	.	.	.	.	.	.	.	.	.	.	.	.	.	.	.	.
.	.	.	.	.	.	.	.	.	.	.	.	.	.	8.ddn\	in-	.	.	.	.
.	.	.	.	.	.	.	.	.	.	.	.	.	.	16b\	-nej	.	.	.	.
=108	=108	=108	=108	=108	=108	=108	=108	=108	=108	=108	=108	=108	=108	=108	=108	=108	=108	=108	=108
(2AAA/ 2AA	(2c#/ 2gn 2b	.	1ryy	.	1ryy	.	.	1ryy	.	.	1r	.	.	4ff#\	pie-	.	1ryy	.	.
.	.	.	.	.	.	.	.	.	.	.	.	.	.	4ee\	-śni?	.	.	.	.
4BBB/ 4BB	4dn/ 4f# 4a	.	.	.	.	.	.	.	.	.	.	.	.	2r	.	.	.	.	.
4CC#/) 4C#	4B/) 4e 4g	.	.	.	.	.	.	.	.	.	.	.	.	.	.	.	.	.	.
=109	=109	=109	=109	=109	=109	=109	=109	=109	=109	=109	=109	=109	=109	=109	=109	=109	=109	=109	=109
!	!	!	!	!	!	!	!	!	!	!	!LO:TX:a:t=Silva.	!	!	!	!	!	!	!	!
2DDn/ 2Dn	2A/ 2dn 2f#	.	1ryy	.	1ryy	.	.	1ryy	.	.	4r	.	.	1ryy	.	.	2ryy	.	.
.	.	.	.	.	.	.	.	.	.	.	4.F#\	Chcesz	.	.	.	.	.	.	.
4BBB/ 4BB	4B/ 4d 4f#	.	.	.	.	.	.	.	.	.	.	.	.	.	.	.	4ryy	.	.
.	.	.	.	.	.	.	.	.	.	.	8F#\	Ly-	.	.	.	.	.	.	.
4EE/ 4E	4B/ 4d 4gn	.	.	.	.	.	.	.	.	.	8Gn\	-ko-	.	.	.	.	4ryy	.	.
.	.	.	.	.	.	.	.	.	.	.	8E\	-na	.	.	.	.	.	.	.
=110	=110	=110	=110	=110	=110	=110	=110	=110	=110	=110	=110	=110	=110	=110	=110	=110	=110	=110	=110
4CC#/ 4C#	4B/ 4dn 4e#X 4g#X	>	1ryy	.	1ryy	.	.	1ryy	.	.	4B\	lu-	.	1ryy	.	.	4ryy	.	.
4FFF#/ 4FF#	4A#X/ 4c# 4f# 4a#X	]	.	.	.	.	.	.	.	.	4A#X\	-tni?	.	.	.	.	4ryy	.	.
2r	2r	.	.	.	.	.	.	.	.	.	4r	.	.	.	.	.	4ryy	.	.
.	.	.	.	.	.	.	.	.	.	.	4ryy	.	.	.	.	.	8r	.	.
!	!	!	!	!	!	!	!	!	!	!	!	!	!	!	!	!	!LO:TX:a:t=Livia.	!	!
.	.	.	.	.	.	.	.	.	.	.	.	.	.	.	.	.	8ff#\	Ly-	.
=111	=111	=111	=111	=111	=111	=111	=111	=111	=111	=111	=111	=111	=111	=111	=111	=111	=111	=111	=111
1r;	1r;	.	1ryy	.	1ryy	.	.	1ryy	.	.	1ryy	.	.	1ryy	.	.	2ff#\	-ko-	.
.	.	.	.	.	.	.	.	.	.	.	.	.	.	.	.	.	4f#/	-na?	.
.	.	.	.	.	.	.	.	.	.	.	.	.	.	.	.	.	4r;	.	.
!!LO:LB:g=original	!	!	!	!	!	!	!	!	!	!	!	!	!	!	!	!	!	!	!
=112||	=112||	=112||	=112||	=112||	=112||	=112||	=112||	=112||	=112||	=112||	=112||	=112||	=112||	=112||	=112||	=112||	=112||	=112||	=112||
8r	8r	.	1ryy	.	1ryy	.	.	1ryy	.	.	1ryy	.	.	1ryy	.	.	1r	.	.
!	!LO:TX:a:B:t=Allegro.	!	!	!	!	!	!	!	!	!	!	!	!	!	!	!	!	!	!
4BBB^^/ 4BB	4f#^^\ 4an 4dd#X 4ff#	f	.	.	.	.	.	.	.	.	.	.	.	.	.	.	.	.	.
4BBB^^/ 4BB	4f#^^/ 4a 4b 4dd#	.	.	.	.	.	.	.	.	.	.	.	.	.	.	.	.	.	.
16BBB/LL 16BB	16f#\LL 16a 16dd# 16ff#	.	.	.	.	.	.	.	.	.	.	.	.	.	.	.	.	.	.
16BBB/JJ 16BB	16f#\JJ 16a 16dd#	.	.	.	.	.	.	.	.	.	.	.	.	.	.	.	.	.	.
8BBB/L 8BB	8f#\L 8a 8dd# 8ff#	.	.	.	.	.	.	.	.	.	.	.	.	.	.	.	.	.	.
8BBB/J 8BB	8e\J 8gn 8b 8ee	.	.	.	.	.	.	.	.	.	.	.	.	.	.	.	.	.	.
=113	=113	=113	=113	=113	=113	=113	=113	=113	=113	=113	=113	=113	=113	=113	=113	=113	=113	=113	=113
!	!	!	!	!	!	!	!	!	!	!	!	!	!	!	!	!	!LO:TX:a:t=(do siebie)	!	!
8r	8r	.	1ryy	.	1ryy	.	.	1ryy	.	.	1ryy	.	.	1ryy	.	.	1r	.	.
4BBB^^/ 4BB	4gn^^\ 4b 4ee 4ggn	.	.	.	.	.	.	.	.	.	.	.	.	.	.	.	.	.	.
4CCn^^/ 4Cn	4e^^/ 4g 4ccn 4ee	.	.	.	.	.	.	.	.	.	.	.	.	.	.	.	.	.	.
16AAA/LL 16AA	16g\LL 16cc 16ee 16gg	.	.	.	.	.	.	.	.	.	.	.	.	.	.	.	.	.	.
16AAA/JJ 16AA	16f#\JJ 16cc 16ee 16ff#	.	.	.	.	.	.	.	.	.	.	.	.	.	.	.	.	.	.
8AAA/L 8AA	8g\L 8cc 8ee 8gg	.	.	.	.	.	.	.	.	.	.	.	.	.	.	.	.	.	.
8FFF#/J 8FF#	8a\J 8cc 8ee 8aa	.	.	.	.	.	.	.	.	.	.	.	.	.	.	.	.	.	.
*kcancel	*kcancel	*	*kcancel	*	*kcancel	*	*	*kcancel	*	*	*kcancel	*	*	*kcancel	*	*	*kcancel	*	*
=114||	=114||	=114||	=114||	=114||	=114||	=114||	=114||	=114||	=114||	=114||	=114||	=114||	=114||	=114||	=114||	=114||	=114||	=114||	=114||
*k[f#]	*k[f#]	*	*yyk[f#]	*	*yyk[f#]	*	*	*yyk[f#]	*	*	*k[f#]	*	*	*k[f#]	*	*	*k[f#]	*	*
!!LO:TX:t=P:problem: kasowniki po f#	!	!	!	!	!	!	!	!	!	!	!	!	!	!	!	!	!	!	!
!	!	!	!	!	!	!	!	!	!	!	!	!	!	!	!	!	!LO:TX:a:B:t=Meno mosso.	!	!
8BBB^^/ 8BB	8b^^\ 8dd#X 8ff# 8bb	.	1ryy	.	1ryy	.	.	1ryy	.	.	1ryy	.	.	1ryy	.	.	4r	.	.
8r	8r	.	.	.	.	.	.	.	.	.	.	.	.	.	.	.	.	.	.
!	!	!	!	!	!	!	!	!	!	!	!	!	!	!	!	!	!	!	!LO:DY:a
*	*Xbrackettup	*	*	*	*	*	*	*	*	*	*	*	*	*	*	*	*	*	*
!	!LO:TUP:r=8	!	!	!	!	!	!	!	!	!	!	!	!	!	!	!	!	!	!
4r	(24f#/LL	p	.	.	.	.	.	.	.	.	.	.	.	.	.	.	2b\	O-	p
.	24d#X/	.	.	.	.	.	.	.	.	.	.	.	.	.	.	.	.	.	.
.	24B/	.	.	.	.	.	.	.	.	.	.	.	.	.	.	.	.	.	.
!	!LO:TUP:r=8	!	!	!	!	!	!	!	!	!	!	!	!	!	!	!	!	!	!
.	24A#X/	.	.	.	.	.	.	.	.	.	.	.	.	.	.	.	.	.	.
.	24B/	.	.	.	.	.	.	.	.	.	.	.	.	.	.	.	.	.	.
.	24d#/JJ)	.	.	.	.	.	.	.	.	.	.	.	.	.	.	.	.	.	.
!	!LO:TUP:r=8	!	!	!	!	!	!	!	!	!	!	!	!	!	!	!	!	!	!
2BB\ 2F#	(24f#/LL	.	.	.	.	.	.	.	.	.	.	.	.	.	.	.	.	.	.
.	24d#/	.	.	.	.	.	.	.	.	.	.	.	.	.	.	.	.	.	.
.	24B/	.	.	.	.	.	.	.	.	.	.	.	.	.	.	.	.	.	.
.	24A#/	.	.	.	.	.	.	.	.	.	.	.	.	.	.	.	.	.	.
.	24B/	.	.	.	.	.	.	.	.	.	.	.	.	.	.	.	.	.	.
.	24d#/JJ)	.	.	.	.	.	.	.	.	.	.	.	.	.	.	.	.	.	.
!	!LO:TUP:r=8	!	!	!	!	!	!	!	!	!	!	!	!	!	!	!	!	!	!
.	(24f#/LL	.	.	.	.	.	.	.	.	.	.	.	.	.	.	.	8.a/	-tchłań	.
.	24d#/	.	.	.	.	.	.	.	.	.	.	.	.	.	.	.	.	.	.
.	24B/	.	.	.	.	.	.	.	.	.	.	.	.	.	.	.	.	.	.
.	24A#/	.	.	.	.	.	.	.	.	.	.	.	.	.	.	.	.	.	.
.	24B/	.	.	.	.	.	.	.	.	.	.	.	.	.	.	.	.	.	.
.	.	.	.	.	.	.	.	.	.	.	.	.	.	.	.	.	16f#/	cier-	.
.	24d#/JJ)	.	.	.	.	.	.	.	.	.	.	.	.	.	.	.	.	.	.
!!LO:PB:g=original	!	!	!	!	!	!	!	!	!	!	!	!	!	!	!	!	!	!	!
=115	=115	=115	=115	=115	=115	=115	=115	=115	=115	=115	=115	=115	=115	=115	=115	=115	=115	=115	=115
!	!LO:TUP:r=8	!	!	!	!	!	!	!	!	!	!	!	!	!	!	!	!	!	!
2.BB\ 2.E 2.An	(24an/LL	.	1ryy	.	1ryy	.	.	1ryy	.	.	1ryy	.	.	1ryy	.	.	2cc\	-pie-	.
.	24e/	.	.	.	.	.	.	.	.	.	.	.	.	.	.	.	.	.	.
.	24c/	.	.	.	.	.	.	.	.	.	.	.	.	.	.	.	.	.	.
.	24B/	.	.	.	.	.	.	.	.	.	.	.	.	.	.	.	.	.	.
.	24c/	.	.	.	.	.	.	.	.	.	.	.	.	.	.	.	.	.	.
.	24e/JJ)	.	.	.	.	.	.	.	.	.	.	.	.	.	.	.	.	.	.
!	!LO:TUP:r=8	!	!	!	!	!	!	!	!	!	!	!	!	!	!	!	!	!	!
.	(24a/LL	.	.	.	.	.	.	.	.	.	.	.	.	.	.	.	.	.	.
.	24e/	.	.	.	.	.	.	.	.	.	.	.	.	.	.	.	.	.	.
.	24c/	.	.	.	.	.	.	.	.	.	.	.	.	.	.	.	.	.	.
.	24B/	.	.	.	.	.	.	.	.	.	.	.	.	.	.	.	.	.	.
.	24c/	.	.	.	.	.	.	.	.	.	.	.	.	.	.	.	.	.	.
.	24e/JJ)	.	.	.	.	.	.	.	.	.	.	.	.	.	.	.	.	.	.
!	!LO:TUP:r=8	!	!	!	!	!	!	!	!	!	!	!	!	!	!	!	!	!	!
.	(24a/LL	.	.	.	.	.	.	.	.	.	.	.	.	.	.	.	4a/	-nia	.
.	24e/	.	.	.	.	.	.	.	.	.	.	.	.	.	.	.	.	.	.
.	24c/	.	.	.	.	.	.	.	.	.	.	.	.	.	.	.	.	.	.
.	24B/	.	.	.	.	.	.	.	.	.	.	.	.	.	.	.	.	.	.
.	24c/	.	.	.	.	.	.	.	.	.	.	.	.	.	.	.	.	.	.
.	24e/JJ)	.	.	.	.	.	.	.	.	.	.	.	.	.	.	.	.	.	.
!	!LO:TUP:r=8	!	!	!	!	!	!	!	!	!	!	!	!	!	!	!	!	!	!
4r	(24a/LL	.	.	.	.	.	.	.	.	.	.	.	.	.	.	.	4r	.	.
.	24e/	.	.	.	.	.	.	.	.	.	.	.	.	.	.	.	.	.	.
.	24c/	.	.	.	.	.	.	.	.	.	.	.	.	.	.	.	.	.	.
.	24B/	.	.	.	.	.	.	.	.	.	.	.	.	.	.	.	.	.	.
.	24c/	.	.	.	.	.	.	.	.	.	.	.	.	.	.	.	.	.	.
.	24e/JJ)	.	.	.	.	.	.	.	.	.	.	.	.	.	.	.	.	.	.
=116	=116	=116	=116	=116	=116	=116	=116	=116	=116	=116	=116	=116	=116	=116	=116	=116	=116	=116	=116
*	*Xtuplet	*	*	*	*	*	*	*	*	*	*	*	*	*	*	*	*	*	*
2BB\ 2F#	(24a/LL	.	1ryy	.	1ryy	.	.	1ryy	.	.	1ryy	.	.	1ryy	.	.	4dd#X\	w ser-	.
.	24d#X/	.	.	.	.	.	.	.	.	.	.	.	.	.	.	.	.	.	.
.	24B/	.	.	.	.	.	.	.	.	.	.	.	.	.	.	.	.	.	.
.	24A/	.	.	.	.	.	.	.	.	.	.	.	.	.	.	.	.	.	.
.	24B/	.	.	.	.	.	.	.	.	.	.	.	.	.	.	.	.	.	.
.	24d#/JJ)	.	.	.	.	.	.	.	.	.	.	.	.	.	.	.	.	.	.
.	(24f#/LL	.	.	.	.	.	.	.	.	.	.	.	.	.	.	.	8.g#X/	-cu	.
.	24d#/	.	.	.	.	.	.	.	.	.	.	.	.	.	.	.	.	.	.
.	24B/	.	.	.	.	.	.	.	.	.	.	.	.	.	.	.	.	.	.
.	24A/	.	.	.	.	.	.	.	.	.	.	.	.	.	.	.	.	.	.
.	24B/	.	.	.	.	.	.	.	.	.	.	.	.	.	.	.	.	.	.
.	.	.	.	.	.	.	.	.	.	.	.	.	.	.	.	.	16a/	o-	.
.	24d#/JJ)	.	.	.	.	.	.	.	.	.	.	.	.	.	.	.	.	.	.
2BB\ 2E 2G	(24g/LL	.	.	.	.	.	.	.	.	.	.	.	.	.	.	.	4ee\	-twar-	.
.	24e/	.	.	.	.	.	.	.	.	.	.	.	.	.	.	.	.	.	.
.	24B/	.	.	.	.	.	.	.	.	.	.	.	.	.	.	.	.	.	.
.	24A#X/	.	.	.	.	.	.	.	.	.	.	.	.	.	.	.	.	.	.
.	24B/	.	.	.	.	.	.	.	.	.	.	.	.	.	.	.	.	.	.
.	24e/JJ)	.	.	.	.	.	.	.	.	.	.	.	.	.	.	.	.	.	.
.	(24g/LL	.	.	.	.	.	.	.	.	.	.	.	.	.	.	.	8.cc\	-ta	.
.	24e/	.	.	.	.	.	.	.	.	.	.	.	.	.	.	.	.	.	.
.	24B/	.	.	.	.	.	.	.	.	.	.	.	.	.	.	.	.	.	.
.	24A#/	.	.	.	.	.	.	.	.	.	.	.	.	.	.	.	.	.	.
.	24B/	.	.	.	.	.	.	.	.	.	.	.	.	.	.	.	.	.	.
.	.	.	.	.	.	.	.	.	.	.	.	.	.	.	.	.	16b\	na	.
.	24e/JJ)	.	.	.	.	.	.	.	.	.	.	.	.	.	.	.	.	.	.
!!LO:LB:g=original	!	!	!	!	!	!	!	!	!	!	!	!	!	!	!	!	!	!	!
=117	=117	=117	=117	=117	=117	=117	=117	=117	=117	=117	=117	=117	=117	=117	=117	=117	=117	=117	=117
2BBB/ 2BB	(<24g/LL	.	1ryy	.	1ryy	.	.	1ryy	.	.	1ryy	.	.	1ryy	.	.	4gg\	no-	.
.	24e/	.	.	.	.	.	.	.	.	.	.	.	.	.	.	.	.	.	.
.	24cn/	.	.	.	.	.	.	.	.	.	.	.	.	.	.	.	.	.	.
.	24A#X/	<	.	.	.	.	.	.	.	.	.	.	.	.	.	.	.	.	.
.	24c/	.	.	.	.	.	.	.	.	.	.	.	.	.	.	.	.	.	.
.	24e/JJ	.	.	.	.	.	.	.	.	.	.	.	.	.	.	.	.	.	.
.	24b/LL	.	.	.	.	.	.	.	.	.	.	.	.	.	.	.	4ff#\	-wo.	.
.	24f#/	.	.	.	.	.	.	.	.	.	.	.	.	.	.	.	.	.	.
.	24d#X/	.	.	.	.	.	.	.	.	.	.	.	.	.	.	.	.	.	.
.	24B/	.	.	.	.	.	.	.	.	.	.	.	.	.	.	.	.	.	.
.	24d#/	.	.	.	.	.	.	.	.	.	.	.	.	.	.	.	.	.	.
.	24f#/JJ	[	.	.	.	.	.	.	.	.	.	.	.	.	.	.	.	.	.
2r	8b\)	.	.	.	.	.	.	.	.	.	.	.	.	.	.	.	2r	.	.
.	8r	.	.	.	.	.	.	.	.	.	.	.	.	.	.	.	.	.	.
.	4r	.	.	.	.	.	.	.	.	.	.	.	.	.	.	.	.	.	.
=118	=118	=118	=118	=118	=118	=118	=118	=118	=118	=118	=118	=118	=118	=118	=118	=118	=118	=118	=118
(4.E\	2G</ 2B<	mf	1ryy	.	1ryy	.	.	1ryy	.	.	1ryy	.	.	1ryy	.	.	2r	.	.
8D\	.	.	.	.	.	.	.	.	.	.	.	.	.	.	.	.	.	.	.
!	!	!	!	!	!	!	!	!	!	!	!	!	!	!	!	!	!LO:TX:a:t=(głośno)	!	!
4.C\	2G</ 2c< 2e	<[	.	.	.	.	.	.	.	.	.	.	.	.	.	.	4r	.	.
.	.	.	.	.	.	.	.	.	.	.	.	.	.	.	.	.	4ee\	O-	.
8BB-X\)	.	.	.	.	.	.	.	.	.	.	.	.	.	.	.	.	.	.	.
=119	=119	=119	=119	=119	=119	=119	=119	=119	=119	=119	=119	=119	=119	=119	=119	=119	=119	=119	=119
[2AA\	2Fn</ 2c 2fn	.	1ryy	.	1ryy	.	.	1ryy	.	.	1ryy	.	.	1ryy	.	.	2ffn\	-dejdź-	.
8AA\L]	4ryy	.	.	.	.	.	.	.	.	.	.	.	.	.	.	.	4fn/	-cie!	.
(8GG\	.	.	.	.	.	.	.	.	.	.	.	.	.	.	.	.	.	.	.
8FFn\	4r	.	.	.	.	.	.	.	.	.	.	.	.	.	.	.	4r	.	.
8EE-X\J)	.	.	.	.	.	.	.	.	.	.	.	.	.	.	.	.	.	.	.
*kcancel	*kcancel	*	*kcancel	*	*kcancel	*	*	*kcancel	*	*	*kcancel	*	*	*kcancel	*	*	*kcancel	*	*
=120||	=120||	=120||	=120||	=120||	=120||	=120||	=120||	=120||	=120||	=120||	=120||	=120||	=120||	=120||	=120||	=120||	=120||	=120||	=120||
*k[]	*k[]	*	*yyk[]	*	*yyk[]	*	*	*yyk[]	*	*	*yyk[]	*	*	*k[]	*	*	*yyk[]	*	*
*M3/4	*M3/4	*	*yyM3/4	*	*yyM3/4	*	*	*yyM3/4	*	*	*yyM3/4	*	*	*M3/4	*	*	*yyM3/4	*	*
!	!LO:TX:a:B:t=Molto moderato.	!	!	!	!	!	!	!	!	!	!	!	!	!	!	!	!	!	!
!	!	!	!	!	!	!	!	!	!	!	!	!	!	!LO:N:vis=1	!	!	!	!	!
8DD-X/L 8AA-X	8r	p	2.ryy	.	2.ryy	.	.	2.ryy	.	.	2.ryy	.	.	2.r	.	.	2.r	.	.
*	*clefF4	*	*	*	*	*	*	*	*	*	*	*	*	*	*	*	*	*	*
8DD-/J 8AA-	8E\	.	.	.	.	.	.	.	.	.	.	.	.	.	.	.	.	.	.
8DD-/L 8AA-	8F\L	.	.	.	.	.	.	.	.	.	.	.	.	.	.	.	.	.	.
8DD-/J 8AA-	8G\J	.	.	.	.	.	.	.	.	.	.	.	.	.	.	.	.	.	.
8CC/L 8AA-	8F\L 8A-X	.	.	.	.	.	.	.	.	.	.	.	.	.	.	.	.	.	.
8CC/J 8C	8E\J 8G	.	.	.	.	.	.	.	.	.	.	.	.	.	.	.	.	.	.
=121	=121	=121	=121	=121	=121	=121	=121	=121	=121	=121	=121	=121	=121	=121	=121	=121	=121	=121	=121
!	!	!	!	!	!	!	!	!	!	!	!	!	!	!LO:TX:a:t=Selene	!	!	!	!	!
8FF/L 8C	8F\L 8A-X	.	2.ryy	.	2.ryy	.	.	2.ryy	.	.	2.ryy	.	.	4r	.	.	2.ryy	.	.
8FF/J 8C	8G\J 8B-X	.	.	.	.	.	.	.	.	.	.	.	.	.	.	.	.	.	.
*	*clefG2	*	*	*	*	*	*	*	*	*	*	*	*	*	*	*	*	*	*
8FF/L 8C	(16A-X/LL 16c	.	.	.	.	.	.	.	.	.	.	.	.	4cc\	Patrz!	.	.	.	.
.	16f/	.	.	.	.	.	.	.	.	.	.	.	.	.	.	.	.	.	.
8FF/J 8C	16c/	.	.	.	.	.	.	.	.	.	.	.	.	.	.	.	.	.	.
.	16d-X/JJ)	.	.	.	.	.	.	.	.	.	.	.	.	.	.	.	.	.	.
8FF/L 8C	8G/L 8e-X	.	.	.	.	.	.	.	.	.	.	.	.	8r	.	.	.	.	.
8FF/J 8C	8B-X/J 8c	.	.	.	.	.	.	.	.	.	.	.	.	8cc\	od-	.	.	.	.
!!LO:LB:g=original	!	!	!	!	!	!	!	!	!	!	!	!	!	!	!	!	!	!	!
=122	=122	=122	=122	=122	=122	=122	=122	=122	=122	=122	=122	=122	=122	=122	=122	=122	=122	=122	=122
8FF/L 8C	8A-X/L 8f	.	2.ryy	.	2.ryy	.	.	2.ryy	.	.	2.ryy	.	.	(4cc\	-cho-	.	2.ryy	.	.
8FF/J 8C	8A-/J 8c	.	.	.	.	.	.	.	.	.	.	.	.	.	.	.	.	.	.
8FF/L 8C	8F/L 8d-X	.	.	.	.	.	.	.	.	.	.	.	.	4ff\)	.	.	.	.	.
8FF/J 8C	8F/J 8A-	.	.	.	.	.	.	.	.	.	.	.	.	.	.	.	.	.	.
8FF/L 8C	8G/L 8e-X	.	.	.	.	.	.	.	.	.	.	.	.	4cc\	-dzą	.	.	.	.
8FF/J 8C	8B/J 8c	.	.	.	.	.	.	.	.	.	.	.	.	.	.	.	.	.	.
=123	=123	=123	=123	=123	=123	=123	=123	=123	=123	=123	=123	=123	=123	=123	=123	=123	=123	=123	=123
8FF/L 8C	8G/L 8e-X	.	2.ryy	.	2.ryy	.	.	2.ryy	.	.	2.ryy	.	.	(8ee-X\L	smut-	.	2.ryy	.	.
8FF/J 8C	8A-X/J 8d-X 8f	.	.	.	.	.	.	.	.	.	.	.	.	8dd-X\J)	.	.	.	.	.
8FF/L 8C	8c/L 8f 8a-X	.	.	.	.	.	.	.	.	.	.	.	.	4cc\	-ni	.	.	.	.
8FF/J 8C	8A-/J 8c 8en	.	.	.	.	.	.	.	.	.	.	.	.	.	.	.	.	.	.
8DDn/L 8Dn	8A-/L 8c 8f	.	.	.	.	.	.	.	.	.	.	.	.	4r	.	.	.	.	.
8DD/J 8D	8c/J 8f 8a-	.	.	.	.	.	.	.	.	.	.	.	.	.	.	.	.	.	.
=124	=124	=124	=124	=124	=124	=124	=124	=124	=124	=124	=124	=124	=124	=124	=124	=124	=124	=124	=124
8GG/L 8D	8Bn/L 8f 8g	.	2.ryy	.	2.ryy	.	.	2.ryy	.	.	2.ryy	.	.	4ff\	Pa-	.	2.ryy	.	.
8GG/J 8D	8An/J 8c	.	.	.	.	.	.	.	.	.	.	.	.	.	.	.	.	.	.
8GG/L 8D	8B/L 8d	.	.	.	.	.	.	.	.	.	.	.	.	4dd\	-ni	.	.	.	.
8GG/J 8D	8B/J 8d 8f	.	.	.	.	.	.	.	.	.	.	.	.	.	.	.	.	.	.
8GG/L 8D	8c/L 8f 8an	.	.	.	.	.	.	.	.	.	.	.	.	8r	.	.	.	.	.
8GG/J 8D	8B/J 8f 8g	.	.	.	.	.	.	.	.	.	.	.	.	8b\	daj	.	.	.	.
=125	=125	=125	=125	=125	=125	=125	=125	=125	=125	=125	=125	=125	=125	=125	=125	=125	=125	=125	=125
8CC/L 8GG 8E	8c/L 8e 8g	.	2.ryy	.	2.ryy	.	.	2.ryy	.	.	2.ryy	.	.	8.cc\	słu-	.	2.ryy	.	.
8CC/J 8GG 8D	8A/J 8B 8f	.	.	.	.	.	.	.	.	.	.	.	.	.	.	.	.	.	.
.	.	.	.	.	.	.	.	.	.	.	.	.	.	16dd\	-gom	.	.	.	.
8CC/L 8GG 8C	8G/L 8c 8e	.	.	.	.	.	.	.	.	.	.	.	.	4ee\	twym	.	.	.	.
8CC/J 8GG 8C	8d/ 8f	.	.	.	.	.	.	.	.	.	.	.	.	.	.	.	.	.	.
8CC/L 8GG 8C	8e/ 8g	.	.	.	.	.	.	.	.	.	.	.	.	8r	.	.	.	.	.
8CC/J 8GG 8C	8e/J 8g 8cc	.	.	.	.	.	.	.	.	.	.	.	.	8ee\	ży-	.	.	.	.
=126	=126	=126	=126	=126	=126	=126	=126	=126	=126	=126	=126	=126	=126	=126	=126	=126	=126	=126	=126
2.DD/ 2.D	2.c/ 2.f#X	.	2.ryy	.	2.ryy	.	.	2.ryy	.	.	2.ryy	.	.	(4ee\	-czli-	.	2.ryy	.	.
.	.	.	.	.	.	.	.	.	.	.	.	.	.	4f#X/)	.	.	.	.	.
.	.	.	.	.	.	.	.	.	.	.	.	.	.	4cc\	-we	.	.	.	.
=127	=127	=127	=127	=127	=127	=127	=127	=127	=127	=127	=127	=127	=127	=127	=127	=127	=127	=127	=127
8GG/L 8D	8c/L 8e	.	2.ryy	.	2.ryy	.	.	2.ryy	.	.	2.ryy	.	.	4cc\	sło-	.	2.ryy	.	.
8GG/J 8D	8A/J 8f#X	.	.	.	.	.	.	.	.	.	.	.	.	.	.	.	.	.	.
4GG/ 4D	4B/ 4g	.	.	.	.	.	.	.	.	.	.	.	.	4b\	-wa.	.	.	.	.
4r;	4r;	.	.	.	.	.	.	.	.	.	.	.	.	4r;	.	.	.	.	.
!!LO:LB:g=original	!	!	!	!	!	!	!	!	!	!	!	!	!	!	!	!	!	!	!
=128	=128	=128	=128	=128	=128	=128	=128	=128	=128	=128	=128	=128	=128	=128	=128	=128	=128	=128	=128
!	!	!	!	!	!	!	!	!	!	!	!	!	!	!	!	!	!LO:TX:a:t=(do Selene)	!	!
!	!	!	!	!	!	!	!	!	!	!	!	!	!	!	!	!	!LO:TX:a:t=Livia.	!	!LO:DY:a
2.r	2.r	.	2.ryy	.	2.ryy	.	.	2.ryy	.	.	2.ryy	.	.	2.ryy	.	.	2.dd\	Prze-	p
=129	=129	=129	=129	=129	=129	=129	=129	=129	=129	=129	=129	=129	=129	=129	=129	=129	=129	=129	=129
8GG/L 8D	8r	p	2.ryy	.	2.ryy	.	.	2.ryy	.	.	2.ryy	.	.	2.ryy	.	.	4b\	-bacz,	.
8GG/ 8D	8B/ 8d	.	.	.	.	.	.	.	.	.	.	.	.	.	.	.	.	.	.
8GG/ 8D	8G/L 8B	.	.	.	.	.	.	.	.	.	.	.	.	.	.	.	4r	.	.
8GG/ 8D	8A/ 8c	.	.	.	.	.	.	.	.	.	.	.	.	.	.	.	.	.	.
8GG/ 8D	8B/ 8d	.	.	.	.	.	.	.	.	.	.	.	.	.	.	.	8r	.	.
8GG/J 8D	8B/J 8g	.	.	.	.	.	.	.	.	.	.	.	.	.	.	.	8dd\	jam	.
=130	=130	=130	=130	=130	=130	=130	=130	=130	=130	=130	=130	=130	=130	=130	=130	=130	=130	=130	=130
4FFn/ 4D	4A/ 4d 4a	.	2.ryy	.	2.ryy	.	.	2.ryy	.	.	2.ryy	.	.	2.ryy	.	.	2.dd\	cho-	.
4r	4r	.	.	.	.	.	.	.	.	.	.	.	.	.	.	.	.	.	.
4r	4r	.	.	.	.	.	.	.	.	.	.	.	.	.	.	.	.	.	.
=131	=131	=131	=131	=131	=131	=131	=131	=131	=131	=131	=131	=131	=131	=131	=131	=131	=131	=131	=131
8FF/L 8D	8r	.	2.ryy	.	2.ryy	.	.	2.ryy	.	.	2.ryy	.	.	2.ryy	.	.	4a/	-ra	.
8FF/ 8D	8A/	.	.	.	.	.	.	.	.	.	.	.	.	.	.	.	.	.	.
8FF/ 8D	8A/L 8d	.	.	.	.	.	.	.	.	.	.	.	.	.	.	.	4r	.	.
8FF/ 8D	8A/ 8c#X	.	.	.	.	.	.	.	.	.	.	.	.	.	.	.	.	.	.
8FF/ 8D	8A/ 8d	.	.	.	.	.	.	.	.	.	.	.	.	.	.	.	4r	.	.
8FF/J 8D	8A/J 8d 8f	.	.	.	.	.	.	.	.	.	.	.	.	.	.	.	.	.	.
=132	=132	=132	=132	=132	=132	=132	=132	=132	=132	=132	=132	=132	=132	=132	=132	=132	=132	=132	=132
!	!	!	!	!	!	!	!	!	!	!	!	!	!	!	!	!	!LO:TX:a:t=(do niewolników)	!	!LO:DY:a
4DD/ 4D	4A/ 4d 4fn 4a	.	2.ryy	.	2.ryy	.	.	2.ryy	.	.	2.ryy	.	.	2.ryy	.	.	2.dd\	Dzięk	f
4r	4r	.	.	.	.	.	.	.	.	.	.	.	.	.	.	.	.	.	.
4r	4r	.	.	.	.	.	.	.	.	.	.	.	.	.	.	.	.	.	.
=133	=133	=133	=133	=133	=133	=133	=133	=133	=133	=133	=133	=133	=133	=133	=133	=133	=133	=133	=133
2.r	2.r	.	2.ryy	.	2.ryy	.	.	2.ryy	.	.	2.ryy	.	.	2.ryy	.	.	4a/	wam,	.
.	.	.	.	.	.	.	.	.	.	.	.	.	.	.	.	.	4r	.	.
.	.	.	.	.	.	.	.	.	.	.	.	.	.	.	.	.	8dd\	dzięk	.
.	.	.	.	.	.	.	.	.	.	.	.	.	.	.	.	.	8dd\	za	.
=134	=134	=134	=134	=134	=134	=134	=134	=134	=134	=134	=134	=134	=134	=134	=134	=134	=134	=134	=134
8BBB/L 8BB	8r	.	2.ryy	.	2.ryy	.	.	2.ryy	.	.	2.ryy	.	.	2.ryy	.	.	2.dd#X\	pie-	.
8BBB/ 8BB	8F#X/	.	.	.	.	.	.	.	.	.	.	.	.	.	.	.	.	.	.
8BBB/ 8BB	8F#/L 8A	.	.	.	.	.	.	.	.	.	.	.	.	.	.	.	.	.	.
8BBB/ 8BB	8F#/ 8B	[ <	.	.	.	.	.	.	.	.	.	.	.	.	.	.	.	.	.
8BBB/ 8BB	8A/ 8c	.	.	.	.	.	.	.	.	.	.	.	.	.	.	.	.	.	.
8BBB/J 8BB	8A/J 8c 8g	.	.	.	.	.	.	.	.	.	.	.	.	.	.	.	.	.	.
=135	=135	=135	=135	=135	=135	=135	=135	=135	=135	=135	=135	=135	=135	=135	=135	=135	=135	=135	=135
8BBB/L 8BB	8A/L 8d#X 8f#X	.	2.ryy	.	2.ryy	.	.	2.ryy	.	.	2.ryy	.	.	2.ryy	.	.	4b\	-nia!	.
8BBB/ 8BB	8A/J 8d#	.	.	.	.	.	.	.	.	.	.	.	.	.	.	.	.	.	.
8BBB/ 8BB	(>16B/LL 16e	.	.	.	.	.	.	.	.	.	.	.	.	.	.	.	4r	.	.
.	16d#/	.	.	.	.	.	.	.	.	.	.	.	.	.	.	.	.	.	.
8BBB/ 8BB	16e/	.	.	.	.	.	.	.	.	.	.	.	.	.	.	.	.	.	.
.	16f#/JJ)	.	.	.	.	.	.	.	.	.	.	.	.	.	.	.	.	.	.
8BBB/ 8BB	8c/L 8d# 8a	.	.	.	.	.	.	.	.	.	.	.	.	.	.	.	4r	.	.
8BBB/J 8BB	8B/J 8d# 8g	.	.	.	.	.	.	.	.	.	.	.	.	.	.	.	.	.	.
!!LO:LB:g=original	!	!	!	!	!	!	!	!	!	!	!	!	!	!	!	!	!	!	!
=136||	=136||	=136||	=136||	=136||	=136||	=136||	=136||	=136||	=136||	=136||	=136||	=136||	=136||	=136||	=136||	=136||	=136||	=136||	=136||
*k[f#]	*k[f#]	*	*yyk[f#]	*	*yyk[f#]	*	*	*yyk[f#]	*	*	*yyk[f#]	*	*	*yyk[f#]	*	*	*yyk[f#]	*	*
!	!LO:TX:a:B:t=Più mosso.	!	!	!	!	!	!	!	!	!	!	!	!	!	!	!	!	!	!
8BBB/L 8BB	8A/L 8d#X 8f#	.	2.ryy	.	2.ryy	.	.	2.ryy	.	.	2.ryy	.	.	2.ryy	.	.	2.ryy	.	.
8BB/J 8F#	8B/J 8d#	.	.	.	.	.	.	.	.	.	.	.	.	.	.	.	.	.	.
8BB\L 8F#	8c/L 8e	.	.	.	.	.	.	.	.	.	.	.	.	.	.	.	.	.	.
8BB\J 8F#	8B/J 8d#	.	.	.	.	.	.	.	.	.	.	.	.	.	.	.	.	.	.
8BB\L 8F#	8d#/L 8f#	.	.	.	.	.	.	.	.	.	.	.	.	.	.	.	.	.	.
8BB\J 8F#	8d#/J 8g	.	.	.	.	.	.	.	.	.	.	.	.	.	.	.	.	.	.
=137	=137	=137	=137	=137	=137	=137	=137	=137	=137	=137	=137	=137	=137	=137	=137	=137	=137	=137	=137
*	*^	*	*	*	*	*	*	*	*	*	*	*	*	*	*	*	*	*	*
8BB\L 8F#	8d#X/L 8a	4ryy	.	2.ryy	.	2.ryy	.	.	2.ryy	.	.	2.ryy	.	.	2.ryy	.	.	2.ryy	.	.
8BB\ 8F#	8d#/J 8cc	.	.	.	.	.	.	.	.	.	.	.	.	.	.	.	.	.	.	.
8BB\ 8F#	(16cc/LL	8d#\L	<	.	.	.	.	.	.	.	.	.	.	.	.	.	.	.	.	.
.	16b/	.	.	.	.	.	.	.	.	.	.	.	.	.	.	.	.	.	.	.
8BB\ 8F#	16cc/	8d#\J	.	.	.	.	.	.	.	.	.	.	.	.	.	.	.	.	.	.
.	16dd/JJ)	.	.	.	.	.	.	.	.	.	.	.	.	.	.	.	.	.	.	.
8BB\ 8F#	8f#/L 8a 8ee	4ryy	[	.	.	.	.	.	.	.	.	.	.	.	.	.	.	.	.	.
8BB\J 8F#	8f#/J 8a 8dd#X	.	.	.	.	.	.	.	.	.	.	.	.	.	.	.	.	.	.	.
*	*v	*v	*	*	*	*	*	*	*	*	*	*	*	*	*	*	*	*	*	*
=138	=138	=138	=138	=138	=138	=138	=138	=138	=138	=138	=138	=138	=138	=138	=138	=138	=138	=138	=138
8BB\L 8G	8e/L 8g 8ddn	mf	2.ryy	.	2.ryy	.	.	2.ryy	.	.	2.ryy	.	.	2.ryy	.	.	2.ryy	.	.
8BB\ 8G	8e/J 8g 8cc	.	.	.	.	.	.	.	.	.	.	.	.	.	.	.	.	.	.
8BB\ 8G	8e/L 8g 8b	.	.	.	.	.	.	.	.	.	.	.	.	.	.	.	.	.	.
8BB\J 8G	8d#X/J 8f#	.	.	.	.	.	.	.	.	.	.	.	.	.	.	.	.	.	.
8BB\L 8G 8B	8e/L 8g	.	.	.	.	.	.	.	.	.	.	.	.	.	.	.	.	.	.
8BB\J 8G 8B	8e/J 8g 8a	.	.	.	.	.	.	.	.	.	.	.	.	.	.	.	.	.	.
=139	=139	=139	=139	=139	=139	=139	=139	=139	=139	=139	=139	=139	=139	=139	=139	=139	=139	=139	=139
8BB\L 8G 8B	8e/L 8g 8b	.	2.ryy	.	2.ryy	.	.	2.ryy	.	.	2.ryy	.	.	2.ryy	.	.	2.ryy	.	.
8BB\ 8G 8B	8g/J 8b 8dd#X	.	.	.	.	.	.	.	.	.	.	.	.	.	.	.	.	.	.
!	!	!LO:HP:b:t=sempre cresc.	!	!	!	!	!	!	!	!	!	!	!	!	!	!	!	!	!
8BB\ 8G 8B	(16g\LL 16b 16ee	<	.	.	.	.	.	.	.	.	.	.	.	.	.	.	.	.	.
.	16gg\	.	.	.	.	.	.	.	.	.	.	.	.	.	.	.	.	.	.
8BB\ 8G 8B	16g\ 16b 16ff#	.	.	.	.	.	.	.	.	.	.	.	.	.	.	.	.	.	.
.	16dd#\JJ)	.	.	.	.	.	.	.	.	.	.	.	.	.	.	.	.	.	.
8BB\ 8G 8B	8g\L 8b 8ff#	.	.	.	.	.	.	.	.	.	.	.	.	.	.	.	.	.	.
8BB\J 8G 8B	8g\J 8b 8ee	.	.	.	.	.	.	.	.	.	.	.	.	.	.	.	.	.	.
=140	=140	=140	=140	=140	=140	=140	=140	=140	=140	=140	=140	=140	=140	=140	=140	=140	=140	=140	=140
8BB\L 8G 8B	8e/L 8g 8cc	.	2.ryy	.	2.ryy	.	.	2.ryy	.	.	2.ryy	.	.	2.ryy	.	.	2.ryy	.	.
8BB\ 8G 8B	8e/J 8g 8b	.	.	.	.	.	.	.	.	.	.	.	.	.	.	.	.	.	.
8BB\ 8G 8B	8g\L 8b 8ee	.	.	.	.	.	.	.	.	.	.	.	.	.	.	.	.	.	.
8BB\ 8G 8B	8b\J 8ee 8ff#	.	.	.	.	.	.	.	.	.	.	.	.	.	.	.	.	.	.
8BB\ 8G 8B	8b\L 8ee 8gg	.	.	.	.	.	.	.	.	.	.	.	.	.	.	.	.	.	.
8BB\J 8G 8B	8b\J 8ee 8aa	.	.	.	.	.	.	.	.	.	.	.	.	.	.	.	.	.	.
!!LO:LB:g=original	!	!	!	!	!	!	!	!	!	!	!	!	!	!	!	!	!	!	!
=141	=141	=141	=141	=141	=141	=141	=141	=141	=141	=141	=141	=141	=141	=141	=141	=141	=141	=141	=141
8BB\L 8G 8B	8b\L 8ee 8bb	.	2.ryy	.	2.ryy	.	.	2.ryy	.	.	2.ryy	.	.	2.ryy	.	.	2.ryy	.	.
8BB\ 8G 8B	8b\J 8ee 8ff#	.	.	.	.	.	.	.	.	.	.	.	.	.	.	.	.	.	.
8BB\ 8G 8B	(16g\LL 16b 16gg	.	.	.	.	.	.	.	.	.	.	.	.	.	.	.	.	.	.
.	16dd#X\	.	.	.	.	.	.	.	.	.	.	.	.	.	.	.	.	.	.
8BB\ 8G 8B	16g\ 16b 16ee	.	.	.	.	.	.	.	.	.	.	.	.	.	.	.	.	.	.
.	16ff#\JJ)	.	.	.	.	.	.	.	.	.	.	.	.	.	.	.	.	.	.
8BB\ 8G 8B	8g\L 8b 8gg	.	.	.	.	.	.	.	.	.	.	.	.	.	.	.	.	.	.
8BB\J 8G 8B	8g\J 8b 8ee	.	.	.	.	.	.	.	.	.	.	.	.	.	.	.	.	.	.
=142	=142	=142	=142	=142	=142	=142	=142	=142	=142	=142	=142	=142	=142	=142	=142	=142	=142	=142	=142
4BB\ 4B	8f#/L 8a 8dd#X	f	2.ryy	.	2.ryy	.	.	2.ryy	.	.	2.ryy	.	.	2.ryy	.	.	2.ryy	.	.
.	8d/J 8a 8b	.	.	.	.	.	.	.	.	.	.	.	.	.	.	.	.	.	.
4.BBB/ 4.BB	(16d/LL 16a 16cc	.	.	.	.	.	.	.	.	.	.	.	.	.	.	.	.	.	.
.	16ddn/	.	.	.	.	.	.	.	.	.	.	.	.	.	.	.	.	.	.
.	16d/ 16a 16cc	.	.	.	.	.	.	.	.	.	.	.	.	.	.	.	.	.	.
.	16b/JJ)	.	.	.	.	.	.	.	.	.	.	.	.	.	.	.	.	.	.
.	8a\L 8b 8ff#	.	.	.	.	.	.	.	.	.	.	.	.	.	.	.	.	.	.
8BBB/ 8BB	8d\J 8a 8b	.	.	.	.	.	.	.	.	.	.	.	.	.	.	.	.	.	.
=143	=143	=143	=143	=143	=143	=143	=143	=143	=143	=143	=143	=143	=143	=143	=143	=143	=143	=143	=143
4BBB/ 4BB	8a\L 8dd#X 8aa	.	2.ryy	.	2.ryy	.	.	2.ryy	.	.	2.ryy	.	.	2.ryy	.	.	2.ryy	.	.
.	8a\J 8dd#	.	.	.	.	.	.	.	.	.	.	.	.	.	.	.	.	.	.
4BB\ 4F# 4A 4d#X	(16a\LL 16ee	.	.	.	.	.	.	.	.	.	.	.	.	.	.	.	.	.	.
.	16ff#\	.	.	.	.	.	.	.	.	.	.	.	.	.	.	.	.	.	.
.	16ee\	.	.	.	.	.	.	.	.	.	.	.	.	.	.	.	.	.	.
.	16dd#\JJ)	.	.	.	.	.	.	.	.	.	.	.	.	.	.	.	.	.	.
4BBB/ 4BB	8a\L 8dd# 8aa	.	.	.	.	.	.	.	.	.	.	.	.	.	.	.	.	.	.
.	8a\J 8dd# 8ff#	.	.	.	.	.	.	.	.	.	.	.	.	.	.	.	.	.	.
=144	=144	=144	=144	=144	=144	=144	=144	=144	=144	=144	=144	=144	=144	=144	=144	=144	=144	=144	=144
8BBB\L 8BB	(16a\LL 16dd#X 16gg	.	2.ryy	.	2.ryy	.	.	2.ryy	.	.	2.ryy	.	.	2.ryy	.	.	2.ryy	.	.
.	16aa\	.	.	.	.	.	.	.	.	.	.	.	.	.	.	.	.	.	.
8BB\J 8F# 8A	16a\ 16dd# 16gg	.	.	.	.	.	.	.	.	.	.	.	.	.	.	.	.	.	.
.	16ff#\JJ)	.	.	.	.	.	.	.	.	.	.	.	.	.	.	.	.	.	.
8BB\L 8F# 8A	8b\L 8dd# 8bb	<	.	.	.	.	.	.	.	.	.	.	.	.	.	.	.	.	.
8BB\J 8F# 8A	8a\J 8dd# 8aa	.	.	.	.	.	.	.	.	.	.	.	.	.	.	.	.	.	.
8BB\L 8F# 8A	8cc\L 8dd# 8ccc	.	.	.	.	.	.	.	.	.	.	.	.	.	.	.	.	.	.
8BB\J 8F# 8A	8b\J 8dd# 8bb	[	.	.	.	.	.	.	.	.	.	.	.	.	.	.	.	.	.
=145	=145	=145	=145	=145	=145	=145	=145	=145	=145	=145	=145	=145	=145	=145	=145	=145	=145	=145	=145
8BB\L 8F# 8A	8cc\L 8dd#X 8ccc	.	2.ryy	.	2.ryy	.	.	2.ryy	.	.	2.ryy	.	.	2.ryy	.	.	2.ryy	.	.
8BB\J 8F# 8A	8b\J 8dd# 8bb	.	.	.	.	.	.	.	.	.	.	.	.	.	.	.	.	.	.
8BB\L 8D#X 8A	8cc\L 8ccc	.	.	.	.	.	.	.	.	.	.	.	.	.	.	.	.	.	.
!	!LO:TX:b:i:t=rall.	!	!	!	!	!	!	!	!	!	!	!	!	!	!	!	!	!	!
8BB\J 8D# 8A	8cc#X\J 8ccc#X	.	.	.	.	.	.	.	.	.	.	.	.	.	.	.	.	.	.
8BB\L 8D# 8F# 8A	8ddn\L 8dddn	.	.	.	.	.	.	.	.	.	.	.	.	.	.	.	.	.	.
8BB\J 8D# 8F# 8A	8dd#X\J 8ddd#X	.	.	.	.	.	.	.	.	.	.	.	.	.	.	.	.	.	.
=||	=||	=||	=||	=||	=||	=||	=||	=||	=||	=||	=||	=||	=||	=||	=||	=||	=||	=||	=||
*-	*-	*-	*-	*-	*-	*-	*-	*-	*-	*-	*-	*-	*-	*-	*-	*-	*-	*-	*-
!!!system-decoration: s1,s2,s3[(s4,s5,s6)]{(s7,s8)}
!!!RDF**kern: > = above
!!!RDF**kern: < = below
!!!ENC: Anastazja Marusiak
!!!END: 2022-10-10
!!!ENC: Jan Barakat
!!!END: 2022-10-22
